;FLAVOR:Marlin
;TIME:4087
;Filament used: 1.80883m
;Layer height: 0.2
;MINX:74.746
;MINY:74.351
;MINZ:0.2
;MAXX:160.276
;MAXY:160.649
;MAXZ:6.2
;Generated with Cura_SteamEngine 4.10.0
M140 S60
M105
M190 S60
M104 S220
M105
M109 S220
M82 ;absolute extrusion mode
; Ender 3 Custom Start G-code
G92 E0 ; Reset Extruder
G28 ; Home all axes
G1 Z2.0 F3000 ; Move Z Axis up little to prevent scratching of Heat Bed
G1 X0.1 Y20 Z0.3 F5000.0 ; Move to start position
G1 X0.1 Y200.0 Z0.3 F1500.0 E15 ; Draw the first line
G1 X0.4 Y200.0 Z0.3 F5000.0 ; Move to side a little
G1 X0.4 Y20 Z0.3 F1500.0 E30 ; Draw the second line
G92 E0 ; Reset Extruder
G1 Z2.0 F3000 ; Move Z Axis up little to prevent scratching of Heat Bed
G1 X5 Y20 Z0.3 F5000.0 ; Move over to prevent blob squish
G92 E0
G92 E0
;LAYER_COUNT:32
;LAYER:0
M107
G0 F6000 X87.119 Y87.11 Z0.2
;TYPE:SKIRT
G1 F1200 X88.335 Y85.923 E0.05652
G1 X88.414 Y85.849 E0.06012
G1 X89.958 Y84.483 E0.12869
G1 X90.047 Y84.409 E0.13254
G1 X91.693 Y83.1 E0.20248
G1 X91.78 Y83.034 E0.20612
G1 X93.13 Y82.066 E0.26137
G1 X93.492 Y81.855 E0.2753
G1 X93.888 Y81.717 E0.28925
G1 X94.303 Y81.657 E0.3032
G1 X94.721 Y81.676 E0.31711
G1 X95.129 Y81.774 E0.33107
G1 X95.617 Y82.014 E0.34916
G1 X95.846 Y82.164 E0.35826
G1 X96.174 Y82.426 E0.37223
G1 X96.311 Y82.372 E0.37712
G1 X98.069 Y81.358 E0.44462
G1 X98.164 Y81.307 E0.44821
G1 X98.084 Y80.869 E0.46302
G1 X98.069 Y80.594 E0.47218
G1 X98.086 Y80.175 E0.48613
G1 X98.183 Y79.767 E0.50007
G1 X98.354 Y79.385 E0.51399
G1 X98.596 Y79.042 E0.52796
G1 X98.897 Y78.752 E0.54186
G1 X99.361 Y78.469 E0.55994
G1 X100.909 Y77.77 E0.61643
G1 X101.009 Y77.727 E0.62005
G1 X102.928 Y76.973 E0.68862
G1 X103.034 Y76.935 E0.69237
G1 X105.036 Y76.264 E0.7626
G1 X105.142 Y76.231 E0.76629
G1 X106.736 Y75.785 E0.82134
G1 X107.149 Y75.711 E0.8353
G1 X107.568 Y75.717 E0.84923
G1 X107.978 Y75.802 E0.86316
G1 X108.365 Y75.963 E0.8771
G1 X108.714 Y76.195 E0.89104
G1 X109.093 Y76.589 E0.90922
G1 X109.257 Y76.809 E0.91835
G1 X109.474 Y77.167 E0.93227
G1 X109.612 Y77.162 E0.93687
G1 X111.625 Y76.808 E1.00485
G1 X111.723 Y76.794 E1.00814
G1 X111.797 Y76.361 E1.02275
G1 X111.876 Y76.098 E1.03188
G1 X112.034 Y75.71 E1.04582
G1 X112.263 Y75.359 E1.05976
G1 X112.554 Y75.058 E1.07368
G1 X112.898 Y74.817 E1.08765
G1 X113.28 Y74.646 E1.10157
G1 X113.815 Y74.537 E1.11973
G1 X115.499 Y74.408 E1.17591
G1 X115.612 Y74.403 E1.17967
G1 X117.689 Y74.351 E1.24877
G1 X117.799 Y74.351 E1.25243
G1 X119.875 Y74.403 E1.3215
G1 X119.988 Y74.408 E1.32526
G1 X121.668 Y74.537 E1.3813
G1 X122.081 Y74.609 E1.39525
G1 X122.473 Y74.758 E1.40919
G1 X122.83 Y74.978 E1.42314
G1 X123.138 Y75.262 E1.43708
G1 X123.387 Y75.599 E1.45101
G1 X123.607 Y76.098 E1.46915
G1 X123.686 Y76.361 E1.47828
G1 X123.768 Y76.772 E1.49222
G1 X123.897 Y76.814 E1.49674
G1 X125.862 Y77.162 E1.56311
G1 X126.007 Y77.193 E1.56804
G1 X126.225 Y76.809 E1.58273
G1 X126.389 Y76.589 E1.59185
G1 X126.67 Y76.279 E1.60577
G1 X127.006 Y76.027 E1.61974
G1 X127.382 Y75.843 E1.63366
G1 X127.787 Y75.735 E1.6476
G1 X128.205 Y75.705 E1.66154
G1 X128.746 Y75.785 E1.67973
G1 X130.378 Y76.242 E1.7361
G1 X130.486 Y76.276 E1.73987
G1 X132.455 Y76.938 E1.80896
G1 X132.558 Y76.975 E1.8126
G1 X134.476 Y77.728 E1.88113
G1 X134.579 Y77.772 E1.88486
G1 X136.123 Y78.471 E1.94123
G1 X136.487 Y78.679 E1.95517
G1 X136.804 Y78.953 E1.96911
G1 X137.064 Y79.282 E1.98305
G1 X137.257 Y79.654 E1.99699
G1 X137.376 Y80.055 E2.01091
G1 X137.413 Y80.595 E2.02891
G1 X137.398 Y80.869 E2.03804
G1 X137.335 Y81.284 E2.052
G1 X137.348 Y81.323 E2.05336
G1 X137.447 Y81.377 E2.05711
G1 X139.175 Y82.375 E2.12348
G1 X139.298 Y82.451 E2.12829
G1 X139.636 Y82.165 E2.14302
G1 X139.865 Y82.015 E2.15212
G1 X140.235 Y81.819 E2.16605
G1 X140.636 Y81.698 E2.17998
G1 X141.053 Y81.655 E2.19393
G1 X141.471 Y81.692 E2.20788
G1 X141.874 Y81.807 E2.22182
G1 X142.352 Y82.067 E2.23992
G1 X143.731 Y83.056 E2.29636
G1 X143.819 Y83.123 E2.30004
G1 X145.439 Y84.413 E2.36892
G1 X145.526 Y84.486 E2.37269
G1 X147.071 Y85.852 E2.44129
G1 X147.151 Y85.926 E2.44491
G1 X148.363 Y87.11 E2.50127
G1 X148.634 Y87.43 E2.51521
G1 X148.839 Y87.796 E2.52916
G1 X148.971 Y88.194 E2.54311
G1 X149.025 Y88.609 E2.55703
G1 X148.999 Y89.027 E2.57096
G1 X148.845 Y89.557 E2.58932
G1 X148.736 Y89.809 E2.59845
G1 X148.534 Y90.176 E2.61238
G1 X148.61 Y90.289 E2.61691
G1 X149.897 Y91.825 E2.68356
G1 X149.985 Y91.936 E2.68827
G1 X150.39 Y91.785 E2.70265
G1 X150.657 Y91.721 E2.71178
G1 X151.072 Y91.662 E2.72572
G1 X151.491 Y91.683 E2.73968
G1 X151.898 Y91.784 E2.75362
G1 X152.278 Y91.959 E2.76754
G1 X152.618 Y92.204 E2.78148
G1 X152.987 Y92.62 E2.79997
G1 X153.94 Y94.017 E2.85622
G1 X154 Y94.109 E2.85987
G1 X155.08 Y95.875 E2.92872
G1 X155.136 Y95.972 E2.93245
G1 X156.131 Y97.802 E3.00173
G1 X156.18 Y97.899 E3.00534
G1 X156.91 Y99.416 E3.06134
G1 X157.055 Y99.809 E3.07527
G1 X157.123 Y100.223 E3.08922
G1 X157.111 Y100.642 E3.10317
G1 X157.02 Y101.051 E3.1171
G1 X156.853 Y101.435 E3.13103
G1 X156.531 Y101.877 E3.14922
G1 X156.343 Y102.077 E3.15835
G1 X156.028 Y102.353 E3.17228
G1 X156.054 Y102.487 E3.17682
G1 X156.749 Y104.401 E3.24454
G1 X156.783 Y104.502 E3.24809
G1 X157.209 Y104.497 E3.26226
G1 X157.482 Y104.527 E3.27139
G1 X157.893 Y104.612 E3.28535
G1 X158.279 Y104.774 E3.29928
G1 X158.628 Y105.006 E3.31321
G1 X158.927 Y105.3 E3.32716
G1 X159.165 Y105.645 E3.3411
G1 X159.37 Y106.156 E3.35941
G1 X159.663 Y107.277 E3.39795
G1 X159.977 Y108.666 E3.44531
G1 X160.237 Y110.031 E3.49153
G1 X160.276 Y110.448 E3.50546
G1 X160.235 Y110.865 E3.5194
G1 X160.115 Y111.266 E3.53332
G1 X159.894 Y111.68 E3.54893
G1 X159.8 Y111.818 E3.55448
G1 X159.532 Y112.14 E3.56842
G1 X159.208 Y112.405 E3.58234
G1 X158.84 Y112.605 E3.59627
G1 X158.355 Y112.747 E3.61308
G1 X154.64 Y113.386 E3.73845
G1 X154.222 Y113.418 E3.7524
G1 X153.806 Y113.369 E3.76633
G1 X153.406 Y113.243 E3.78028
G1 X153.018 Y113.029 E3.79501
G1 X152.886 Y112.938 E3.80035
G1 X152.566 Y112.669 E3.81425
G1 X152.302 Y112.343 E3.8282
G1 X152.104 Y111.973 E3.84216
G1 X151.98 Y111.568 E3.85625
G1 X151.558 Y109.503 E3.92635
G1 X150.984 Y107.378 E3.99956
G1 X150.288 Y105.328 E4.07157
G1 X149.456 Y103.299 E4.1445
G1 X148.511 Y101.353 E4.21646
G1 X147.453 Y99.481 E4.28797
G1 X146.249 Y97.633 E4.36133
G1 X144.963 Y95.902 E4.43306
G1 X143.553 Y94.235 E4.50568
G1 X142.057 Y92.677 E4.57752
G1 X140.453 Y91.2 E4.65004
G1 X138.779 Y89.844 E4.72169
G1 X136.997 Y88.575 E4.79445
G1 X135.145 Y87.424 E4.86698
G1 X133.243 Y86.402 E4.93879
G1 X131.251 Y85.486 E5.01171
G1 X129.228 Y84.704 E5.08385
G1 X127.16 Y84.052 E5.15597
G1 X125.037 Y83.524 E5.22873
G1 X122.92 Y83.14 E5.30029
G1 X120.755 Y82.883 E5.37281
G1 X118.573 Y82.762 E5.44549
G1 X116.424 Y82.776 E5.51697
G1 X114.235 Y82.929 E5.58995
G1 X112.098 Y83.213 E5.66166
G1 X109.969 Y83.632 E5.73383
G1 X107.867 Y84.184 E5.80611
G1 X105.799 Y84.868 E5.87856
G1 X103.763 Y85.688 E5.95156
G1 X101.814 Y86.616 E6.02336
G1 X99.912 Y87.673 E6.09573
G1 X98.076 Y88.851 E6.16828
G1 X96.343 Y90.122 E6.23976
G1 X94.664 Y91.521 E6.31245
G1 X93.086 Y93.015 E6.38473
G1 X91.599 Y94.607 E6.45718
G1 X90.222 Y96.284 E6.52935
G1 X88.949 Y98.044 E6.6016
G1 X87.795 Y99.875 E6.67359
G1 X86.747 Y101.79 E6.74619
G1 X85.825 Y103.758 E6.81848
G1 X85.028 Y105.782 E6.89083
G1 X84.359 Y107.848 E6.96305
G1 X83.816 Y109.971 E7.03594
G1 X83.414 Y112.099 E7.10797
G1 X83.147 Y114.232 E7.17947
G1 X83.009 Y116.426 E7.25258
G1 X83.009 Y118.567 E7.32379
G1 X83.147 Y120.768 E7.39714
G1 X83.415 Y122.91 E7.46894
G1 X83.814 Y125.013 E7.54013
G1 X84.361 Y127.157 E7.61373
G1 X85.028 Y129.217 E7.68575
G1 X85.823 Y131.235 E7.75789
G1 X86.751 Y133.216 E7.83064
G1 X87.795 Y135.125 E7.90301
G1 X88.947 Y136.954 E7.97491
G1 X90.216 Y138.708 E8.04691
G1 X91.611 Y140.405 E8.11998
G1 X93.078 Y141.977 E8.19149
G1 X94.664 Y143.479 E8.26414
G1 X96.343 Y144.878 E8.33683
G1 X98.076 Y146.149 E8.40831
G1 X99.912 Y147.327 E8.48087
G1 X101.814 Y148.384 E8.55324
G1 X103.763 Y149.312 E8.62504
G1 X105.799 Y150.132 E8.69804
G1 X107.86 Y150.814 E8.77025
G1 X109.983 Y151.373 E8.84326
G1 X112.091 Y151.786 E8.91471
G1 X114.235 Y152.071 E8.98665
G1 X116.424 Y152.224 E9.05963
G1 X118.573 Y152.238 E9.13111
G1 X120.755 Y152.117 E9.20379
G1 X122.925 Y151.859 E9.27648
G1 X125.023 Y151.476 E9.34741
G1 X127.169 Y150.945 E9.42094
G1 X129.228 Y150.296 E9.49274
G1 X131.251 Y149.514 E9.56488
G1 X133.243 Y148.598 E9.6378
G1 X135.148 Y147.574 E9.70974
G1 X136.997 Y146.425 E9.78214
G1 X138.779 Y145.156 E9.8549
G1 X140.454 Y143.799 E9.9266
G1 X142.059 Y142.324 E9.9991
G1 X143.554 Y140.764 E10.07097
G1 X144.964 Y139.097 E10.14359
G1 X146.255 Y137.359 E10.2156
G1 X147.452 Y135.52 E10.28858
G1 X148.509 Y133.651 E10.35999
G1 X149.467 Y131.676 E10.433
G1 X150.282 Y129.691 E10.50437
G1 X150.986 Y127.612 E10.57738
G1 X151.557 Y125.505 E10.64998
G1 X151.979 Y123.434 E10.72028
G1 X152.102 Y123.033 E10.73423
G1 X152.298 Y122.663 E10.74816
G1 X152.56 Y122.337 E10.76207
G1 X152.886 Y122.062 E10.77625
G1 X153.018 Y121.971 E10.78159
G1 X153.384 Y121.767 E10.79552
G1 X153.783 Y121.636 E10.80949
G1 X154.198 Y121.583 E10.82341
G1 X154.64 Y121.614 E10.83814
G1 X158.355 Y122.253 E10.96352
G1 X158.759 Y122.363 E10.97744
G1 X159.135 Y122.548 E10.99138
G1 X159.47 Y122.8 E11.00532
G1 X159.8 Y123.182 E11.02211
G1 X159.894 Y123.32 E11.02767
G1 X160.096 Y123.688 E11.04163
G1 X160.225 Y124.087 E11.05558
G1 X160.275 Y124.503 E11.06951
G1 X160.237 Y124.97 E11.0851
G1 X159.976 Y126.337 E11.13139
G1 X159.658 Y127.743 E11.17933
G1 X159.367 Y128.849 E11.21737
G1 X159.222 Y129.242 E11.2313
G1 X159.005 Y129.601 E11.24525
G1 X158.724 Y129.912 E11.25919
G1 X158.389 Y130.163 E11.27312
G1 X158.012 Y130.347 E11.28707
G1 X157.482 Y130.474 E11.3052
G1 X157.211 Y130.504 E11.31426
G1 X156.792 Y130.51 E11.3282
G1 X156.741 Y130.623 E11.33233
G1 X156.055 Y132.509 E11.39907
G1 X156.003 Y132.641 E11.40379
G1 X156.343 Y132.923 E11.41849
G1 X156.531 Y133.123 E11.42761
G1 X156.788 Y133.454 E11.44155
G1 X156.977 Y133.828 E11.45549
G1 X157.092 Y134.231 E11.46943
G1 X157.128 Y134.649 E11.48338
G1 X157.084 Y135.066 E11.49733
G1 X156.911 Y135.584 E11.51549
G1 X156.179 Y137.106 E11.57167
G1 X156.128 Y137.204 E11.57534
G1 X155.133 Y139.032 E11.64456
G1 X155.079 Y139.126 E11.64817
G1 X154.005 Y140.885 E11.71672
G1 X153.944 Y140.98 E11.72047
G1 X152.987 Y142.381 E11.7769
G1 X152.718 Y142.703 E11.79086
G1 X152.394 Y142.968 E11.80478
G1 X152.025 Y143.167 E11.81872
G1 X151.625 Y143.292 E11.83266
G1 X151.209 Y143.34 E11.84659
G1 X150.657 Y143.279 E11.86506
G1 X150.39 Y143.215 E11.87419
G1 X149.994 Y143.079 E11.88812
G1 X149.892 Y143.182 E11.89294
G1 X148.583 Y144.739 E11.9606
G1 X148.516 Y144.816 E11.96399
G1 X148.736 Y145.191 E11.97845
G1 X148.845 Y145.443 E11.98758
G1 X148.974 Y145.841 E12.0015
G1 X149.025 Y146.257 E12.01544
G1 X148.996 Y146.675 E12.02938
G1 X148.889 Y147.08 E12.04331
G1 X148.707 Y147.458 E12.05726
G1 X148.363 Y147.89 E12.07563
G1 X147.147 Y149.077 E12.13215
G1 X147.068 Y149.151 E12.13575
G1 X145.524 Y150.517 E12.20432
G1 X145.435 Y150.591 E12.20816
G1 X143.789 Y151.9 E12.27811
G1 X143.702 Y151.966 E12.28174
G1 X142.352 Y152.934 E12.337
G1 X141.99 Y153.145 E12.35093
G1 X141.594 Y153.283 E12.36488
G1 X141.179 Y153.343 E12.37883
G1 X140.761 Y153.324 E12.39274
G1 X140.353 Y153.226 E12.4067
G1 X139.865 Y152.986 E12.42479
G1 X139.636 Y152.836 E12.43389
G1 X139.308 Y152.574 E12.44785
G1 X139.268 Y152.568 E12.4492
G1 X139.171 Y152.628 E12.45299
G1 X137.413 Y153.642 E12.52049
G1 X137.318 Y153.693 E12.52408
G1 X137.398 Y154.131 E12.53889
G1 X137.413 Y154.406 E12.54805
G1 X137.396 Y154.825 E12.562
G1 X137.299 Y155.233 E12.57594
G1 X137.128 Y155.615 E12.58987
G1 X136.886 Y155.958 E12.60383
G1 X136.585 Y156.248 E12.61773
G1 X136.121 Y156.531 E12.63581
G1 X134.573 Y157.23 E12.6923
G1 X134.473 Y157.272 E12.69591
G1 X132.555 Y158.026 E12.76445
G1 X132.449 Y158.065 E12.76821
G1 X130.447 Y158.736 E12.83843
G1 X130.342 Y158.768 E12.84209
G1 X128.747 Y159.215 E12.89718
G1 X128.334 Y159.29 E12.91114
G1 X127.915 Y159.284 E12.92508
G1 X127.505 Y159.199 E12.939
G1 X127.118 Y159.038 E12.95295
G1 X126.769 Y158.807 E12.96687
G1 X126.389 Y158.412 E12.9851
G1 X126.225 Y158.192 E12.99422
G1 X126.008 Y157.834 E13.00815
G1 X125.87 Y157.838 E13.01274
G1 X123.857 Y158.192 E13.08072
G1 X123.76 Y158.206 E13.08398
G1 X123.686 Y158.639 E13.09859
G1 X123.607 Y158.902 E13.10772
G1 X123.449 Y159.29 E13.12166
G1 X123.22 Y159.641 E13.13559
G1 X122.929 Y159.942 E13.14952
G1 X122.585 Y160.183 E13.16349
G1 X122.203 Y160.354 E13.17741
G1 X121.668 Y160.463 E13.19557
G1 X119.984 Y160.592 E13.25174
G1 X119.871 Y160.597 E13.25551
G1 X117.793 Y160.649 E13.32464
G1 X117.683 Y160.649 E13.3283
G1 X115.608 Y160.597 E13.39734
G1 X115.495 Y160.592 E13.4011
G1 X113.815 Y160.463 E13.45714
G1 X113.402 Y160.391 E13.47108
G1 X113.01 Y160.242 E13.48503
G1 X112.653 Y160.022 E13.49898
G1 X112.345 Y159.738 E13.51291
G1 X112.096 Y159.401 E13.52685
G1 X111.876 Y158.902 E13.54499
G1 X111.797 Y158.639 E13.55412
G1 X111.715 Y158.228 E13.56806
G1 X111.585 Y158.186 E13.57261
G1 X109.62 Y157.838 E13.63898
G1 X109.475 Y157.807 E13.64391
G1 X109.257 Y158.191 E13.6586
G1 X109.093 Y158.411 E13.66772
G1 X108.812 Y158.721 E13.68164
G1 X108.476 Y158.973 E13.69561
G1 X108.1 Y159.157 E13.70953
G1 X107.695 Y159.265 E13.72347
G1 X107.277 Y159.295 E13.73741
G1 X106.735 Y159.214 E13.75564
G1 X105.104 Y158.757 E13.81198
G1 X104.997 Y158.724 E13.8157
G1 X103.027 Y158.062 E13.88482
G1 X102.923 Y158.025 E13.88849
G1 X101.004 Y157.271 E13.95707
G1 X100.902 Y157.227 E13.96076
G1 X99.359 Y156.529 E14.01709
G1 X98.996 Y156.321 E14.03101
G1 X98.678 Y156.048 E14.04495
G1 X98.418 Y155.719 E14.05889
G1 X98.225 Y155.347 E14.07283
G1 X98.106 Y154.945 E14.08678
G1 X98.069 Y154.405 E14.10478
G1 X98.084 Y154.131 E14.11391
G1 X98.147 Y153.716 E14.12787
G1 X98.134 Y153.677 E14.12923
G1 X98.035 Y153.623 E14.13299
G1 X96.307 Y152.625 E14.19936
G1 X96.184 Y152.549 E14.20416
G1 X95.846 Y152.835 E14.21889
G1 X95.617 Y152.985 E14.228
G1 X95.247 Y153.181 E14.24192
G1 X94.846 Y153.302 E14.25585
G1 X94.429 Y153.345 E14.2698
G1 X94.011 Y153.308 E14.28375
G1 X93.608 Y153.193 E14.29769
G1 X93.13 Y152.933 E14.31579
G1 X91.751 Y151.944 E14.37223
G1 X91.662 Y151.877 E14.37594
G1 X90.041 Y150.586 E14.44486
G1 X89.955 Y150.513 E14.44861
G1 X88.41 Y149.147 E14.51721
G1 X88.33 Y149.073 E14.52083
G1 X87.119 Y147.89 E14.57714
G1 X86.848 Y147.57 E14.59108
G1 X86.643 Y147.204 E14.60504
G1 X86.511 Y146.806 E14.61898
G1 X86.457 Y146.391 E14.6329
G1 X86.483 Y145.973 E14.64683
G1 X86.637 Y145.443 E14.66519
G1 X86.746 Y145.191 E14.67432
G1 X86.948 Y144.824 E14.68825
G1 X86.872 Y144.711 E14.69278
G1 X85.585 Y143.175 E14.75943
G1 X85.498 Y143.064 E14.76413
G1 X85.093 Y143.215 E14.7785
G1 X84.826 Y143.279 E14.78763
G1 X84.411 Y143.338 E14.80158
G1 X83.992 Y143.317 E14.81553
G1 X83.585 Y143.216 E14.82948
G1 X83.205 Y143.041 E14.84339
G1 X82.865 Y142.796 E14.85733
G1 X82.496 Y142.381 E14.8758
G1 X81.537 Y140.977 E14.93235
G1 X81.477 Y140.883 E14.93606
G1 X80.402 Y139.124 E15.00462
G1 X80.346 Y139.028 E15.00832
G1 X79.351 Y137.198 E15.0776
G1 X79.302 Y137.101 E15.08122
G1 X78.572 Y135.584 E15.13721
G1 X78.427 Y135.191 E15.15114
G1 X78.359 Y134.777 E15.1651
G1 X78.371 Y134.358 E15.17904
G1 X78.462 Y133.949 E15.19297
G1 X78.629 Y133.565 E15.2069
G1 X78.951 Y133.123 E15.22509
G1 X79.139 Y132.923 E15.23422
G1 X79.454 Y132.647 E15.24815
G1 X79.424 Y132.503 E15.25304
G1 X78.729 Y130.588 E15.3208
G1 X78.698 Y130.494 E15.32409
G1 X78.253 Y130.496 E15.33889
G1 X77.98 Y130.463 E15.34804
G1 X77.571 Y130.373 E15.36197
G1 X77.186 Y130.208 E15.3759
G1 X76.839 Y129.972 E15.38986
G1 X76.544 Y129.675 E15.40378
G1 X76.31 Y129.327 E15.41773
G1 X76.113 Y128.824 E15.4357
G1 X75.693 Y127.181 E15.4921
G1 X75.668 Y127.073 E15.49579
G1 X75.258 Y125.048 E15.5645
G1 X75.238 Y124.937 E15.56826
G1 X74.925 Y122.848 E15.63851
G1 X74.912 Y122.741 E15.6421
G1 X74.748 Y121.098 E15.69701
G1 X74.746 Y120.678 E15.71098
G1 X74.824 Y120.267 E15.7249
G1 X74.978 Y119.877 E15.73884
G1 X75.204 Y119.524 E15.75279
G1 X75.492 Y119.22 E15.76671
