;FLAVOR:Marlin
;TIME:2619
;Filament used: 1.46999m
;Layer height: 0.3
;MINX:62.633
;MINY:87.801
;MINZ:0.2
;MAXX:175.962
;MAXY:147.199
;MAXZ:3.5
;Generated with Cura_SteamEngine 4.11.0
M140 S60
M105
M190 S60
M104 S205
M105
M109 S205
M82 ;absolute extrusion mode
; Ender 3 Custom Start G-code
G92 E0 ; Reset Extruder
G28 ; Home all axes
G1 Z2.0 F3000 ; Move Z Axis up little to prevent scratching of Heat Bed
G1 X0.1 Y20 Z0.3 F5000.0 ; Move to start position
G1 X0.1 Y200.0 Z0.3 F1500.0 E15 ; Draw the first line
G1 X0.4 Y200.0 Z0.3 F5000.0 ; Move to side a little
G1 X0.4 Y20 Z0.3 F1500.0 E30 ; Draw the second line
G92 E0 ; Reset Extruder
G1 Z2.0 F3000 ; Move Z Axis up little to prevent scratching of Heat Bed
G1 X5 Y20 Z0.3 F5000.0 ; Move over to prevent blob squish
G92 E0
G92 E0
G1 F2700 E-5
;LAYER_COUNT:12
;LAYER:0
M107
G0 F6000 X127.912 Y94.96 Z0.2
;TYPE:SKIRT
G1 F2700 E0
G1 F1200 X128.331 Y94.422 E0.02268
G1 X128.542 Y94.174 E0.03351
G1 X128.881 Y93.801 E0.05027
G1 X129.098 Y93.577 E0.06065
G1 X129.533 Y93.161 E0.08067
G1 X129.775 Y92.947 E0.09141
G1 X130.218 Y92.583 E0.11048
G1 X130.398 Y92.446 E0.11801
G1 X130.914 Y92.086 E0.13893
G1 X131.12 Y91.954 E0.14707
G1 X131.84 Y91.544 E0.17463
G1 X132.06 Y91.434 E0.18281
G1 X132.645 Y91.171 E0.20414
G1 X132.862 Y91.084 E0.21192
G1 X133.308 Y90.921 E0.22771
G1 X133.771 Y90.771 E0.2439
G1 X133.845 Y90.749 E0.24647
G1 X134.183 Y90.657 E0.25812
G1 X134.444 Y90.592 E0.26706
G1 X134.938 Y90.486 E0.28387
G1 X135.258 Y90.428 E0.29468
G1 X135.945 Y90.335 E0.31774
G1 X136.254 Y90.307 E0.32806
G1 X136.928 Y90.275 E0.3505
G1 X137.184 Y90.274 E0.35902
G1 X137.943 Y90.308 E0.38429
G1 X138.188 Y90.331 E0.39247
G1 X139.064 Y90.464 E0.42194
G1 X139.297 Y90.513 E0.42986
G1 X140.179 Y90.753 E0.46026
G1 X140.393 Y90.825 E0.46777
G1 X141.436 Y91.262 E0.50539
G1 X141.637 Y91.364 E0.51288
G1 X142.599 Y91.944 E0.55024
G1 X142.775 Y92.068 E0.55741
G1 X143.397 Y92.555 E0.58368
G1 X143.747 Y92.878 E0.59952
G1 X143.966 Y93.093 E0.60973
G1 X144.501 Y93.674 E0.636
G1 X144.816 Y94.08 E0.65309
G1 X145.006 Y94.342 E0.66385
G1 X145.548 Y95.216 E0.69806
G1 X145.766 Y95.209 E0.70531
G1 X146.763 Y95.209 E0.73847
G1 X146.974 Y95.216 E0.74549
G1 X147.158 Y94.89 E0.75794
G1 X147.207 Y94.81 E0.76107
G1 X147.533 Y94.32 E0.78064
G1 X147.66 Y94.144 E0.78786
G1 X148.337 Y93.328 E0.82312
G1 X148.538 Y93.117 E0.83282
G1 X149.111 Y92.574 E0.85907
G1 X149.427 Y92.317 E0.87262
G1 X149.614 Y92.173 E0.88047
G1 X150.263 Y91.723 E0.90674
G1 X150.618 Y91.516 E0.9204
G1 X150.831 Y91.399 E0.92849
G1 X151.541 Y91.055 E0.95473
G1 X151.938 Y90.899 E0.96891
G1 X152.179 Y90.812 E0.97744
G1 X153.23 Y90.514 E1.01377
G1 X153.493 Y90.459 E1.02271
G1 X154.5 Y90.316 E1.05654
G1 X154.777 Y90.295 E1.06578
G1 X155.438 Y90.273 E1.08777
G1 X155.658 Y90.275 E1.09509
G1 X156.308 Y90.308 E1.11674
G1 X156.599 Y90.335 E1.12646
G1 X157.238 Y90.421 E1.1479
G1 X157.56 Y90.478 E1.15878
G1 X158.151 Y90.607 E1.1789
G1 X158.453 Y90.685 E1.18927
G1 X158.998 Y90.847 E1.20818
G1 X159.303 Y90.95 E1.21889
G1 X159.853 Y91.159 E1.23846
G1 X160.117 Y91.271 E1.248
G1 X160.846 Y91.626 E1.27497
G1 X161.025 Y91.725 E1.28177
G1 X161.666 Y92.121 E1.30683
G1 X161.947 Y92.314 E1.31817
G1 X162.499 Y92.73 E1.34116
G1 X162.591 Y92.806 E1.34513
G1 X162.848 Y93.028 E1.35642
G1 X163.083 Y93.24 E1.36695
G1 X163.46 Y93.604 E1.38438
G1 X163.647 Y93.797 E1.39332
G1 X164.019 Y94.21 E1.4118
G1 X164.228 Y94.459 E1.42262
G1 X164.601 Y94.94 E1.44286
G1 X164.781 Y95.192 E1.45316
G1 X165.186 Y95.82 E1.47802
G1 X165.315 Y96.043 E1.48658
G1 X165.632 Y96.652 E1.50942
G1 X165.736 Y96.875 E1.5176
G1 X166.093 Y97.785 E1.55012
G1 X166.165 Y98.009 E1.55794
G1 X166.388 Y98.866 E1.5874
G1 X166.433 Y99.091 E1.59503
G1 X166.573 Y100.198 E1.63214
G1 X166.585 Y100.419 E1.6395
G1 X166.566 Y101.522 E1.67619
G1 X166.547 Y101.739 E1.68344
G1 X166.439 Y102.522 E1.70973
G1 X166.331 Y103.004 E1.72616
G1 X166.254 Y103.303 E1.73642
G1 X166.018 Y104.057 E1.7627
G1 X165.816 Y104.553 E1.78051
G1 X165.684 Y104.847 E1.79123
G1 X165.206 Y105.738 E1.82486
G1 X165.333 Y105.943 E1.83288
G1 X165.81 Y106.77 E1.86464
G1 X165.917 Y106.971 E1.87221
G1 X166.177 Y106.967 E1.88086
G1 X166.269 Y106.968 E1.88392
G1 X167.01 Y107.012 E1.90861
G1 X167.226 Y107.035 E1.91583
G1 X168.222 Y107.207 E1.94945
G1 X168.505 Y107.275 E1.95913
G1 X169.263 Y107.498 E1.98541
G1 X169.66 Y107.649 E1.99954
G1 X169.878 Y107.739 E2.00738
G1 X170.591 Y108.077 E2.03363
G1 X170.947 Y108.28 E2.04726
G1 X171.158 Y108.408 E2.05547
G1 X171.811 Y108.851 E2.08171
G1 X172.142 Y109.116 E2.09581
G1 X172.334 Y109.278 E2.10417
G1 X173.131 Y110.053 E2.14114
G1 X173.309 Y110.253 E2.15005
G1 X173.911 Y111.022 E2.18253
G1 X174.069 Y111.252 E2.19181
G1 X174.432 Y111.833 E2.2146
G1 X174.541 Y112.026 E2.22197
G1 X174.834 Y112.6 E2.2434
G1 X174.956 Y112.865 E2.25311
G1 X175.209 Y113.482 E2.27529
G1 X175.32 Y113.79 E2.28618
G1 X175.504 Y114.372 E2.30648
G1 X175.586 Y114.671 E2.31679
G1 X175.685 Y115.071 E2.3305
G1 X175.728 Y115.268 E2.3372
G1 X175.822 Y115.784 E2.35465
G1 X175.873 Y116.127 E2.36618
G1 X175.952 Y116.979 E2.39464
G1 X175.962 Y117.243 E2.40343
G1 X175.944 Y118.147 E2.4335
G1 X175.918 Y118.479 E2.44458
G1 X175.818 Y119.255 E2.4706
G1 X175.747 Y119.638 E2.48356
G1 X175.706 Y119.837 E2.49031
G1 X175.579 Y120.359 E2.50818
G1 X175.497 Y120.653 E2.51833
G1 X175.326 Y121.191 E2.53711
G1 X175.213 Y121.506 E2.54824
G1 X174.97 Y122.103 E2.56968
G1 X174.843 Y122.382 E2.57987
G1 X174.49 Y123.066 E2.60547
G1 X174.36 Y123.29 E2.61409
G1 X173.98 Y123.882 E2.63749
G1 X173.837 Y124.084 E2.64572
G1 X173.29 Y124.771 E2.67493
G1 X173.132 Y124.948 E2.68282
G1 X172.425 Y125.645 E2.71584
G1 X172.251 Y125.796 E2.7235
G1 X171.408 Y126.433 E2.75864
G1 X171.223 Y126.554 E2.766
G1 X170.237 Y127.102 E2.80351
G1 X170.043 Y127.192 E2.81063
G1 X169.31 Y127.487 E2.83691
G1 X168.859 Y127.628 E2.85262
G1 X168.562 Y127.711 E2.86288
G1 X167.792 Y127.885 E2.88914
G1 X167.253 Y127.959 E2.90723
G1 X166.929 Y127.992 E2.91806
G1 X165.92 Y128.023 E2.95164
G1 X165.818 Y128.215 E2.95887
G1 X165.319 Y129.079 E2.99206
G1 X165.209 Y129.256 E2.99899
G1 X165.366 Y129.523 E3.00929
G1 X165.412 Y129.606 E3.01245
G1 X165.7 Y130.179 E3.03378
G1 X165.788 Y130.374 E3.04089
G1 X166.156 Y131.365 E3.07605
G1 X166.239 Y131.645 E3.08576
G1 X166.425 Y132.413 E3.11205
G1 X166.497 Y132.866 E3.1273
G1 X166.527 Y133.099 E3.13512
G1 X166.589 Y134.254 E3.17359
G1 X166.584 Y134.499 E3.18174
G1 X166.528 Y135.287 E3.20801
G1 X166.47 Y135.682 E3.22129
G1 X166.426 Y135.934 E3.2298
G1 X166.151 Y137.032 E3.26745
G1 X166.068 Y137.284 E3.27627
G1 X165.701 Y138.197 E3.309
G1 X165.581 Y138.449 E3.31828
G1 X165.243 Y139.083 E3.34218
G1 X165.13 Y139.273 E3.34953
G1 X164.786 Y139.802 E3.37052
G1 X164.617 Y140.04 E3.38023
G1 X164.198 Y140.578 E3.40291
G1 X163.987 Y140.826 E3.41374
G1 X163.648 Y141.199 E3.4305
G1 X163.431 Y141.423 E3.44088
G1 X162.996 Y141.839 E3.46089
G1 X162.754 Y142.053 E3.47164
G1 X162.311 Y142.417 E3.49071
G1 X162.131 Y142.554 E3.49823
G1 X161.615 Y142.914 E3.51916
G1 X161.409 Y143.046 E3.5273
G1 X160.689 Y143.456 E3.55485
G1 X160.469 Y143.566 E3.56304
G1 X159.884 Y143.829 E3.58437
G1 X159.667 Y143.916 E3.59214
G1 X159.221 Y144.079 E3.60794
G1 X158.758 Y144.229 E3.62413
G1 X158.684 Y144.251 E3.62669
G1 X158.346 Y144.343 E3.63834
G1 X158.085 Y144.408 E3.64729
G1 X157.591 Y144.514 E3.66409
G1 X157.271 Y144.572 E3.67491
G1 X156.584 Y144.665 E3.69797
G1 X156.275 Y144.693 E3.70829
G1 X155.601 Y144.725 E3.73073
G1 X155.345 Y144.726 E3.73925
G1 X154.586 Y144.692 E3.76452
G1 X154.341 Y144.669 E3.7727
G1 X153.465 Y144.536 E3.80217
G1 X153.232 Y144.487 E3.81009
G1 X152.35 Y144.247 E3.84049
G1 X152.136 Y144.175 E3.848
G1 X151.093 Y143.738 E3.88561
G1 X150.892 Y143.636 E3.89311
G1 X149.93 Y143.056 E3.93047
G1 X149.754 Y142.932 E3.93763
G1 X149.132 Y142.445 E3.96391
G1 X148.781 Y142.122 E3.97977
G1 X148.561 Y141.906 E3.99003
G1 X148.027 Y141.325 E4.01627
G1 X147.706 Y140.912 E4.03367
G1 X147.515 Y140.648 E4.04451
G1 X146.982 Y139.783 E4.0783
G1 X146.75 Y139.791 E4.08602
G1 X145.796 Y139.792 E4.11775
G1 X145.555 Y139.784 E4.12577
G1 X145.371 Y140.11 E4.13822
G1 X145.322 Y140.19 E4.14134
G1 X144.996 Y140.68 E4.16092
G1 X144.869 Y140.856 E4.16814
G1 X144.192 Y141.672 E4.2034
G1 X143.991 Y141.883 E4.21309
G1 X143.418 Y142.426 E4.23935
G1 X143.102 Y142.683 E4.2529
G1 X142.915 Y142.827 E4.26075
G1 X142.266 Y143.277 E4.28702
G1 X141.911 Y143.484 E4.30068
G1 X141.698 Y143.601 E4.30877
G1 X140.988 Y143.945 E4.33501
G1 X140.591 Y144.101 E4.34919
G1 X140.35 Y144.188 E4.35772
G1 X139.299 Y144.486 E4.39405
G1 X139.036 Y144.541 E4.40299
G1 X138.029 Y144.684 E4.43682
G1 X137.752 Y144.705 E4.44606
G1 X137.091 Y144.727 E4.46805
G1 X136.871 Y144.725 E4.47537
G1 X136.221 Y144.692 E4.49702
G1 X135.93 Y144.665 E4.50674
G1 X135.291 Y144.579 E4.52818
G1 X134.969 Y144.522 E4.53906
G1 X134.378 Y144.393 E4.55918
G1 X134.076 Y144.315 E4.56955
G1 X133.531 Y144.153 E4.58846
G1 X133.226 Y144.05 E4.59917
G1 X132.676 Y143.841 E4.61874
G1 X132.412 Y143.729 E4.62828
G1 X131.683 Y143.374 E4.65525
G1 X131.504 Y143.275 E4.66205
G1 X130.858 Y142.875 E4.68732
G1 X130.576 Y142.681 E4.69871
G1 X130.036 Y142.274 E4.7212
G1 X129.945 Y142.199 E4.72512
G1 X129.699 Y141.988 E4.7359
G1 X129.496 Y141.806 E4.74497
G1 X129.138 Y141.464 E4.76143
G1 X128.918 Y141.24 E4.77188
G1 X128.509 Y140.789 E4.79213
G1 X128.3 Y140.54 E4.80294
G1 X127.918 Y140.047 E4.82368
G1 X127.738 Y139.794 E4.83401
G1 X127.342 Y139.178 E4.85837
G1 X127.213 Y138.955 E4.86693
G1 X126.896 Y138.346 E4.88977
G1 X126.792 Y138.123 E4.89795
G1 X126.432 Y137.202 E4.93084
G1 X126.361 Y136.98 E4.93859
G1 X126.139 Y136.121 E4.9681
G1 X126.094 Y135.894 E4.9758
G1 X125.957 Y134.804 E5.01234
G1 X125.945 Y134.585 E5.01963
G1 X125.963 Y133.478 E5.05646
G1 X125.982 Y133.261 E5.0637
G1 X126.09 Y132.478 E5.08999
G1 X126.198 Y131.996 E5.10642
G1 X126.275 Y131.697 E5.11669
G1 X126.511 Y130.943 E5.14297
G1 X126.713 Y130.447 E5.16078
G1 X126.845 Y130.153 E5.1715
G1 X127.324 Y129.261 E5.20518
G1 X127.21 Y129.079 E5.21232
G1 X126.711 Y128.215 E5.2455
G1 X126.612 Y128.029 E5.25251
G1 X126.352 Y128.033 E5.26116
G1 X126.26 Y128.032 E5.26422
G1 X125.519 Y127.988 E5.28891
G1 X125.303 Y127.965 E5.29613
G1 X124.301 Y127.792 E5.32995
G1 X124.019 Y127.724 E5.3396
G1 X123.261 Y127.5 E5.36589
G1 X122.882 Y127.356 E5.37938
G1 X122.663 Y127.266 E5.38725
G1 X121.949 Y126.929 E5.41351
G1 X121.568 Y126.711 E5.42811
G1 X121.358 Y126.583 E5.43629
G1 X120.398 Y125.892 E5.47563
G1 X120.203 Y125.728 E5.48411
G1 X119.395 Y124.943 E5.52158
G1 X119.218 Y124.744 E5.53043
G1 X118.608 Y123.964 E5.56337
G1 X118.45 Y123.733 E5.57268
G1 X118.096 Y123.165 E5.59494
G1 X117.987 Y122.972 E5.60231
G1 X117.693 Y122.396 E5.62382
G1 X117.572 Y122.133 E5.63345
G1 X117.32 Y121.518 E5.65555
G1 X117.209 Y121.21 E5.66644
G1 X117.025 Y120.628 E5.68674
G1 X116.943 Y120.329 E5.69705
G1 X116.844 Y119.929 E5.71076
G1 X116.801 Y119.732 E5.71747
G1 X116.707 Y119.216 E5.73491
G1 X116.656 Y118.873 E5.74645
G1 X116.577 Y118.021 E5.7749
G1 X116.567 Y117.757 E5.78369
G1 X116.585 Y116.853 E5.81376
G1 X116.611 Y116.521 E5.82484
G1 X116.711 Y115.745 E5.85086
G1 X116.782 Y115.362 E5.86382
G1 X116.823 Y115.163 E5.87058
G1 X116.95 Y114.641 E5.88845
G1 X117.032 Y114.347 E5.8986
G1 X117.203 Y113.809 E5.91737
G1 X117.316 Y113.494 E5.9285
G1 X117.568 Y112.875 E5.95073
G1 X117.696 Y112.596 E5.96094
G1 X118.027 Y111.956 E5.98491
G1 X118.156 Y111.732 E5.9935
G1 X118.544 Y111.124 E6.01749
G1 X118.686 Y110.923 E6.02568
G1 X119.236 Y110.232 E6.05505
G1 X119.393 Y110.056 E6.0629
G1 X120.104 Y109.355 E6.09611
G1 X120.277 Y109.205 E6.10372
G1 X121.092 Y108.587 E6.13774
G1 X121.28 Y108.463 E6.14523
G1 X122.292 Y107.898 E6.18378
G1 X122.486 Y107.808 E6.19089
G1 X123.219 Y107.513 E6.21717
G1 X123.67 Y107.372 E6.23289
G1 X123.967 Y107.289 E6.24315
G1 X124.737 Y107.115 E6.2694
G1 X125.276 Y107.041 E6.2875
G1 X125.6 Y107.008 E6.29833
G1 X126.609 Y106.977 E6.33191
G1 X126.719 Y106.769 E6.33973
G1 X127.197 Y105.941 E6.37153
G1 X127.32 Y105.743 E6.37928
G1 X127.163 Y105.477 E6.38956
G1 X127.117 Y105.394 E6.39271
G1 X126.829 Y104.821 E6.41404
G1 X126.741 Y104.626 E6.42116
G1 X126.373 Y103.635 E6.45632
G1 X126.29 Y103.355 E6.46603
G1 X126.104 Y102.587 E6.49231
G1 X126.032 Y102.134 E6.50757
G1 X126.002 Y101.901 E6.51538
G1 X125.94 Y100.746 E6.55385
G1 X125.945 Y100.501 E6.56201
G1 X126.001 Y99.713 E6.58828
G1 X126.059 Y99.318 E6.60156
G1 X126.103 Y99.066 E6.61007
G1 X126.378 Y97.968 E6.64771
G1 X126.461 Y97.716 E6.65654
G1 X126.828 Y96.803 E6.68927
G1 X126.948 Y96.551 E6.69855
G1 X127.286 Y95.917 E6.72245
G1 X127.399 Y95.727 E6.7298
G1 X127.743 Y95.198 E6.75079
G1 X127.912 Y94.96 E6.7605
G0 F6000 X128.238 Y95.192
G1 F1200 X128.636 Y94.681 E6.78204
G1 X128.847 Y94.433 E6.79287
G1 X129.168 Y94.079 E6.80876
G1 X129.385 Y93.855 E6.81914
G1 X129.798 Y93.461 E6.83812
G1 X130.04 Y93.247 E6.84886
G1 X130.46 Y92.902 E6.86694
G1 X130.64 Y92.765 E6.87447
G1 X131.13 Y92.422 E6.89436
G1 X131.336 Y92.29 E6.9025
G1 X132.019 Y91.902 E6.92862
G1 X132.239 Y91.792 E6.9368
G1 X132.794 Y91.542 E6.95705
G1 X133.011 Y91.455 E6.96483
G1 X133.434 Y91.301 E6.9798
G1 X133.885 Y91.155 E6.99557
G1 X134.28 Y91.045 E7.0092
G1 X134.541 Y90.98 E7.01815
G1 X135.009 Y90.88 E7.03407
G1 X135.329 Y90.822 E7.04488
G1 X135.981 Y90.733 E7.06677
G1 X136.29 Y90.705 E7.07709
G1 X136.929 Y90.675 E7.09837
G1 X137.185 Y90.674 E7.10688
G1 X137.906 Y90.706 E7.13088
G1 X138.151 Y90.729 E7.13907
G1 X138.982 Y90.855 E7.16702
G1 X139.215 Y90.904 E7.17494
G1 X140.052 Y91.132 E7.2038
G1 X140.266 Y91.204 E7.21131
G1 X141.255 Y91.619 E7.24698
G1 X141.456 Y91.721 E7.25448
G1 X142.369 Y92.271 E7.28993
G1 X142.545 Y92.395 E7.29709
G1 X143.15 Y92.87 E7.32267
G1 X143.467 Y93.163 E7.33703
G1 X143.686 Y93.378 E7.34724
G1 X144.206 Y93.945 E7.37282
G1 X144.493 Y94.315 E7.3884
G1 X144.683 Y94.577 E7.39916
G1 X145.254 Y95.5 E7.43526
G1 X145.319 Y95.624 E7.43992
G1 X145.766 Y95.609 E7.45479
G1 X146.763 Y95.609 E7.48795
G1 X147.206 Y95.624 E7.5027
G1 X147.243 Y95.552 E7.50539
G1 X147.499 Y95.099 E7.5227
G1 X147.548 Y95.019 E7.52582
G1 X147.857 Y94.554 E7.54439
G1 X147.984 Y94.378 E7.5516
G1 X148.627 Y93.604 E7.58507
G1 X148.828 Y93.393 E7.59476
G1 X149.671 Y92.634 E7.63249
G1 X149.858 Y92.49 E7.64034
G1 X150.81 Y91.867 E7.67818
G1 X151.023 Y91.75 E7.68627
G1 X152.073 Y91.276 E7.72458
G1 X152.314 Y91.189 E7.73311
G1 X153.312 Y90.906 E7.76761
G1 X153.575 Y90.851 E7.77654
G1 X154.531 Y90.715 E7.80866
G1 X154.808 Y90.694 E7.8179
G1 X155.434 Y90.673 E7.83873
G1 X155.654 Y90.675 E7.84605
G1 X156.271 Y90.707 E7.8666
G1 X156.562 Y90.734 E7.87632
G1 X157.168 Y90.815 E7.89665
G1 X157.49 Y90.872 E7.90753
G1 X158.051 Y90.994 E7.92663
G1 X158.353 Y91.072 E7.937
G1 X158.87 Y91.226 E7.95494
G1 X159.175 Y91.329 E7.96565
G1 X159.697 Y91.528 E7.98423
G1 X159.961 Y91.64 E7.99377
G1 X160.652 Y91.976 E8.01932
G1 X160.831 Y92.075 E8.02613
G1 X161.44 Y92.451 E8.04993
G1 X161.721 Y92.644 E8.06127
G1 X162.244 Y93.039 E8.08307
G1 X162.336 Y93.115 E8.08704
G1 X162.58 Y93.325 E8.09775
G1 X162.815 Y93.537 E8.10827
G1 X163.173 Y93.883 E8.12483
G1 X163.36 Y94.076 E8.13377
G1 X163.713 Y94.468 E8.15132
G1 X163.922 Y94.717 E8.16213
G1 X164.276 Y95.173 E8.18133
G1 X164.456 Y95.425 E8.19163
G1 X164.839 Y96.021 E8.21519
G1 X164.968 Y96.244 E8.22376
G1 X165.27 Y96.821 E8.24542
G1 X165.374 Y97.044 E8.2536
G1 X165.712 Y97.908 E8.28446
G1 X165.784 Y98.132 E8.29229
G1 X165.995 Y98.945 E8.32022
G1 X166.04 Y99.17 E8.32786
G1 X166.173 Y100.22 E8.36306
G1 X166.185 Y100.441 E8.37042
G1 X166.168 Y101.487 E8.40521
G1 X166.149 Y101.704 E8.41246
G1 X166.042 Y102.466 E8.43805
G1 X165.943 Y102.904 E8.45299
G1 X165.866 Y103.203 E8.46326
G1 X165.636 Y103.937 E8.48884
G1 X165.451 Y104.389 E8.50508
G1 X165.319 Y104.683 E8.5158
G1 X164.823 Y105.607 E8.55068
G1 X164.737 Y105.742 E8.55601
G1 X164.986 Y106.143 E8.57171
G1 X165.463 Y106.97 E8.60346
G1 X165.68 Y107.376 E8.61877
G1 X165.836 Y107.371 E8.62396
G1 X166.172 Y107.367 E8.63514
G1 X166.264 Y107.368 E8.6382
G1 X166.968 Y107.41 E8.66166
G1 X167.184 Y107.433 E8.66888
