;FLAVOR:Marlin
;TIME:3003
;Filament used: 3.07676m
;Layer height: 0.3
;MINX:68.901
;MINY:96.411
;MINZ:0.2
;MAXX:166.099
;MAXY:138.589
;MAXZ:8.6
;Generated with Cura_SteamEngine 4.11.0
M140 S60
M105
M190 S60
M104 S205
M105
M109 S205
M82 ;absolute extrusion mode
; Ender 3 Custom Start G-code
G92 E0 ; Reset Extruder
G28 ; Home all axes
G1 Z2.0 F3000 ; Move Z Axis up little to prevent scratching of Heat Bed
G1 X0.1 Y20 Z0.3 F5000.0 ; Move to start position
G1 X0.1 Y200.0 Z0.3 F1500.0 E15 ; Draw the first line
G1 X0.4 Y200.0 Z0.3 F5000.0 ; Move to side a little
G1 X0.4 Y20 Z0.3 F1500.0 E30 ; Draw the second line
G92 E0 ; Reset Extruder
G1 Z2.0 F3000 ; Move Z Axis up little to prevent scratching of Heat Bed
G1 X5 Y20 Z0.3 F5000.0 ; Move over to prevent blob squish
G92 E0
G92 E0
G1 F2700 E-5
;LAYER_COUNT:29
;LAYER:0
M107
G0 F6000 X74.379 Y106.595 Z0.2
;TYPE:SKIRT
G1 F2700 E0
G1 F1200 X75.003 Y106.162 E0.02526
G1 X75.577 Y105.804 E0.04776
G1 X75.881 Y105.623 E0.05953
G1 X76.61 Y105.249 E0.08678
G1 X77.224 Y104.974 E0.10916
G1 X77.508 Y104.853 E0.11942
G1 X78.313 Y104.568 E0.14783
G1 X78.961 Y104.378 E0.17029
G1 X79.243 Y104.301 E0.18001
G1 X79.585 Y104.217 E0.19172
G1 X112.978 Y96.89 E1.3288
G1 X113.305 Y96.826 E1.33988
G1 X114.436 Y96.628 E1.37807
G1 X115.102 Y96.541 E1.40041
G1 X116.247 Y96.441 E1.43864
G1 X116.926 Y96.411 E1.46124
G1 X118.074 Y96.411 E1.49943
G1 X118.752 Y96.441 E1.522
G1 X119.898 Y96.541 E1.56026
G1 X120.565 Y96.628 E1.58263
G1 X121.696 Y96.826 E1.62082
G1 X122.022 Y96.89 E1.63187
G1 X155.416 Y104.215 E2.76897
G1 X155.927 Y104.346 E2.78651
G1 X156.675 Y104.564 E2.81243
G1 X157.656 Y104.922 E2.84716
G1 X158.366 Y105.237 E2.87299
G1 X159.302 Y105.731 E2.9082
G1 X159.969 Y106.143 E2.93427
G1 X160.811 Y106.743 E2.96866
G1 X161.412 Y107.235 E2.99449
G1 X162.192 Y107.969 E3.03012
G1 X162.724 Y108.543 E3.05615
G1 X163.252 Y109.177 E3.08359
G1 X163.452 Y109.45 E3.09484
G1 X163.839 Y110.002 E3.11727
G1 X164.291 Y110.73 E3.14577
G1 X164.433 Y110.993 E3.15571
G1 X164.743 Y111.593 E3.17817
G1 X165.05 Y112.263 E3.20268
G1 X165.089 Y112.36 E3.20616
G1 X165.207 Y112.672 E3.21725
G1 X165.432 Y113.309 E3.23972
G1 X165.631 Y113.962 E3.26243
G1 X165.657 Y114.063 E3.2659
G1 X165.74 Y114.42 E3.27809
G1 X165.877 Y115.079 E3.30047
G1 X165.982 Y115.718 E3.32201
G1 X165.995 Y115.824 E3.32557
G1 X166.035 Y116.241 E3.3395
G1 X166.081 Y116.914 E3.36193
G1 X166.099 Y117.52 E3.3821
G1 X166.098 Y117.626 E3.38562
G1 X166.081 Y118.073 E3.4005
G1 X166.036 Y118.745 E3.4229
G1 X165.985 Y119.255 E3.43995
G1 X165.971 Y119.36 E3.44347
G1 X165.882 Y119.885 E3.46118
G1 X165.747 Y120.548 E3.48369
G1 X165.615 Y121.095 E3.5024
G1 X165.587 Y121.195 E3.50586
G1 X165.438 Y121.669 E3.52238
G1 X165.215 Y122.306 E3.54483
G1 X165.038 Y122.766 E3.56122
G1 X164.997 Y122.863 E3.56473
G1 X164.751 Y123.388 E3.58401
G1 X164.443 Y123.988 E3.60644
G1 X164.281 Y124.288 E3.61778
G1 X164.228 Y124.381 E3.62134
G1 X163.849 Y124.981 E3.64495
G1 X163.464 Y125.533 E3.66733
G1 X163.243 Y125.835 E3.67978
G1 X162.744 Y126.435 E3.70573
G1 X162.286 Y126.933 E3.72824
G1 X162.06 Y127.168 E3.73908
G1 X161.985 Y127.243 E3.74261
G1 X161.439 Y127.74 E3.76717
G1 X160.92 Y128.169 E3.78956
G1 X160.621 Y128.405 E3.80223
G1 X159.997 Y128.838 E3.82749
G1 X159.423 Y129.196 E3.84999
G1 X159.119 Y129.377 E3.86176
G1 X158.39 Y129.751 E3.88901
G1 X157.776 Y130.026 E3.91139
G1 X157.492 Y130.147 E3.92166
G1 X156.687 Y130.432 E3.95006
G1 X156.039 Y130.622 E3.97252
G1 X155.757 Y130.699 E3.98224
G1 X155.415 Y130.783 E3.99395
G1 X122.022 Y138.11 E5.13103
G1 X121.695 Y138.174 E5.14211
G1 X120.564 Y138.372 E5.1803
G1 X119.898 Y138.459 E5.20264
G1 X118.753 Y138.559 E5.24087
G1 X118.074 Y138.589 E5.26348
G1 X116.926 Y138.589 E5.30166
G1 X116.248 Y138.559 E5.32423
G1 X115.102 Y138.459 E5.36249
G1 X114.435 Y138.372 E5.38486
G1 X113.304 Y138.174 E5.42305
G1 X112.978 Y138.11 E5.4341
G1 X79.584 Y130.785 E6.5712
G1 X79.073 Y130.654 E6.58874
G1 X78.325 Y130.436 E6.61466
G1 X77.344 Y130.078 E6.64939
G1 X76.634 Y129.763 E6.67522
G1 X75.698 Y129.269 E6.71043
G1 X75.031 Y128.857 E6.7365
G1 X74.189 Y128.257 E6.77089
G1 X73.588 Y127.765 E6.79672
G1 X72.808 Y127.031 E6.83235
G1 X72.276 Y126.457 E6.85838
G1 X71.748 Y125.823 E6.88582
G1 X71.548 Y125.55 E6.89707
G1 X71.161 Y124.998 E6.9195
G1 X70.709 Y124.27 E6.948
G1 X70.567 Y124.007 E6.95794
G1 X70.257 Y123.407 E6.9804
G1 X69.95 Y122.737 E7.00491
G1 X69.911 Y122.64 E7.00839
G1 X69.793 Y122.328 E7.01948
G1 X69.568 Y121.691 E7.04195
G1 X69.369 Y121.038 E7.06466
G1 X69.343 Y120.937 E7.06813
G1 X69.26 Y120.58 E7.08032
G1 X69.123 Y119.921 E7.10271
G1 X69.017 Y119.274 E7.12451
G1 X69.004 Y119.167 E7.1281
G1 X68.965 Y118.759 E7.14173
G1 X68.919 Y118.087 E7.16413
G1 X68.901 Y117.48 E7.18433
G1 X68.902 Y117.374 E7.18786
G1 X68.919 Y116.927 E7.20273
G1 X68.964 Y116.255 E7.22513
G1 X69.015 Y115.745 E7.24218
G1 X69.029 Y115.64 E7.2457
G1 X69.118 Y115.115 E7.26342
G1 X69.253 Y114.452 E7.28592
G1 X69.385 Y113.905 E7.30463
G1 X69.413 Y113.805 E7.30809
G1 X69.562 Y113.331 E7.32461
G1 X69.785 Y112.694 E7.34706
G1 X69.962 Y112.234 E7.36346
G1 X70.003 Y112.137 E7.36696
G1 X70.249 Y111.612 E7.38624
G1 X70.557 Y111.012 E7.40867
G1 X70.719 Y110.712 E7.42001
G1 X70.772 Y110.619 E7.42357
G1 X71.151 Y110.019 E7.44718
G1 X71.536 Y109.467 E7.46956
G1 X71.757 Y109.165 E7.48201
G1 X72.256 Y108.565 E7.50796
G1 X72.714 Y108.067 E7.53047
G1 X72.94 Y107.832 E7.54131
G1 X73.015 Y107.757 E7.54484
G1 X73.561 Y107.26 E7.5694
G1 X74.08 Y106.831 E7.59179
G1 X74.379 Y106.595 E7.60446
G0 F6000 X74.623 Y106.912
G1 F1200 X75.215 Y106.501 E7.62843
G1 X75.789 Y106.143 E7.65093
G1 X76.082 Y105.969 E7.66227
G1 X76.773 Y105.614 E7.6881
G1 X77.387 Y105.339 E7.71048
G1 X77.662 Y105.222 E7.72042
G1 X78.426 Y104.952 E7.74737
G1 X79.074 Y104.762 E7.76983
G1 X79.346 Y104.687 E7.77922
G1 X79.671 Y104.608 E7.79034
G1 X113.064 Y97.281 E8.92742
G1 X113.374 Y97.22 E8.93792
G1 X114.505 Y97.022 E8.97611
G1 X115.137 Y96.939 E8.99732
G1 X116.282 Y96.839 E9.03554
G1 X116.926 Y96.811 E9.05698
G1 X118.074 Y96.811 E9.09517
G1 X118.717 Y96.839 E9.11657
G1 X119.863 Y96.939 E9.15483
G1 X120.496 Y97.022 E9.17607
G1 X121.627 Y97.22 E9.21426
G1 X121.937 Y97.281 E9.22476
G1 X155.331 Y104.606 E10.36186
G1 X155.816 Y104.73 E10.37851
G1 X156.564 Y104.948 E10.40442
G1 X157.494 Y105.288 E10.43736
G1 X158.204 Y105.603 E10.46319
G1 X159.092 Y106.071 E10.49658
G1 X159.759 Y106.483 E10.52265
G1 X160.558 Y107.053 E10.5553
G1 X161.159 Y107.545 E10.58113
G1 X161.898 Y108.241 E10.61489
G1 X162.43 Y108.815 E10.64092
G1 X162.932 Y109.416 E10.66697
G1 X163.124 Y109.68 E10.67783
G1 X163.511 Y110.232 E10.70025
G1 X163.94 Y110.922 E10.72727
G1 X164.077 Y111.176 E10.73687
G1 X164.387 Y111.776 E10.75933
G1 X164.679 Y112.413 E10.78264
G1 X164.718 Y112.51 E10.78612
G1 X164.83 Y112.805 E10.79661
G1 X165.055 Y113.442 E10.81908
G1 X165.243 Y114.062 E10.84063
G1 X165.269 Y114.163 E10.8441
G1 X165.348 Y114.502 E10.85568
G1 X165.485 Y115.161 E10.87806
G1 X165.585 Y115.766 E10.89846
G1 X165.598 Y115.872 E10.90201
G1 X165.636 Y116.268 E10.91524
G1 X165.682 Y116.941 E10.93768
G1 X165.699 Y117.516 E10.95681
G1 X165.698 Y117.622 E10.96034
G1 X165.681 Y118.046 E10.97445
G1 X165.636 Y118.718 E10.99685
G1 X165.588 Y119.202 E11.01303
G1 X165.574 Y119.307 E11.01655
G1 X165.49 Y119.805 E11.03335
G1 X165.355 Y120.468 E11.05585
G1 X165.23 Y120.987 E11.07361
G1 X165.202 Y121.087 E11.07706
G1 X165.06 Y121.537 E11.09276
G1 X164.837 Y122.174 E11.11521
G1 X164.669 Y122.61 E11.13075
G1 X164.628 Y122.707 E11.13425
G1 X164.395 Y123.205 E11.15254
G1 X164.087 Y123.805 E11.17497
G1 X163.933 Y124.09 E11.18574
G1 X163.88 Y124.183 E11.1893
G1 X163.521 Y124.752 E11.21168
G1 X163.136 Y125.304 E11.23406
G1 X162.923 Y125.595 E11.24606
G1 X162.45 Y126.164 E11.27067
G1 X161.992 Y126.662 E11.29317
G1 X161.778 Y126.886 E11.30347
G1 X161.703 Y126.961 E11.307
G1 X161.185 Y127.432 E11.33029
G1 X160.666 Y127.861 E11.35268
G1 X160.377 Y128.088 E11.36491
G1 X159.785 Y128.499 E11.38888
G1 X159.211 Y128.857 E11.41138
G1 X158.918 Y129.031 E11.42271
G1 X158.227 Y129.386 E11.44855
G1 X157.613 Y129.661 E11.47093
G1 X157.338 Y129.778 E11.48087
G1 X156.574 Y130.048 E11.50782
G1 X155.926 Y130.238 E11.53028
G1 X155.654 Y130.313 E11.53966
G1 X155.329 Y130.392 E11.55079
G1 X121.936 Y137.719 E12.68786
G1 X121.626 Y137.78 E12.69837
G1 X120.495 Y137.978 E12.73656
G1 X119.863 Y138.061 E12.75776
G1 X118.718 Y138.161 E12.79599
G1 X118.074 Y138.189 E12.81743
G1 X116.926 Y138.189 E12.85561
G1 X116.283 Y138.161 E12.87702
G1 X115.137 Y138.061 E12.91528
G1 X114.504 Y137.978 E12.93651
G1 X113.373 Y137.78 E12.9747
G1 X113.063 Y137.719 E12.98521
G1 X79.669 Y130.394 E14.12231
G1 X79.184 Y130.27 E14.13896
G1 X78.436 Y130.052 E14.16487
G1 X77.506 Y129.712 E14.1978
G1 X76.796 Y129.397 E14.22364
G1 X75.908 Y128.929 E14.25702
G1 X75.241 Y128.517 E14.2831
G1 X74.442 Y127.947 E14.31574
G1 X73.841 Y127.455 E14.34158
G1 X73.102 Y126.759 E14.37534
G1 X72.57 Y126.185 E14.40137
G1 X72.068 Y125.584 E14.42742
G1 X71.876 Y125.32 E14.43827
G1 X71.489 Y124.768 E14.4607
G1 X71.06 Y124.078 E14.48772
G1 X70.923 Y123.824 E14.49732
G1 X70.613 Y123.224 E14.51978
G1 X70.321 Y122.587 E14.54309
G1 X70.282 Y122.49 E14.54656
G1 X70.17 Y122.195 E14.55706
G1 X69.945 Y121.558 E14.57953
G1 X69.757 Y120.938 E14.60108
G1 X69.731 Y120.837 E14.60455
G1 X69.652 Y120.498 E14.61612
G1 X69.515 Y119.839 E14.63851
G1 X69.414 Y119.226 E14.65917
G1 X69.401 Y119.119 E14.66276
G1 X69.364 Y118.731 E14.67572
G1 X69.318 Y118.059 E14.69813
G1 X69.301 Y117.484 E14.71726
G1 X69.302 Y117.378 E14.72078
G1 X69.319 Y116.954 E14.7349
G1 X69.364 Y116.282 E14.7573
G1 X69.412 Y115.798 E14.77348
G1 X69.426 Y115.693 E14.777
G1 X69.51 Y115.195 E14.7938
G1 X69.645 Y114.532 E14.8163
G1 X69.77 Y114.013 E14.83406
G1 X69.798 Y113.913 E14.83751
G1 X69.94 Y113.463 E14.8532
G1 X70.163 Y112.826 E14.87565
G1 X70.331 Y112.39 E14.89119
G1 X70.372 Y112.293 E14.8947
G1 X70.605 Y111.795 E14.91298
G1 X70.913 Y111.195 E14.93541
G1 X71.067 Y110.91 E14.94619
G1 X71.12 Y110.817 E14.94975
G1 X71.479 Y110.248 E14.97213
G1 X71.864 Y109.696 E14.99451
G1 X72.077 Y109.405 E15.0065
G1 X72.55 Y108.836 E15.03111
G1 X73.008 Y108.338 E15.05362
G1 X73.222 Y108.114 E15.06392
G1 X73.297 Y108.039 E15.06745
G1 X73.815 Y107.568 E15.09073
G1 X74.334 Y107.139 E15.11313
G1 X74.623 Y106.912 E15.12535
G0 F6000 X74.866 Y107.229
G1 F1200 X75.427 Y106.841 E15.14804
G1 X76.001 Y106.483 E15.17054
G1 X76.283 Y106.314 E15.18148
G1 X76.937 Y105.979 E15.20591
G1 X77.551 Y105.704 E15.22829
G1 X77.816 Y105.591 E15.23787
G1 X78.538 Y105.336 E15.26334
G1 X79.348 Y105.1 E15.2914
G1 X79.449 Y105.073 E15.29488
G1 X79.757 Y104.999 E15.30541
G1 X113.15 Y97.672 E16.44249
G1 X113.443 Y97.614 E16.45243
G1 X114.574 Y97.416 E16.49062
G1 X115.172 Y97.338 E16.51067
G1 X116.317 Y97.238 E16.5489
G1 X116.926 Y97.211 E16.56918
G1 X118.074 Y97.211 E16.60736
G1 X118.683 Y97.237 E16.62763
G1 X119.829 Y97.337 E16.66589
G1 X120.427 Y97.416 E16.68596
G1 X121.558 Y97.614 E16.72415
G1 X121.851 Y97.672 E16.73408
G1 X155.245 Y104.997 E17.87118
G1 X155.704 Y105.114 E17.88693
G1 X156.452 Y105.332 E17.91284
G1 X157.332 Y105.653 E17.944
G1 X158.042 Y105.968 E17.96983
G1 X158.882 Y106.412 E18.00143
G1 X159.549 Y106.824 E18.02751
G1 X160.304 Y107.363 E18.05836
G1 X160.905 Y107.855 E18.0842
G1 X161.605 Y108.513 E18.11615
G1 X162.137 Y109.087 E18.14218
G1 X162.611 Y109.656 E18.16681
G1 X162.797 Y109.91 E18.17728
G1 X163.184 Y110.462 E18.19971
G1 X163.59 Y111.114 E18.22525
G1 X163.722 Y111.36 E18.23454
G1 X164.032 Y111.96 E18.257
G1 X164.308 Y112.562 E18.27903
G1 X164.347 Y112.659 E18.2825
G1 X164.452 Y112.939 E18.29245
G1 X164.677 Y113.576 E18.31492
G1 X164.856 Y114.162 E18.3353
G1 X164.882 Y114.263 E18.33877
G1 X164.956 Y114.583 E18.34969
G1 X165.093 Y115.242 E18.37208
G1 X165.188 Y115.815 E18.3914
G1 X165.201 Y115.921 E18.39495
G1 X165.237 Y116.296 E18.40748
G1 X165.283 Y116.969 E18.42991
G1 X165.299 Y117.512 E18.44798
G1 X165.298 Y117.618 E18.45151
G1 X165.282 Y118.02 E18.46489
G1 X165.237 Y118.692 E18.48729
G1 X165.192 Y119.149 E18.50256
G1 X165.178 Y119.254 E18.50609
G1 X165.098 Y119.726 E18.52201
G1 X164.963 Y120.389 E18.54451
G1 X164.845 Y120.879 E18.56128
G1 X164.817 Y120.979 E18.56473
G1 X164.683 Y121.405 E18.57958
G1 X164.46 Y122.042 E18.60203
G1 X164.301 Y122.454 E18.61672
G1 X164.26 Y122.551 E18.62022
G1 X164.039 Y123.023 E18.63756
G1 X163.731 Y123.623 E18.65999
G1 X163.586 Y123.892 E18.67015
G1 X163.533 Y123.985 E18.67371
G1 X163.192 Y124.523 E18.6949
G1 X162.807 Y125.075 E18.71728
G1 X162.603 Y125.355 E18.7288
G1 X162.155 Y125.893 E18.75209
G1 X161.697 Y126.391 E18.77459
G1 X161.495 Y126.603 E18.78433
G1 X161.42 Y126.678 E18.78786
G1 X160.93 Y127.123 E18.80988
G1 X160.411 Y127.552 E18.83227
G1 X160.134 Y127.771 E18.84402
G1 X159.573 Y128.159 E18.8667
G1 X158.999 Y128.517 E18.8892
G1 X158.717 Y128.686 E18.90014
G1 X158.063 Y129.021 E18.92458
G1 X157.449 Y129.296 E18.94695
G1 X157.184 Y129.409 E18.95654
G1 X156.462 Y129.664 E18.982
G1 X155.652 Y129.9 E19.01006
G1 X155.551 Y129.927 E19.01354
G1 X155.243 Y130.001 E19.02408
G1 X121.85 Y137.328 E20.16115
G1 X121.557 Y137.386 E20.17109
G1 X120.426 Y137.584 E20.20928
G1 X119.828 Y137.662 E20.22934
G1 X118.683 Y137.762 E20.26756
G1 X118.074 Y137.789 E20.28784
G1 X116.926 Y137.789 E20.32602
G1 X116.317 Y137.763 E20.3463
G1 X115.171 Y137.663 E20.38456
G1 X114.573 Y137.584 E20.40462
G1 X113.442 Y137.386 E20.44281
G1 X113.149 Y137.328 E20.45274
G1 X79.755 Y130.003 E21.58984
G1 X79.296 Y129.886 E21.60559
G1 X78.548 Y129.668 E21.63151
G1 X77.668 Y129.347 E21.66266
G1 X76.958 Y129.032 E21.6885
G1 X76.118 Y128.588 E21.7201
G1 X75.451 Y128.176 E21.74617
G1 X74.696 Y127.637 E21.77703
G1 X74.095 Y127.145 E21.80286
G1 X73.395 Y126.487 E21.83481
G1 X72.863 Y125.913 E21.86084
G1 X72.389 Y125.344 E21.88548
G1 X72.203 Y125.09 E21.89595
G1 X71.816 Y124.538 E21.91837
G1 X71.41 Y123.886 E21.94391
G1 X71.278 Y123.64 E21.9532
G1 X70.968 Y123.04 E21.97566
G1 X70.692 Y122.438 E21.99769
G1 X70.653 Y122.341 E22.00117
G1 X70.548 Y122.061 E22.01111
G1 X70.323 Y121.424 E22.03358
G1 X70.144 Y120.838 E22.05396
G1 X70.118 Y120.737 E22.05743
G1 X70.044 Y120.417 E22.06835
G1 X69.907 Y119.758 E22.09074
G1 X69.811 Y119.177 E22.11033
G1 X69.798 Y119.07 E22.11391
G1 X69.763 Y118.704 E22.12614
G1 X69.717 Y118.032 E22.14854
G1 X69.701 Y117.488 E22.16665
G1 X69.702 Y117.382 E22.17017
G1 X69.718 Y116.98 E22.18355
G1 X69.763 Y116.308 E22.20595
G1 X69.808 Y115.851 E22.22123
G1 X69.822 Y115.746 E22.22475
G1 X69.902 Y115.274 E22.24067
G1 X70.037 Y114.611 E22.26318
G1 X70.155 Y114.121 E22.27994
G1 X70.183 Y114.021 E22.28339
G1 X70.317 Y113.595 E22.29825
G1 X70.54 Y112.958 E22.32069
G1 X70.699 Y112.546 E22.33538
G1 X70.74 Y112.449 E22.33889
G1 X70.961 Y111.977 E22.35622
G1 X71.269 Y111.377 E22.37865
G1 X71.414 Y111.108 E22.38882
G1 X71.467 Y111.015 E22.39238
G1 X71.808 Y110.477 E22.41356
G1 X72.193 Y109.925 E22.43595
G1 X72.397 Y109.645 E22.44747
G1 X72.845 Y109.107 E22.47075
G1 X73.303 Y108.609 E22.49326
G1 X73.505 Y108.397 E22.503
G1 X73.58 Y108.322 E22.50652
G1 X74.07 Y107.877 E22.52854
G1 X74.589 Y107.448 E22.55094
G1 X74.866 Y107.229 E22.56268
G0 F6000 X75.11 Y107.546
G1 F1200 X75.638 Y107.18 E22.58405
G1 X76.212 Y106.822 E22.60655
G1 X76.484 Y106.66 E22.61708
G1 X77.1 Y106.345 E22.64009
G1 X77.714 Y106.07 E22.66247
G1 X77.97 Y105.961 E22.67172
G1 X78.651 Y105.72 E22.69575
G1 X79.451 Y105.487 E22.72346
G1 X79.552 Y105.46 E22.72694
G1 X79.842 Y105.389 E22.73687
G1 X113.235 Y98.062 E23.87395
G1 X113.512 Y98.008 E23.88333
G1 X114.643 Y97.81 E23.92152
G1 X115.207 Y97.736 E23.94044
G1 X116.352 Y97.636 E23.97867
G1 X116.926 Y97.611 E23.99778
G1 X118.074 Y97.611 E24.03596
G1 X118.648 Y97.636 E24.05507
G1 X119.794 Y97.736 E24.09333
G1 X120.358 Y97.81 E24.11225
G1 X121.489 Y98.008 E24.15044
G1 X121.765 Y98.062 E24.15979
G1 X155.159 Y105.387 E25.29689
G1 X155.592 Y105.498 E25.31176
G1 X156.34 Y105.716 E25.33767
G1 X157.17 Y106.019 E25.36706
G1 X157.88 Y106.334 E25.39289
G1 X158.671 Y106.752 E25.42265
G1 X159.338 Y107.164 E25.44872
