;FLAVOR:Marlin
;TIME:5187
;Filament used: 5.10462m
;Layer height: 0.26
;MINX:48.902
;MINY:96.413
;MINZ:0.2
;MAXX:186.098
;MAXY:138.587
;MAXZ:8.52
;Generated with Cura_SteamEngine 4.10.0
M140 S60
M105
M190 S60
M104 S205
M105
M109 S205
M82 ;absolute extrusion mode
; Ender 3 Custom Start G-code
G92 E0 ; Reset Extruder
G28 ; Home all axes
G1 Z2.0 F3000 ; Move Z Axis up little to prevent scratching of Heat Bed
G1 X0.1 Y20 Z0.3 F5000.0 ; Move to start position
G1 X0.1 Y200.0 Z0.3 F1500.0 E15 ; Draw the first line
G1 X0.4 Y200.0 Z0.3 F5000.0 ; Move to side a little
G1 X0.4 Y20 Z0.3 F1500.0 E30 ; Draw the second line
G92 E0 ; Reset Extruder
G1 Z2.0 F3000 ; Move Z Axis up little to prevent scratching of Heat Bed
G1 X5 Y20 Z0.3 F5000.0 ; Move over to prevent blob squish
G92 E0
G92 E0
G1 F2700 E-5
;LAYER_COUNT:33
;LAYER:0
M107
G0 F6000 X56.138 Y105.486 Z0.2
;TYPE:SKIRT
G1 F2700 E0
G1 F1200 X57.088 Y105.034 E0.03499
G1 X57.828 Y104.741 E0.06146
G1 X58.152 Y104.62 E0.07297
G1 X59.117 Y104.338 E0.1064
G1 X60.011 Y104.14 E0.13686
G1 X60.132 Y104.115 E0.14097
G1 X60.646 Y104.027 E0.15831
G1 X114.623 Y96.597 E1.97052
G1 X114.973 Y96.557 E1.98224
G1 X116.181 Y96.446 E2.02259
G1 X116.895 Y96.413 E2.04636
G1 X118.106 Y96.413 E2.08664
G1 X118.887 Y96.452 E2.11265
G1 X119.011 Y96.465 E2.1168
G1 X120.01 Y96.554 E2.15015
G1 X120.378 Y96.596 E2.16247
G1 X174.354 Y104.026 E3.97465
G1 X174.969 Y104.136 E3.99543
G1 X175.867 Y104.334 E4.02602
G1 X176.629 Y104.543 E4.0523
G1 X177.039 Y104.691 E4.06679
G1 X177.892 Y105.026 E4.09727
G1 X178.612 Y105.351 E4.12355
G1 X178.996 Y105.563 E4.13814
G1 X179.783 Y106.026 E4.16851
G1 X180.685 Y106.646 E4.20491
G1 X180.905 Y106.823 E4.2143
G1 X181.514 Y107.328 E4.24062
G1 X182.266 Y108.041 E4.27508
G1 X182.49 Y108.287 E4.28615
G1 X183.014 Y108.886 E4.31262
G1 X183.593 Y109.636 E4.34413
G1 X183.661 Y109.736 E4.34815
G1 X183.83 Y109.995 E4.35844
G1 X184.249 Y110.667 E4.38478
G1 X184.644 Y111.382 E4.41195
G1 X184.698 Y111.493 E4.41605
G1 X184.872 Y111.876 E4.43005
G1 X185.18 Y112.607 E4.45643
G1 X185.458 Y113.377 E4.48366
G1 X185.494 Y113.496 E4.48779
G1 X185.603 Y113.896 E4.50158
G1 X185.792 Y114.666 E4.52795
G1 X185.944 Y115.457 E4.55474
G1 X185.961 Y115.58 E4.55887
G1 X186.008 Y116.017 E4.57349
G1 X186.072 Y116.806 E4.59982
G1 X186.098 Y117.5 E4.62292
G1 X186.097 Y117.623 E4.62701
G1 X186.073 Y118.17 E4.64522
G1 X186.011 Y118.961 E4.67161
G1 X185.944 Y119.542 E4.69106
G1 X185.925 Y119.665 E4.6952
G1 X185.795 Y120.317 E4.71731
G1 X185.608 Y121.086 E4.74364
G1 X185.483 Y121.541 E4.75933
G1 X185.446 Y121.661 E4.76351
G1 X185.179 Y122.395 E4.78948
G1 X184.871 Y123.125 E4.81584
G1 X184.711 Y123.479 E4.82876
G1 X184.658 Y123.589 E4.83282
G1 X184.253 Y124.325 E4.86076
G1 X183.834 Y124.998 E4.88713
G1 X183.593 Y125.362 E4.90165
G1 X183.522 Y125.463 E4.90575
G1 X183.04 Y126.081 E4.93182
G1 X182.52 Y126.682 E4.95825
G1 X182.231 Y126.997 E4.97247
G1 X182.146 Y127.085 E4.97654
G1 X181.528 Y127.66 E5.00462
G1 X180.918 Y128.168 E5.03102
G1 X180.624 Y128.401 E5.0435
G1 X179.815 Y128.954 E5.07609
G1 X179.13 Y129.361 E5.10259
G1 X178.862 Y129.514 E5.11286
G1 X177.912 Y129.966 E5.14785
G1 X177.172 Y130.259 E5.17432
G1 X176.848 Y130.38 E5.18582
G1 X175.883 Y130.662 E5.21926
G1 X174.989 Y130.86 E5.24971
G1 X174.868 Y130.885 E5.25382
G1 X174.354 Y130.973 E5.27117
G1 X120.377 Y138.403 E7.08338
G1 X120.027 Y138.443 E7.0951
G1 X118.819 Y138.554 E7.13544
G1 X118.105 Y138.587 E7.15922
G1 X116.894 Y138.587 E7.1995
G1 X116.113 Y138.548 E7.2255
G1 X115.989 Y138.535 E7.22965
G1 X114.99 Y138.446 E7.26301
G1 X114.622 Y138.404 E7.27533
G1 X60.646 Y130.974 E9.08751
G1 X60.031 Y130.864 E9.10829
G1 X59.133 Y130.666 E9.13887
G1 X58.371 Y130.457 E9.16515
G1 X57.961 Y130.309 E9.17965
G1 X57.108 Y129.974 E9.21013
G1 X56.388 Y129.649 E9.2364
G1 X56.004 Y129.437 E9.25099
G1 X55.217 Y128.974 E9.28136
G1 X54.315 Y128.354 E9.31777
G1 X54.095 Y128.177 E9.32716
G1 X53.486 Y127.672 E9.35347
G1 X52.734 Y126.959 E9.38794
G1 X52.51 Y126.713 E9.399
G1 X51.986 Y126.114 E9.42547
G1 X51.407 Y125.364 E9.45699
G1 X51.339 Y125.264 E9.46101
G1 X51.17 Y125.005 E9.4713
G1 X50.751 Y124.333 E9.49764
G1 X50.344 Y123.594 E9.5257
G1 X50.29 Y123.482 E9.52983
G1 X50.129 Y123.126 E9.54283
G1 X49.821 Y122.396 E9.56918
G1 X49.537 Y121.605 E9.59713
G1 X49.501 Y121.485 E9.6013
G1 X49.397 Y121.106 E9.61437
G1 X49.208 Y120.337 E9.64071
G1 X49.055 Y119.534 E9.6679
G1 X49.038 Y119.41 E9.67206
G1 X48.992 Y118.982 E9.68638
G1 X48.928 Y118.194 E9.71267
G1 X48.902 Y117.5 E9.73577
G1 X48.903 Y117.377 E9.73986
G1 X48.927 Y116.83 E9.75807
G1 X48.989 Y116.039 E9.78446
G1 X49.056 Y115.458 E9.80391
G1 X49.075 Y115.335 E9.80805
G1 X49.205 Y114.683 E9.83017
G1 X49.392 Y113.914 E9.85649
G1 X49.517 Y113.459 E9.87218
G1 X49.554 Y113.339 E9.87636
G1 X49.821 Y112.605 E9.90234
G1 X50.129 Y111.875 E9.92869
G1 X50.289 Y111.521 E9.94161
G1 X50.342 Y111.411 E9.94567
G1 X50.747 Y110.675 E9.97361
G1 X51.166 Y110.002 E9.99998
G1 X51.407 Y109.638 E10.0145
G1 X51.478 Y109.537 E10.01861
G1 X51.96 Y108.919 E10.04467
G1 X52.48 Y108.318 E10.07111
G1 X52.769 Y108.003 E10.08533
G1 X52.854 Y107.915 E10.08939
G1 X53.472 Y107.34 E10.11747
G1 X54.082 Y106.832 E10.14387
G1 X54.376 Y106.599 E10.15635
G1 X55.185 Y106.046 E10.18894
G1 X55.87 Y105.639 E10.21544
G1 X56.138 Y105.486 E10.22571
G0 F6000 X56.334 Y105.835
G1 F1200 X57.235 Y105.406 E10.2589
G1 X57.975 Y105.113 E10.28537
G1 X58.288 Y104.996 E10.29649
G1 X59.204 Y104.729 E10.32822
G1 X60.092 Y104.532 E10.35847
G1 X60.213 Y104.507 E10.36258
G1 X60.701 Y104.423 E10.37905
G1 X114.678 Y96.993 E12.19126
G1 X115.01 Y96.955 E12.20238
G1 X116.218 Y96.844 E12.24272
G1 X116.895 Y96.813 E12.26527
G1 X118.106 Y96.813 E12.30554
G1 X118.847 Y96.85 E12.33022
G1 X119.006 Y96.866 E12.33553
G1 X119.974 Y96.953 E12.36786
G1 X120.323 Y96.992 E12.37954
G1 X174.299 Y104.422 E14.19172
G1 X174.883 Y104.527 E14.21145
G1 X175.781 Y104.725 E14.24204
G1 X176.523 Y104.929 E14.26763
G1 X176.893 Y105.063 E14.28072
G1 X177.746 Y105.398 E14.3112
G1 X178.446 Y105.716 E14.33677
G1 X178.793 Y105.908 E14.34996
G1 X179.58 Y106.371 E14.38033
G1 X180.436 Y106.959 E14.41487
G1 X180.65 Y107.131 E14.42401
G1 X181.259 Y107.636 E14.45032
G1 X181.973 Y108.313 E14.48305
G1 X182.189 Y108.551 E14.49374
G1 X182.713 Y109.15 E14.52021
G1 X183.262 Y109.861 E14.55008
G1 X183.33 Y109.961 E14.5541
G1 X183.49 Y110.207 E14.56387
G1 X183.909 Y110.879 E14.5902
G1 X184.284 Y111.557 E14.61597
G1 X184.338 Y111.668 E14.62008
G1 X184.503 Y112.032 E14.63337
G1 X184.811 Y112.763 E14.65976
G1 X185.075 Y113.493 E14.68557
G1 X185.111 Y113.612 E14.68971
G1 X185.215 Y113.991 E14.70278
G1 X185.404 Y114.761 E14.72915
G1 X185.547 Y115.512 E14.75458
G1 X185.564 Y115.635 E14.75871
G1 X185.61 Y116.05 E14.7726
G1 X185.674 Y116.839 E14.79892
G1 X185.698 Y117.497 E14.82082
G1 X185.697 Y117.62 E14.82492
G1 X185.674 Y118.138 E14.84216
G1 X185.612 Y118.929 E14.86855
G1 X185.548 Y119.481 E14.88703
G1 X185.529 Y119.604 E14.89117
G1 X185.406 Y120.223 E14.91216
G1 X185.219 Y120.992 E14.93849
G1 X185.1 Y121.423 E14.95336
G1 X185.063 Y121.543 E14.95753
G1 X184.81 Y122.24 E14.9822
G1 X184.502 Y122.97 E15.00855
G1 X184.351 Y123.305 E15.02077
G1 X184.298 Y123.415 E15.02483
G1 X183.913 Y124.114 E15.05137
G1 X183.494 Y124.787 E15.07774
G1 X183.266 Y125.132 E15.0915
G1 X183.195 Y125.233 E15.0956
G1 X182.737 Y125.819 E15.12034
G1 X182.217 Y126.42 E15.14677
G1 X181.944 Y126.719 E15.16024
G1 X181.859 Y126.807 E15.16431
G1 X181.272 Y127.352 E15.19095
G1 X180.662 Y127.86 E15.21735
G1 X180.378 Y128.086 E15.22942
G1 X179.611 Y128.61 E15.26032
G1 X178.926 Y129.017 E15.28682
G1 X178.666 Y129.165 E15.29677
G1 X177.765 Y129.594 E15.32996
G1 X177.025 Y129.887 E15.35643
G1 X176.712 Y130.004 E15.36755
G1 X175.796 Y130.271 E15.39928
G1 X174.908 Y130.468 E15.42953
G1 X174.787 Y130.493 E15.43364
G1 X174.299 Y130.577 E15.45011
G1 X120.322 Y138.007 E17.26232
G1 X119.99 Y138.045 E17.27344
G1 X118.782 Y138.156 E17.31379
G1 X118.105 Y138.187 E17.33633
G1 X116.894 Y138.187 E17.37661
G1 X116.153 Y138.15 E17.40128
G1 X115.994 Y138.134 E17.4066
G1 X115.026 Y138.047 E17.43892
G1 X114.677 Y138.008 E17.4506
G1 X60.701 Y130.578 E19.26278
G1 X60.117 Y130.473 E19.28252
G1 X59.219 Y130.275 E19.3131
G1 X58.477 Y130.071 E19.3387
G1 X58.107 Y129.937 E19.35178
G1 X57.254 Y129.602 E19.38226
G1 X56.554 Y129.284 E19.40784
G1 X56.207 Y129.092 E19.42103
G1 X55.42 Y128.629 E19.4514
G1 X54.564 Y128.041 E19.48594
G1 X54.35 Y127.869 E19.49507
G1 X53.741 Y127.364 E19.52138
G1 X53.027 Y126.687 E19.55411
G1 X52.811 Y126.449 E19.5648
G1 X52.287 Y125.85 E19.59127
G1 X51.738 Y125.139 E19.62114
G1 X51.67 Y125.039 E19.62517
G1 X51.51 Y124.793 E19.63493
G1 X51.091 Y124.121 E19.66127
G1 X50.704 Y123.42 E19.6879
G1 X50.65 Y123.308 E19.69203
G1 X50.498 Y122.971 E19.70433
G1 X50.19 Y122.241 E19.73068
G1 X49.92 Y121.49 E19.75723
G1 X49.884 Y121.37 E19.76139
G1 X49.786 Y121.01 E19.7738
G1 X49.597 Y120.241 E19.80014
G1 X49.452 Y119.48 E19.82591
G1 X49.435 Y119.356 E19.83007
G1 X49.39 Y118.95 E19.84366
G1 X49.326 Y118.162 E19.86995
G1 X49.302 Y117.503 E19.89189
G1 X49.303 Y117.38 E19.89598
G1 X49.326 Y116.862 E19.91322
G1 X49.388 Y116.071 E19.93961
G1 X49.452 Y115.519 E19.95809
G1 X49.471 Y115.396 E19.96223
G1 X49.594 Y114.777 E19.98322
G1 X49.781 Y114.008 E20.00955
G1 X49.9 Y113.577 E20.02442
G1 X49.937 Y113.457 E20.02859
G1 X50.19 Y112.76 E20.05326
G1 X50.498 Y112.03 E20.07961
G1 X50.649 Y111.695 E20.09183
G1 X50.702 Y111.585 E20.09589
G1 X51.087 Y110.886 E20.12243
G1 X51.506 Y110.213 E20.1488
G1 X51.734 Y109.868 E20.16256
G1 X51.805 Y109.767 E20.16666
G1 X52.263 Y109.181 E20.1914
G1 X52.783 Y108.58 E20.21783
G1 X53.056 Y108.281 E20.2313
G1 X53.141 Y108.193 E20.23537
G1 X53.728 Y107.648 E20.26201
G1 X54.338 Y107.14 E20.28841
G1 X54.622 Y106.914 E20.30048
G1 X55.389 Y106.39 E20.33138
G1 X56.074 Y105.983 E20.35788
G1 X56.334 Y105.835 E20.36783
G0 F6000 X56.53 Y106.183
G1 F1200 X57.382 Y105.778 E20.39921
G1 X58.122 Y105.485 E20.42568
G1 X58.424 Y105.372 E20.4364
G1 X59.291 Y105.119 E20.46644
G1 X60.173 Y104.924 E20.49649
G1 X60.294 Y104.899 E20.5006
G1 X60.755 Y104.819 E20.51616
G1 X114.732 Y97.389 E22.32837
G1 X115.046 Y97.353 E22.33888
G1 X116.254 Y97.242 E22.37923
G1 X116.895 Y97.213 E22.40057
G1 X118.106 Y97.213 E22.44085
G1 X118.807 Y97.248 E22.46419
G1 X119.939 Y97.351 E22.502
G1 X120.269 Y97.388 E22.51304
G1 X174.245 Y104.818 E24.32522
G1 X174.797 Y104.917 E24.34387
G1 X175.695 Y105.115 E24.37446
G1 X176.747 Y105.435 E24.41103
G1 X177.6 Y105.77 E24.44151
G1 X178.59 Y106.253 E24.47815
G1 X179.377 Y106.716 E24.50852
G1 X180.187 Y107.272 E24.5412
G1 X180.394 Y107.439 E24.55004
G1 X181.003 Y107.944 E24.57636
G1 X181.679 Y108.584 E24.60732
G1 X181.888 Y108.814 E24.61765
G1 X182.412 Y109.413 E24.64412
G1 X182.931 Y110.086 E24.67239
G1 X182.999 Y110.186 E24.67641
G1 X183.151 Y110.418 E24.68564
G1 X183.57 Y111.09 E24.71198
G1 X183.925 Y111.732 E24.73638
G1 X183.979 Y111.843 E24.74048
G1 X184.135 Y112.187 E24.75305
G1 X184.443 Y112.918 E24.77943
G1 X184.692 Y113.609 E24.80386
G1 X184.728 Y113.728 E24.80799
G1 X184.826 Y114.086 E24.82034
G1 X185.015 Y114.856 E24.84671
G1 X185.151 Y115.567 E24.87079
G1 X185.168 Y115.69 E24.87492
G1 X185.211 Y116.082 E24.88803
G1 X185.275 Y116.871 E24.91436
G1 X185.298 Y117.494 E24.9351
G1 X185.297 Y117.617 E24.93919
G1 X185.276 Y118.107 E24.9555
G1 X185.214 Y118.898 E24.98189
G1 X185.153 Y119.42 E24.99937
G1 X185.134 Y119.543 E25.00351
G1 X185.018 Y120.128 E25.02334
G1 X184.831 Y120.897 E25.04967
G1 X184.718 Y121.306 E25.06378
G1 X184.681 Y121.426 E25.06796
G1 X184.441 Y122.084 E25.09125
G1 X184.133 Y122.814 E25.1176
G1 X183.99 Y123.131 E25.12917
G1 X183.937 Y123.241 E25.13323
G1 X183.573 Y123.903 E25.15836
G1 X183.154 Y124.576 E25.18473
G1 X182.939 Y124.902 E25.19772
G1 X182.868 Y125.003 E25.20182
G1 X182.435 Y125.557 E25.22521
G1 X181.915 Y126.158 E25.25164
G1 X181.656 Y126.441 E25.2644
G1 X181.571 Y126.529 E25.26847
G1 X181.016 Y127.045 E25.29368
G1 X180.406 Y127.553 E25.32008
G1 X180.133 Y127.77 E25.33168
G1 X179.407 Y128.266 E25.36092
G1 X178.722 Y128.673 E25.38742
G1 X178.47 Y128.817 E25.39708
G1 X177.618 Y129.222 E25.42845
G1 X176.878 Y129.515 E25.45492
G1 X176.576 Y129.628 E25.46565
G1 X175.709 Y129.881 E25.49569
G1 X174.827 Y130.076 E25.52573
G1 X174.706 Y130.101 E25.52984
G1 X174.245 Y130.181 E25.5454
G1 X120.268 Y137.611 E27.35761
G1 X119.954 Y137.647 E27.36813
G1 X118.746 Y137.758 E27.40847
G1 X118.105 Y137.787 E27.42982
G1 X116.894 Y137.787 E27.47009
G1 X116.193 Y137.752 E27.49344
G1 X115.061 Y137.649 E27.53124
G1 X114.731 Y137.612 E27.54229
G1 X60.755 Y130.182 E29.35447
G1 X60.203 Y130.083 E29.37312
G1 X59.305 Y129.885 E29.4037
G1 X58.253 Y129.565 E29.44028
G1 X57.4 Y129.23 E29.47076
G1 X56.41 Y128.747 E29.50739
G1 X55.623 Y128.284 E29.53776
G1 X54.813 Y127.728 E29.57044
G1 X54.606 Y127.561 E29.57929
G1 X53.997 Y127.056 E29.6056
G1 X53.321 Y126.416 E29.63656
G1 X53.112 Y126.186 E29.6469
G1 X52.588 Y125.587 E29.67337
G1 X52.069 Y124.914 E29.70164
G1 X52.001 Y124.814 E29.70566
G1 X51.849 Y124.582 E29.71488
G1 X51.43 Y123.91 E29.74122
G1 X51.065 Y123.246 E29.76642
G1 X51.011 Y123.134 E29.77056
G1 X50.867 Y122.815 E29.7822
G1 X50.559 Y122.085 E29.80855
G1 X50.303 Y121.375 E29.83366
G1 X50.267 Y121.255 E29.83782
G1 X50.174 Y120.915 E29.84955
G1 X49.985 Y120.146 E29.87588
G1 X49.848 Y119.426 E29.90026
G1 X49.831 Y119.302 E29.90442
G1 X49.789 Y118.918 E29.91727
G1 X49.725 Y118.13 E29.94357
G1 X49.702 Y117.506 E29.96434
G1 X49.703 Y117.383 E29.96843
G1 X49.724 Y116.893 E29.98474
G1 X49.786 Y116.102 E30.01113
G1 X49.847 Y115.58 E30.02861
G1 X49.866 Y115.457 E30.03275
G1 X49.982 Y114.872 E30.05258
G1 X50.169 Y114.103 E30.07891
G1 X50.282 Y113.694 E30.09302
G1 X50.319 Y113.574 E30.0972
G1 X50.559 Y112.916 E30.12049
G1 X50.867 Y112.186 E30.14684
G1 X51.01 Y111.869 E30.15841
G1 X51.063 Y111.759 E30.16247
G1 X51.427 Y111.097 E30.1876
G1 X51.846 Y110.424 E30.21397
G1 X52.061 Y110.098 E30.22696
G1 X52.132 Y109.997 E30.23106
G1 X52.565 Y109.443 E30.25445
G1 X53.085 Y108.842 E30.28088
G1 X53.344 Y108.559 E30.29364
G1 X53.429 Y108.471 E30.29771
G1 X53.984 Y107.955 E30.32292
G1 X54.594 Y107.447 E30.34932
G1 X54.867 Y107.23 E30.36092
G1 X55.593 Y106.734 E30.39016
G1 X56.278 Y106.327 E30.41666
G1 X56.53 Y106.183 E30.42632
G0 F6000 X56.726 Y106.532
G1 F1200 X57.529 Y106.15 E30.45589
G1 X58.269 Y105.857 E30.48236
G1 X58.561 Y105.748 E30.49273
G1 X59.378 Y105.51 E30.52103
G1 X60.254 Y105.316 E30.55088
G1 X60.375 Y105.291 E30.55498
G1 X60.81 Y105.216 E30.56967
G1 X114.787 Y97.786 E32.38188
G1 X115.083 Y97.752 E32.39179
G1 X116.291 Y97.641 E32.43213
G1 X116.895 Y97.613 E32.45225
G1 X118.106 Y97.613 E32.49252
G1 X118.767 Y97.646 E32.51454
G1 X119.903 Y97.749 E32.55247
G1 X120.214 Y97.785 E32.56289
G1 X174.19 Y105.215 E34.37506
G1 X174.711 Y105.308 E34.39267
G1 X175.609 Y105.506 E34.42325
G1 X176.601 Y105.808 E34.45774
G1 X177.454 Y106.143 E34.48822
G1 X178.388 Y106.597 E34.52276
G1 X179.175 Y107.06 E34.55313
G1 X179.938 Y107.585 E34.58394
G1 X180.139 Y107.746 E34.5925
G1 X180.748 Y108.251 E34.61882
G1 X181.385 Y108.855 E34.64801
G1 X181.587 Y109.077 E34.658
G1 X182.111 Y109.676 E34.68447
G1 X182.601 Y110.311 E34.71114
G1 X182.669 Y110.411 E34.71516
G1 X182.812 Y110.63 E34.72386
G1 X183.231 Y111.302 E34.7502
G1 X183.565 Y111.907 E34.77319
G1 X183.619 Y112.018 E34.77729
G1 X183.766 Y112.342 E34.78913
G1 X184.074 Y113.073 E34.81551
G1 X184.309 Y113.725 E34.83856
G1 X184.345 Y113.844 E34.8427
G1 X184.438 Y114.182 E34.85436
G1 X184.627 Y114.952 E34.88073
G1 X184.755 Y115.621 E34.90338
G1 X184.772 Y115.744 E34.90751
G1 X184.812 Y116.114 E34.91989
G1 X184.876 Y116.903 E34.94622
G1 X184.898 Y117.491 E34.96579
G1 X184.897 Y117.614 E34.96988
G1 X184.877 Y118.076 E34.98526
G1 X184.815 Y118.867 E35.01165
G1 X184.758 Y119.359 E35.02812
G1 X184.739 Y119.482 E35.03226
G1 X184.629 Y120.033 E35.05095
G1 X184.442 Y120.802 E35.07727
G1 X184.336 Y121.188 E35.09059
G1 X184.299 Y121.308 E35.09476
G1 X184.073 Y121.929 E35.11674
G1 X183.765 Y122.659 E35.1431
G1 X183.63 Y122.958 E35.15401
