;FLAVOR:Marlin
;TIME:3306
;Filament used: 2.81594m
;Layer height: 0.3
;MINX:61.63
;MINY:79.879
;MINZ:0.2
;MAXX:175.074
;MAXY:136.478
;MAXZ:20.6
;Generated with Cura_SteamEngine 4.10.0
M140 S60
M105
M190 S60
M104 S205
M105
M109 S205
M82 ;absolute extrusion mode
; Ender 3 Custom Start G-code
G92 E0 ; Reset Extruder
G28 ; Home all axes
G1 Z2.0 F3000 ; Move Z Axis up little to prevent scratching of Heat Bed
G1 X0.1 Y20 Z0.3 F5000.0 ; Move to start position
G1 X0.1 Y200.0 Z0.3 F1500.0 E15 ; Draw the first line
G1 X0.4 Y200.0 Z0.3 F5000.0 ; Move to side a little
G1 X0.4 Y20 Z0.3 F1500.0 E30 ; Draw the second line
G92 E0 ; Reset Extruder
G1 Z2.0 F3000 ; Move Z Axis up little to prevent scratching of Heat Bed
G1 X5 Y20 Z0.3 F5000.0 ; Move over to prevent blob squish
G92 E0
G92 E0
G1 F2700 E-5
;LAYER_COUNT:69
;LAYER:0
M107
G0 F6000 X72.253 Y86.125 Z0.2
;TYPE:SKIRT
G1 F2700 E0
G1 F1200 X72.744 Y85.741 E0.02073
G1 X74.09 Y84.774 E0.07586
G1 X74.618 Y84.426 E0.09689
G1 X76.035 Y83.573 E0.1519
G1 X76.586 Y83.271 E0.1728
G1 X78.112 Y82.514 E0.22945
G1 X78.205 Y82.47 E0.23288
G1 X78.643 Y82.28 E0.24876
G1 X80.182 Y81.664 E0.30389
G1 X80.772 Y81.454 E0.32472
G1 X82.254 Y80.995 E0.37632
G1 X82.538 Y80.912 E0.38616
G1 X82.962 Y80.805 E0.40071
G1 X84.58 Y80.444 E0.45584
G1 X85.215 Y80.33 E0.4773
G1 X86.857 Y80.104 E0.53243
G1 X87.478 Y80.044 E0.55318
G1 X89.13 Y79.95 E0.60822
G1 X89.766 Y79.939 E0.62937
G1 X91.42 Y79.98 E0.6844
G1 X92.035 Y80.02 E0.7049
G1 X93.58 Y80.181 E0.75657
G1 X93.86 Y80.215 E0.76595
G1 X94.31 Y80.285 E0.78109
G1 X95.902 Y80.584 E0.83497
G1 X96.004 Y80.604 E0.83843
G1 X96.554 Y80.732 E0.85721
G1 X98.051 Y81.14 E0.90882
G1 X98.361 Y81.231 E0.91956
G1 X98.753 Y81.361 E0.9333
G1 X100.312 Y81.925 E0.98844
G1 X100.904 Y82.168 E1.00972
G1 X102.407 Y82.856 E1.0647
G1 X102.962 Y83.137 E1.08539
G1 X104.68 Y84.096 E1.15083
G1 X105.941 Y84.811 E1.19905
G1 X107.274 Y85.452 E1.24824
G1 X108.648 Y86.005 E1.2975
G1 X110.065 Y86.468 E1.34709
G1 X111.514 Y86.836 E1.39681
G1 X112.938 Y87.097 E1.44496
G1 X114.408 Y87.267 E1.49418
G1 X115.896 Y87.34 E1.54373
G1 X117.377 Y87.314 E1.593
G1 X118.843 Y87.189 E1.64193
G1 X120.437 Y86.947 E1.69556
G1 X157.002 Y80.124 E2.9327
G1 X157.506 Y80.047 E2.94966
G1 X158.458 Y79.933 E2.98155
G1 X159.481 Y79.879 E3.01562
G1 X160.459 Y79.891 E3.04816
G1 X161.466 Y79.968 E3.08175
G1 X162.439 Y80.107 E3.11444
G1 X163.437 Y80.317 E3.14836
G1 X164.381 Y80.581 E3.18096
G1 X165.352 Y80.923 E3.2152
G1 X166.253 Y81.309 E3.2478
G1 X167.166 Y81.774 E3.28188
G1 X168.009 Y82.275 E3.3145
G1 X168.842 Y82.846 E3.34809
G1 X169.616 Y83.454 E3.38082
G1 X170.381 Y84.141 E3.41502
G1 X171.064 Y84.841 E3.44755
G1 X171.723 Y85.611 E3.48126
G1 X172.312 Y86.397 E3.51393
G1 X172.873 Y87.258 E3.5481
G1 X173.352 Y88.112 E3.58067
G1 X173.79 Y89.028 E3.61444
G1 X174.156 Y89.942 E3.64719
G1 X174.47 Y90.903 E3.68081
G1 X174.713 Y91.85 E3.71333
G1 X174.903 Y92.867 E3.74774
G1 X175.019 Y93.842 E3.7804
G1 X175.074 Y94.851 E3.81401
G1 X175.063 Y95.832 E3.84664
G1 X174.983 Y96.856 E3.8808
G1 X174.843 Y97.829 E3.9135
G1 X174.634 Y98.821 E3.94722
G1 X174.37 Y99.764 E3.97979
G1 X174.03 Y100.73 E4.01385
G1 X173.644 Y101.632 E4.04648
G1 X173.178 Y102.548 E4.08066
G1 X172.677 Y103.391 E4.11328
G1 X172.107 Y104.222 E4.14679
G1 X171.501 Y104.994 E4.17944
G1 X170.813 Y105.761 E4.21371
G1 X170.111 Y106.446 E4.24633
G1 X169.339 Y107.107 E4.28013
G1 X168.551 Y107.697 E4.31287
G1 X167.702 Y108.25 E4.34657
G1 X166.851 Y108.729 E4.37905
G1 X165.918 Y109.176 E4.41346
G1 X165.004 Y109.541 E4.4462
G1 X164.044 Y109.854 E4.47978
G1 X163.094 Y110.097 E4.51239
G1 X162.592 Y110.208 E4.52949
G1 X126.039 Y117.031 E5.76625
G1 X124.481 Y117.376 E5.81933
G1 X123.065 Y117.79 E5.86839
G1 X121.673 Y118.299 E5.91769
G1 X120.326 Y118.898 E5.96672
G1 X119 Y119.596 E6.01656
G1 X117.758 Y120.359 E6.06504
G1 X116.54 Y121.225 E6.11475
G1 X115.395 Y122.16 E6.16392
G1 X114.321 Y123.163 E6.21279
G1 X113.307 Y124.246 E6.26214
G1 X112.162 Y125.641 E6.32216
G1 X111.122 Y126.891 E6.37625
G1 X110.863 Y127.186 E6.3893
G1 X110.629 Y127.435 E6.40067
G1 X109.543 Y128.544 E6.45229
G1 X109.254 Y128.824 E6.46568
G1 X109.014 Y129.041 E6.47644
G1 X107.844 Y130.059 E6.52802
G1 X107.356 Y130.45 E6.54882
G1 X106.023 Y131.434 E6.60393
G1 X105.505 Y131.786 E6.62476
G1 X104.099 Y132.659 E6.6798
G1 X103.679 Y132.902 E6.69594
G1 X103.444 Y133.026 E6.70478
G1 X102.062 Y133.733 E6.75641
G1 X101.601 Y133.951 E6.77337
G1 X101.399 Y134.037 E6.78067
G1 X99.967 Y134.63 E6.83222
G1 X99.494 Y134.808 E6.84903
G1 X99.274 Y134.881 E6.85674
G1 X97.796 Y135.357 E6.90839
G1 X97.35 Y135.487 E6.92384
G1 X97.085 Y135.553 E6.93292
G1 X95.576 Y135.907 E6.98447
G1 X94.967 Y136.025 E7.00511
G1 X93.328 Y136.274 E7.06024
G1 X92.835 Y136.332 E7.07676
G1 X92.59 Y136.352 E7.08493
G1 X91.04 Y136.459 E7.13661
G1 X90.579 Y136.478 E7.15195
G1 X90.299 Y136.478 E7.16127
G1 X88.748 Y136.458 E7.21286
G1 X88.325 Y136.441 E7.22694
G1 X88.016 Y136.418 E7.23724
G1 X86.472 Y136.273 E7.28882
G1 X86.015 Y136.216 E7.30414
G1 X85.746 Y136.173 E7.3132
G1 X84.216 Y135.904 E7.36487
G1 X83.747 Y135.807 E7.3808
G1 X83.501 Y135.746 E7.38923
G1 X82 Y135.355 E7.44082
G1 X81.589 Y135.236 E7.45505
G1 X81.299 Y135.14 E7.46521
G1 X79.833 Y134.629 E7.51685
G1 X79.25 Y134.399 E7.53769
G1 X77.737 Y133.731 E7.5927
G1 X77.169 Y133.453 E7.61373
G1 X75.712 Y132.663 E7.66886
G1 X75.179 Y132.346 E7.68948
G1 X73.79 Y131.443 E7.74459
G1 X73.27 Y131.073 E7.76581
G1 X71.96 Y130.06 E7.82089
G1 X71.471 Y129.65 E7.84212
G1 X70.25 Y128.535 E7.89711
G1 X69.809 Y128.099 E7.91774
G1 X68.678 Y126.888 E7.97285
G1 X68.269 Y126.412 E7.99372
G1 X67.24 Y125.115 E8.04879
G1 X66.861 Y124.596 E8.07016
G1 X65.941 Y123.217 E8.1253
G1 X65.617 Y122.686 E8.14599
G1 X64.811 Y121.24 E8.20105
G1 X64.526 Y120.675 E8.2221
G1 X63.84 Y119.169 E8.27714
G1 X63.6 Y118.581 E8.29826
G1 X63.038 Y117.022 E8.35338
G1 X62.848 Y116.419 E8.37441
G1 X62.414 Y114.819 E8.42955
G1 X62.275 Y114.21 E8.45032
G1 X61.971 Y112.583 E8.50538
G1 X61.88 Y111.962 E8.52625
G1 X61.708 Y110.318 E8.58123
G1 X61.668 Y109.685 E8.60232
G1 X61.63 Y108.029 E8.65742
G1 X61.641 Y107.398 E8.67841
G1 X61.737 Y105.744 E8.73351
G1 X61.8 Y105.113 E8.7546
G1 X62.03 Y103.473 E8.80968
G1 X62.142 Y102.853 E8.83064
G1 X62.504 Y101.235 E8.88579
G1 X62.666 Y100.628 E8.90668
G1 X63.156 Y99.048 E8.9617
G1 X63.368 Y98.451 E8.98277
G1 X63.985 Y96.915 E9.03783
G1 X64.241 Y96.345 E9.05861
G1 X64.98 Y94.861 E9.11375
G1 X65.286 Y94.304 E9.13489
G1 X66.141 Y92.889 E9.18987
G1 X66.49 Y92.361 E9.21093
G1 X67.459 Y91.017 E9.26603
G1 X67.844 Y90.527 E9.28676
G1 X68.917 Y89.265 E9.34186
G1 X69.348 Y88.797 E9.36302
G1 X70.52 Y87.627 E9.4181
G1 X70.989 Y87.196 E9.43928
G1 X72.253 Y86.125 E9.49438
G0 F6000 X72.511 Y86.43
G1 F1200 X72.977 Y86.066 E9.51405
G1 X74.323 Y85.099 E9.56918
G1 X74.825 Y84.769 E9.58916
G1 X76.242 Y83.916 E9.64417
G1 X76.764 Y83.63 E9.66396
G1 X78.283 Y82.876 E9.72037
G1 X78.376 Y82.832 E9.72379
G1 X78.791 Y82.651 E9.73885
G1 X80.33 Y82.035 E9.79398
G1 X80.891 Y81.836 E9.81378
G1 X82.373 Y81.377 E9.86538
G1 X82.647 Y81.297 E9.87488
G1 X83.05 Y81.196 E9.8887
G1 X84.668 Y80.835 E9.94383
G1 X85.27 Y80.726 E9.96418
G1 X86.912 Y80.5 E10.01931
G1 X87.501 Y80.443 E10.03899
G1 X89.153 Y80.349 E10.09403
G1 X89.756 Y80.339 E10.11408
G1 X91.41 Y80.38 E10.16911
G1 X91.994 Y80.418 E10.18858
G1 X93.708 Y80.598 E10.2459
G1 X93.81 Y80.611 E10.24932
G1 X94.236 Y80.678 E10.26366
G1 X95.927 Y80.996 E10.32089
G1 X96.449 Y81.118 E10.33872
G1 X97.946 Y81.526 E10.39033
G1 X98.245 Y81.614 E10.40069
G1 X98.616 Y81.737 E10.41369
G1 X100.175 Y82.301 E10.46884
G1 X100.738 Y82.531 E10.48906
G1 X102.241 Y83.219 E10.54404
G1 X102.767 Y83.486 E10.56366
G1 X104.482 Y84.444 E10.629
G1 X105.748 Y85.162 E10.67741
G1 X107.112 Y85.818 E10.72775
G1 X108.51 Y86.38 E10.77786
G1 X109.95 Y86.85 E10.82824
G1 X111.43 Y87.227 E10.87904
G1 X112.881 Y87.493 E10.9281
G1 X114.388 Y87.667 E10.97856
G1 X115.884 Y87.741 E11.02838
G1 X117.387 Y87.714 E11.07838
G1 X118.907 Y87.585 E11.12911
G1 X120.515 Y87.341 E11.18321
G1 X157.076 Y80.518 E12.42023
G1 X157.553 Y80.444 E12.43628
G1 X158.505 Y80.33 E12.46817
G1 X159.476 Y80.279 E12.50051
G1 X160.454 Y80.291 E12.53304
G1 X161.41 Y80.364 E12.56493
G1 X162.383 Y80.503 E12.59762
G1 X163.329 Y80.702 E12.62977
G1 X164.273 Y80.966 E12.66238
G1 X165.194 Y81.291 E12.69486
G1 X166.095 Y81.677 E12.72746
G1 X166.962 Y82.118 E12.75981
G1 X167.805 Y82.619 E12.79243
G1 X168.595 Y83.161 E12.8243
G1 X169.369 Y83.769 E12.85703
G1 X170.095 Y84.42 E12.88946
G1 X170.778 Y85.12 E12.92199
G1 X171.403 Y85.85 E12.95396
G1 X171.992 Y86.636 E12.98662
G1 X172.524 Y87.454 E13.01908
G1 X173.003 Y88.308 E13.05165
G1 X173.419 Y89.177 E13.08369
G1 X173.785 Y90.091 E13.11644
G1 X174.083 Y91.003 E13.14835
G1 X174.326 Y91.95 E13.18087
G1 X174.506 Y92.915 E13.21352
G1 X174.622 Y93.89 E13.24617
G1 X174.674 Y94.847 E13.27805
G1 X174.663 Y95.828 E13.31068
G1 X174.588 Y96.799 E13.34307
G1 X174.448 Y97.772 E13.37577
G1 X174.249 Y98.713 E13.40776
G1 X173.985 Y99.656 E13.44033
G1 X173.662 Y100.572 E13.47263
G1 X173.276 Y101.474 E13.50526
G1 X172.834 Y102.344 E13.53772
G1 X172.333 Y103.187 E13.57034
G1 X171.793 Y103.975 E13.60211
G1 X171.187 Y104.747 E13.63475
G1 X170.534 Y105.474 E13.66725
G1 X169.832 Y106.159 E13.69988
G1 X169.099 Y106.787 E13.73198
G1 X168.311 Y107.377 E13.76472
G1 X167.506 Y107.902 E13.79669
G1 X166.655 Y108.381 E13.82917
G1 X165.769 Y108.804 E13.86182
G1 X164.855 Y109.169 E13.89456
G1 X163.945 Y109.466 E13.92639
G1 X162.995 Y109.709 E13.95901
G1 X162.519 Y109.814 E13.97522
G1 X125.997 Y116.631 E15.21093
G1 X124.373 Y116.991 E15.26625
G1 X122.933 Y117.412 E15.31615
G1 X121.521 Y117.929 E15.36616
G1 X120.155 Y118.535 E15.41587
G1 X118.811 Y119.243 E15.46639
G1 X117.531 Y120.03 E15.51637
G1 X116.298 Y120.907 E15.56669
G1 X115.137 Y121.855 E15.61655
G1 X114.039 Y122.88 E15.66651
G1 X112.995 Y123.994 E15.71729
G1 X111.855 Y125.385 E15.7771
G1 X110.815 Y126.635 E15.83119
G1 X110.569 Y126.915 E15.84358
G1 X110.343 Y127.155 E15.85455
G1 X109.257 Y128.264 E15.90617
G1 X108.983 Y128.53 E15.91888
G1 X108.751 Y128.74 E15.92928
G1 X107.581 Y129.758 E15.98087
G1 X107.119 Y130.129 E16.00057
G1 X105.786 Y131.113 E16.05568
G1 X105.294 Y131.446 E16.07544
G1 X103.888 Y132.319 E16.13048
G1 X103.489 Y132.55 E16.14582
G1 X103.262 Y132.67 E16.15436
G1 X101.88 Y133.377 E16.20599
G1 X101.442 Y133.583 E16.22209
G1 X101.246 Y133.667 E16.22918
G1 X99.814 Y134.26 E16.28073
G1 X99.365 Y134.429 E16.29669
G1 X99.151 Y134.501 E16.3042
G1 X97.673 Y134.977 E16.35584
G1 X97.25 Y135.099 E16.37049
G1 X96.994 Y135.163 E16.37926
G1 X95.485 Y135.517 E16.43081
G1 X94.906 Y135.629 E16.45043
G1 X93.267 Y135.878 E16.50557
G1 X92.8 Y135.934 E16.52121
G1 X92.563 Y135.953 E16.52912
G1 X91.013 Y136.06 E16.5808
G1 X90.575 Y136.078 E16.59538
G1 X90.305 Y136.078 E16.60436
G1 X88.754 Y136.058 E16.65595
G1 X88.352 Y136.042 E16.66933
G1 X88.053 Y136.02 E16.6793
G1 X86.509 Y135.875 E16.73088
G1 X86.076 Y135.821 E16.74539
G1 X85.816 Y135.779 E16.75415
G1 X84.286 Y135.51 E16.80582
G1 X83.84 Y135.418 E16.82097
G1 X83.602 Y135.359 E16.82912
G1 X82.101 Y134.968 E16.88071
G1 X81.711 Y134.855 E16.89422
G1 X81.43 Y134.763 E16.90405
G1 X79.964 Y134.252 E16.95569
G1 X79.411 Y134.034 E16.97546
G1 X77.898 Y133.366 E17.03047
G1 X77.36 Y133.101 E17.05041
G1 X75.903 Y132.311 E17.10554
G1 X75.397 Y132.01 E17.12512
G1 X74.008 Y131.107 E17.18022
G1 X73.514 Y130.757 E17.20036
G1 X72.204 Y129.744 E17.25544
G1 X71.741 Y129.354 E17.27557
G1 X70.52 Y128.239 E17.33057
G1 X70.102 Y127.826 E17.35011
G1 X68.971 Y126.615 E17.40523
G1 X68.582 Y126.163 E17.42506
G1 X67.553 Y124.866 E17.48013
G1 X67.194 Y124.374 E17.50038
G1 X66.274 Y122.995 E17.55552
G1 X65.966 Y122.491 E17.57517
G1 X65.16 Y121.045 E17.63023
G1 X64.89 Y120.51 E17.65016
G1 X64.204 Y119.004 E17.7052
G1 X63.977 Y118.446 E17.72524
G1 X63.415 Y116.887 E17.78035
G1 X63.234 Y116.314 E17.80034
G1 X62.8 Y114.714 E17.85548
G1 X62.668 Y114.136 E17.8752
G1 X62.364 Y112.509 E17.93025
G1 X62.278 Y111.92 E17.95005
G1 X62.106 Y110.276 E18.00503
G1 X62.068 Y109.676 E18.02502
G1 X62.03 Y108.02 E18.08012
G1 X62.04 Y107.421 E18.10004
G1 X62.136 Y105.767 E18.15515
G1 X62.196 Y105.168 E18.17517
G1 X62.426 Y103.528 E18.23025
G1 X62.533 Y102.94 E18.25013
G1 X62.895 Y101.322 E18.30527
G1 X63.048 Y100.746 E18.32509
G1 X63.538 Y99.166 E18.38011
G1 X63.739 Y98.6 E18.40009
G1 X64.356 Y97.064 E18.45515
G1 X64.599 Y96.523 E18.47487
G1 X65.338 Y95.039 E18.53001
G1 X65.628 Y94.511 E18.55005
G1 X66.483 Y93.096 E18.60503
G1 X66.814 Y92.595 E18.62501
G1 X67.783 Y91.251 E18.68012
G1 X68.148 Y90.786 E18.69978
G1 X69.221 Y89.524 E18.75487
G1 X69.631 Y89.08 E18.77497
G1 X70.803 Y87.91 E18.83005
G1 X71.247 Y87.501 E18.85013
G1 X72.511 Y86.43 E18.90523
G0 F6000 X72.77 Y86.735
G1 F1200 X73.211 Y86.391 E18.92384
G1 X74.557 Y85.424 E18.97896
G1 X75.031 Y85.112 E18.99783
G1 X76.448 Y84.259 E19.05284
G1 X76.942 Y83.988 E19.07158
G1 X78.454 Y83.237 E19.12774
G1 X78.547 Y83.193 E19.13116
G1 X78.94 Y83.022 E19.14541
G1 X80.479 Y82.406 E19.20055
G1 X81.009 Y82.218 E19.21925
G1 X82.491 Y81.759 E19.27085
G1 X82.756 Y81.682 E19.28003
G1 X83.137 Y81.586 E19.2931
G1 X84.755 Y81.225 E19.34824
G1 X85.325 Y81.122 E19.3675
G1 X86.967 Y80.896 E19.42263
G1 X87.523 Y80.842 E19.44121
G1 X89.175 Y80.748 E19.49625
G1 X89.746 Y80.739 E19.51524
G1 X91.4 Y80.78 E19.57027
G1 X91.953 Y80.816 E19.5887
G1 X93.657 Y80.995 E19.64569
G1 X93.759 Y81.008 E19.64911
G1 X94.163 Y81.072 E19.66271
G1 X95.85 Y81.389 E19.7198
G1 X96.344 Y81.504 E19.73667
G1 X97.841 Y81.912 E19.78828
G1 X98.129 Y81.997 E19.79827
G1 X98.48 Y82.114 E19.81057
G1 X100.039 Y82.678 E19.86572
G1 X100.572 Y82.895 E19.88486
G1 X102.075 Y83.583 E19.93983
G1 X102.572 Y83.835 E19.95837
G1 X104.285 Y84.792 E20.02363
G1 X105.568 Y85.52 E20.07269
G1 X106.943 Y86.181 E20.12344
G1 X108.385 Y86.761 E20.17513
G1 X109.834 Y87.234 E20.22583
G1 X111.346 Y87.619 E20.27772
G1 X112.824 Y87.889 E20.3277
G1 X114.337 Y88.065 E20.37836
G1 X115.887 Y88.141 E20.42997
G1 X117.414 Y88.113 E20.48077
G1 X118.941 Y87.984 E20.53174
G1 X120.587 Y87.734 E20.58711
G1 X157.149 Y80.911 E21.82416
G1 X157.601 Y80.842 E21.83937
G1 X158.553 Y80.728 E21.87126
G1 X159.471 Y80.679 E21.90184
G1 X160.449 Y80.691 E21.93437
G1 X161.353 Y80.76 E21.96452
G1 X162.326 Y80.899 E21.99721
G1 X163.221 Y81.088 E22.02764
G1 X164.165 Y81.352 E22.06024
G1 X165.037 Y81.659 E22.09099
G1 X165.938 Y82.045 E22.12359
G1 X166.757 Y82.461 E22.15414
G1 X167.6 Y82.962 E22.18676
G1 X168.348 Y83.475 E22.21692
G1 X169.122 Y84.083 E22.24966
G1 X169.808 Y84.699 E22.28033
G1 X170.491 Y85.399 E22.31285
G1 X171.083 Y86.09 E22.34312
G1 X171.672 Y86.876 E22.37579
G1 X172.175 Y87.65 E22.40649
G1 X172.654 Y88.504 E22.43906
G1 X173.047 Y89.326 E22.46936
G1 X173.413 Y90.24 E22.50211
G1 X173.695 Y91.102 E22.53227
G1 X173.938 Y92.049 E22.56479
G1 X174.109 Y92.962 E22.59568
G1 X174.225 Y93.937 E22.62834
G1 X174.274 Y94.842 E22.65849
G1 X174.263 Y95.823 E22.69112
G1 X174.192 Y96.742 E22.72177
G1 X174.052 Y97.715 E22.75447
G1 X173.864 Y98.605 E22.78472
G1 X173.6 Y99.548 E22.81729
G1 X173.294 Y100.415 E22.84787
G1 X172.908 Y101.317 E22.88051
G1 X172.491 Y102.139 E22.91116
G1 X171.99 Y102.982 E22.94378
G1 X171.478 Y103.728 E22.97387
G1 X170.872 Y104.5 E23.00651
G1 X170.255 Y105.188 E23.03725
G1 X169.553 Y105.873 E23.06987
G1 X168.859 Y106.466 E23.10024
G1 X168.071 Y107.056 E23.13298
G1 X167.31 Y107.553 E23.16321
G1 X166.459 Y108.032 E23.19569
G1 X165.621 Y108.433 E23.22659
G1 X164.707 Y108.798 E23.25932
G1 X163.846 Y109.079 E23.28944
G1 X162.896 Y109.322 E23.32206
G1 X162.445 Y109.421 E23.33742
G1 X125.898 Y116.243 E24.57397
G1 X124.281 Y116.601 E24.62905
G1 X122.819 Y117.028 E24.67971
G1 X121.369 Y117.559 E24.73107
G1 X119.973 Y118.179 E24.78188
G1 X118.612 Y118.896 E24.83304
G1 X117.308 Y119.697 E24.88394
G1 X116.055 Y120.588 E24.93508
G1 X114.878 Y121.549 E24.98562
G1 X113.748 Y122.604 E25.03703
G1 X112.705 Y123.718 E25.08779
G1 X111.547 Y125.129 E25.1485
G1 X110.507 Y126.379 E25.20259
G1 X110.275 Y126.644 E25.2143
G1 X110.057 Y126.876 E25.22489
