;FLAVOR:Marlin
;TIME:6733
;Filament used: 5.23304m
;Layer height: 0.26
;MINX:60.202
;MINY:93.181
;MINZ:0.2
;MAXX:170.879
;MAXY:141.816
;MAXZ:20.48
;Generated with Cura_SteamEngine 4.10.0
M140 S60
M105
M190 S60
M104 S205
M105
M109 S205
M82 ;absolute extrusion mode
; Ender 3 Custom Start G-code
G92 E0 ; Reset Extruder
G28 ; Home all axes
G1 Z2.0 F3000 ; Move Z Axis up little to prevent scratching of Heat Bed
G1 X0.1 Y20 Z0.3 F5000.0 ; Move to start position
G1 X0.1 Y200.0 Z0.3 F1500.0 E15 ; Draw the first line
G1 X0.4 Y200.0 Z0.3 F5000.0 ; Move to side a little
G1 X0.4 Y20 Z0.3 F1500.0 E30 ; Draw the second line
G92 E0 ; Reset Extruder
G1 Z2.0 F3000 ; Move Z Axis up little to prevent scratching of Heat Bed
G1 X5 Y20 Z0.3 F5000.0 ; Move over to prevent blob squish
G92 E0
G92 E0
G1 F2700 E-5
;LAYER_COUNT:79
;LAYER:0
M107
G0 F6000 X67.333 Y104.558 Z0.2
;TYPE:SKIRT
G1 F2700 E0
G1 F1200 X68.204 Y104.047 E0.03359
G1 X69.076 Y103.609 E0.06604
G1 X70.11 Y103.179 E0.10329
G1 X71.13 Y102.839 E0.13905
G1 X72.101 Y102.584 E0.17244
G1 X72.879 Y102.432 E0.19881
G1 X73.851 Y102.305 E0.23141
G1 X75.144 Y102.218 E0.27451
G1 X75.668 Y102.2 E0.29195
G1 X112.938 Y102.2 E1.53156
G1 X113.398 Y102.215 E1.54686
G1 X114.471 Y102.151 E1.58262
G1 X116.602 Y101.949 E1.65381
G1 X116.695 Y101.945 E1.65691
G1 X117.668 Y101.718 E1.69014
G1 X118.445 Y101.578 E1.7164
G1 X118.502 Y101.574 E1.7183
G1 X118.812 Y101.48 E1.72907
G1 X119.095 Y101.404 E1.73882
G1 X119.513 Y101.261 E1.75351
G1 X121.354 Y100.707 E1.81746
G1 X121.46 Y100.677 E1.82112
G1 X123.653 Y99.802 E1.89965
G1 X123.776 Y99.746 E1.90415
G1 X124.366 Y99.505 E1.92534
G1 X124.475 Y99.466 E1.92919
G1 X124.839 Y99.304 E1.94245
G1 X124.962 Y99.258 E1.94681
G1 X125.336 Y99.09 E1.96045
G1 X125.435 Y99.052 E1.96398
G1 X125.94 Y98.823 E1.98242
G1 X126.126 Y98.731 E1.98932
G1 X126.384 Y98.628 E1.99856
G1 X126.623 Y98.499 E2.00759
G1 X127.336 Y98.159 E2.03387
G1 X127.718 Y98.033 E2.04725
G1 X128.037 Y97.882 E2.05898
G1 X128.504 Y97.682 E2.07588
G1 X128.622 Y97.617 E2.08036
G1 X129.068 Y97.435 E2.09638
G1 X129.161 Y97.384 E2.09991
G1 X129.671 Y97.182 E2.11816
G1 X130.189 Y96.963 E2.13686
G1 X130.328 Y96.889 E2.1421
G1 X130.799 Y96.705 E2.15892
G1 X130.845 Y96.68 E2.16066
G1 X131.574 Y96.374 E2.18695
G1 X131.78 Y96.309 E2.19414
G1 X132.261 Y96.117 E2.21136
G1 X132.532 Y96.039 E2.22074
G1 X132.682 Y95.959 E2.2264
G1 X133.413 Y95.659 E2.25268
G1 X134.17 Y95.435 E2.27894
G1 X134.946 Y95.288 E2.30521
G1 X135.733 Y95.221 E2.33148
G1 X136.523 Y95.233 E2.35775
G1 X136.729 Y95.249 E2.36463
G1 X137.985 Y94.738 E2.40973
G1 X138.602 Y94.517 E2.43152
G1 X139.949 Y94.097 E2.47845
G1 X140.532 Y93.939 E2.49854
G1 X141.774 Y93.655 E2.54092
G1 X142.405 Y93.538 E2.56226
G1 X143.806 Y93.337 E2.60934
G1 X144.408 Y93.274 E2.62947
G1 X145.608 Y93.196 E2.66947
G1 X146.262 Y93.181 E2.69122
G1 X147.844 Y93.211 E2.74385
G1 X148.532 Y93.255 E2.76678
G1 X149.785 Y93.39 E2.8087
G1 X150.42 Y93.485 E2.83005
G1 X151.378 Y93.669 E2.8625
G1 X151.812 Y93.765 E2.87728
G1 X153.484 Y94.186 E2.93463
G1 X154.223 Y94.412 E2.96033
G1 X155.486 Y94.867 E3.00498
G1 X156.106 Y95.121 E3.02727
G1 X157.302 Y95.672 E3.07106
G1 X157.97 Y96.02 E3.09612
G1 X158.452 Y96.302 E3.11469
G1 X158.803 Y96.488 E3.1279
G1 X159.111 Y96.663 E3.13968
G1 X159.61 Y96.972 E3.15921
G1 X160.651 Y97.672 E3.20093
G1 X161.158 Y98.043 E3.22182
G1 X162.258 Y98.919 E3.26859
G1 X162.736 Y99.333 E3.28963
G1 X163.677 Y100.216 E3.33255
G1 X164.137 Y100.685 E3.3544
G1 X165.085 Y101.738 E3.40152
G1 X165.481 Y102.215 E3.42214
G1 X166.278 Y103.256 E3.46575
G1 X166.658 Y103.799 E3.48779
G1 X167.195 Y104.639 E3.52095
G1 X167.308 Y104.808 E3.52771
G1 X167.718 Y105.492 E3.55424
G1 X168.356 Y106.692 E3.59944
G1 X168.623 Y107.245 E3.61986
G1 X169.134 Y108.421 E3.66251
G1 X169.366 Y109.022 E3.68394
G1 X169.783 Y110.25 E3.72707
G1 X169.963 Y110.861 E3.74826
G1 X170.308 Y112.237 E3.79544
G1 X170.439 Y112.872 E3.817
G1 X170.696 Y114.439 E3.86982
G1 X170.773 Y115.061 E3.89066
G1 X170.852 Y116.02 E3.92267
G1 X170.878 Y116.655 E3.94381
G1 X170.879 Y118.243 E3.99662
G1 X170.853 Y118.885 E4.01799
G1 X170.769 Y119.91 E4.0522
G1 X170.724 Y120.344 E4.06671
G1 X170.666 Y120.761 E4.08072
G1 X170.452 Y122.045 E4.12401
G1 X170.447 Y122.044 E4.12418
G1 X170.393 Y122.4 E4.13616
G1 X170.303 Y122.791 E4.1495
G1 X169.987 Y124.016 E4.19158
G1 X169.844 Y124.503 E4.20846
G1 X169.386 Y125.897 E4.25726
G1 X169.14 Y126.547 E4.28038
G1 X168.622 Y127.75 E4.32394
G1 X168.346 Y128.325 E4.34516
G1 X167.71 Y129.522 E4.39024
G1 X167.363 Y130.111 E4.41298
G1 X166.714 Y131.11 E4.4526
G1 X166.297 Y131.722 E4.47723
G1 X165.487 Y132.782 E4.5216
G1 X165.077 Y133.274 E4.5429
G1 X164.199 Y134.246 E4.58647
G1 X163.775 Y134.681 E4.60667
G1 X162.735 Y135.666 E4.65431
G1 X162.243 Y136.094 E4.676
G1 X161.199 Y136.929 E4.72047
G1 X160.672 Y137.316 E4.74221
G1 X159.542 Y138.074 E4.78747
G1 X159.008 Y138.402 E4.80831
G1 X157.833 Y139.06 E4.85311
G1 X157.264 Y139.348 E4.87432
G1 X156.089 Y139.885 E4.91729
G1 X155.5 Y140.126 E4.93845
G1 X154.151 Y140.614 E4.98617
G1 X153.562 Y140.801 E5.00672
G1 X152.283 Y141.152 E5.05083
G1 X151.614 Y141.304 E5.07365
G1 X150.404 Y141.524 E5.11455
G1 X149.81 Y141.609 E5.13451
G1 X148.493 Y141.745 E5.17855
G1 X147.842 Y141.785 E5.20024
G1 X146.23 Y141.816 E5.25387
G1 X145.58 Y141.801 E5.27549
G1 X144.413 Y141.726 E5.31439
G1 X143.818 Y141.665 E5.33428
G1 X142.379 Y141.461 E5.38262
G1 X141.708 Y141.335 E5.40533
G1 X140.482 Y141.05 E5.44719
G1 X139.932 Y140.901 E5.46614
G1 X138.591 Y140.484 E5.51285
G1 X137.931 Y140.246 E5.53619
G1 X136.78 Y139.771 E5.5776
G1 X136.248 Y139.527 E5.59707
G1 X136.186 Y139.496 E5.59937
G1 X135.747 Y139.539 E5.61405
G1 X134.957 Y139.537 E5.64032
G1 X134.172 Y139.454 E5.66658
G1 X133.399 Y139.293 E5.69284
G1 X132.646 Y139.054 E5.71911
G1 X132.257 Y138.909 E5.73292
G1 X131.376 Y138.555 E5.7645
G1 X131.213 Y138.496 E5.77027
G1 X130.871 Y138.33 E5.78291
G1 X130.615 Y138.237 E5.79197
G1 X130.424 Y138.139 E5.79911
G1 X129.857 Y137.914 E5.8194
G1 X129.784 Y137.875 E5.82215
G1 X129.424 Y137.737 E5.83497
G1 X129.079 Y137.562 E5.84784
G1 X128.813 Y137.46 E5.85732
G1 X128.572 Y137.334 E5.86636
G1 X128.417 Y137.262 E5.87205
G1 X128.037 Y137.111 E5.88565
G1 X127.896 Y137.042 E5.89087
G1 X127.541 Y136.925 E5.9033
G1 X126.714 Y136.546 E5.93356
G1 X126.391 Y136.375 E5.94571
G1 X126.012 Y136.255 E5.95893
G1 X125.466 Y136.028 E5.9786
G1 X123.669 Y135.2 E6.04441
G1 X121.678 Y134.429 E6.11542
G1 X121.281 Y134.274 E6.1296
G1 X119.672 Y133.793 E6.18545
G1 X118.75 Y133.539 E6.21726
G1 X117.042 Y133.12 E6.27575
G1 X114.983 Y132.898 E6.34463
G1 X114.595 Y132.842 E6.35767
G1 X113.139 Y132.8 E6.40612
G1 X75.624 Y132.8 E7.65387
G1 X75.131 Y132.784 E7.67028
G1 X73.946 Y132.709 E7.70977
G1 X72.855 Y132.562 E7.74639
G1 X71.934 Y132.371 E7.77767
G1 X70.974 Y132.108 E7.81078
G1 X70.029 Y131.782 E7.84402
G1 X69.16 Y131.422 E7.87531
G1 X68.338 Y131.022 E7.90571
G1 X67.43 Y130.502 E7.94052
G1 X66.584 Y129.939 E7.97432
G1 X65.762 Y129.309 E8.00876
G1 X65.022 Y128.66 E8.0415
G1 X64.296 Y127.934 E8.07565
G1 X63.656 Y127.203 E8.10796
G1 X63.027 Y126.38 E8.14242
G1 X62.432 Y125.484 E8.17819
G1 X61.909 Y124.567 E8.2133
G1 X61.533 Y123.79 E8.24201
G1 X61.176 Y122.922 E8.27323
G1 X60.851 Y121.974 E8.30656
G1 X60.586 Y121.003 E8.34004
G1 X60.422 Y120.199 E8.36733
G1 X60.281 Y119.138 E8.40293
G1 X60.202 Y117.902 E8.44412
G1 X60.203 Y116.884 E8.47798
G1 X60.268 Y115.912 E8.51038
G1 X60.417 Y114.829 E8.54674
G1 X60.602 Y113.948 E8.57668
G1 X60.831 Y113.102 E8.60583
G1 X61.131 Y112.195 E8.63761
G1 X61.556 Y111.162 E8.67476
G1 X61.982 Y110.308 E8.7065
G1 X62.454 Y109.49 E8.73791
G1 X63.04 Y108.603 E8.77327
G1 X63.687 Y107.756 E8.80872
G1 X64.3 Y107.058 E8.83962
G1 X65.062 Y106.302 E8.87532
G1 X65.826 Y105.642 E8.9089
G1 X66.553 Y105.086 E8.93934
G1 X67.333 Y104.558 E8.97067
G0 F6000 X67.557 Y104.889
G1 F1200 X68.383 Y104.404 E9.00253
G1 X69.255 Y103.966 E9.03498
G1 X70.237 Y103.559 E9.07034
G1 X71.257 Y103.219 E9.1061
G1 X72.178 Y102.976 E9.13778
G1 X72.956 Y102.824 E9.16414
G1 X73.878 Y102.704 E9.19507
G1 X75.171 Y102.617 E9.23817
G1 X75.668 Y102.6 E9.25471
G1 X112.938 Y102.6 E10.49432
G1 X113.404 Y102.615 E10.50982
G1 X114.505 Y102.549 E10.54651
G1 X116.64 Y102.347 E10.61784
G1 X116.75 Y102.342 E10.6215
G1 X117.759 Y102.107 E10.65596
G1 X118.516 Y101.972 E10.68153
G1 X118.584 Y101.967 E10.6838
G1 X118.928 Y101.863 E10.69575
G1 X119.202 Y101.789 E10.70519
G1 X119.629 Y101.644 E10.72019
G1 X121.47 Y101.09 E10.78413
G1 X121.582 Y101.058 E10.78801
G1 X123.83 Y100.161 E10.86851
G1 X123.943 Y100.11 E10.87263
G1 X124.502 Y99.882 E10.89271
G1 X124.599 Y99.847 E10.89614
G1 X124.98 Y99.678 E10.91001
G1 X125.111 Y99.628 E10.91467
G1 X125.48 Y99.463 E10.92811
G1 X125.586 Y99.422 E10.93189
G1 X126.113 Y99.184 E10.95113
G1 X126.305 Y99.089 E10.95825
G1 X126.56 Y98.988 E10.96737
G1 X126.813 Y98.851 E10.97694
G1 X127.508 Y98.521 E11.00253
G1 X127.876 Y98.4 E11.01542
G1 X128.111 Y98.299 E11.02392
G1 X128.232 Y98.232 E11.02852
G1 X128.697 Y98.034 E11.04533
G1 X128.816 Y97.968 E11.04986
G1 X129.252 Y97.791 E11.06551
G1 X129.354 Y97.735 E11.06938
G1 X129.806 Y97.557 E11.08554
G1 X130.383 Y97.314 E11.10636
G1 X130.516 Y97.243 E11.11138
G1 X130.983 Y97.061 E11.12805
G1 X131.037 Y97.032 E11.13008
G1 X131.747 Y96.737 E11.15566
G1 X131.924 Y96.682 E11.16182
G1 X132.429 Y96.482 E11.17989
G1 X132.688 Y96.41 E11.18883
G1 X132.871 Y96.312 E11.19573
G1 X133.584 Y96.023 E11.22132
G1 X134.323 Y95.81 E11.2469
G1 X135.08 Y95.674 E11.27248
G1 X135.847 Y95.618 E11.29806
G1 X136.616 Y95.641 E11.32365
G1 X136.783 Y95.664 E11.32926
G1 X136.879 Y95.62 E11.33277
G1 X138.135 Y95.109 E11.37787
G1 X138.721 Y94.898 E11.39858
G1 X140.068 Y94.478 E11.44551
G1 X140.621 Y94.329 E11.46456
G1 X141.863 Y94.045 E11.50694
G1 X142.462 Y93.934 E11.5272
G1 X143.863 Y93.733 E11.57427
G1 X144.434 Y93.674 E11.59337
G1 X145.634 Y93.596 E11.63336
G1 X146.254 Y93.581 E11.65399
G1 X147.836 Y93.611 E11.70662
G1 X148.489 Y93.653 E11.72838
G1 X149.742 Y93.788 E11.7703
G1 X150.345 Y93.878 E11.79057
G1 X151.303 Y94.062 E11.82302
G1 X151.714 Y94.153 E11.83702
G1 X153.386 Y94.574 E11.89437
G1 X154.087 Y94.788 E11.91874
G1 X155.35 Y95.243 E11.9634
G1 X155.938 Y95.484 E11.98453
G1 X157.134 Y96.035 E12.02833
G1 X157.768 Y96.365 E12.0521
G1 X158.255 Y96.649 E12.07085
G1 X158.606 Y96.836 E12.08408
G1 X158.914 Y97.011 E12.09586
G1 X159.387 Y97.304 E12.11437
G1 X160.428 Y98.004 E12.15609
G1 X160.909 Y98.356 E12.17592
G1 X162.009 Y99.232 E12.22269
G1 X162.463 Y99.625 E12.24266
G1 X163.404 Y100.508 E12.28558
G1 X163.84 Y100.953 E12.3063
G1 X164.788 Y102.006 E12.35342
G1 X165.164 Y102.459 E12.373
G1 X165.961 Y103.5 E12.41661
G1 X166.321 Y104.014 E12.43748
G1 X166.865 Y104.866 E12.4711
G1 X166.976 Y105.031 E12.47772
G1 X167.365 Y105.68 E12.50288
G1 X168.003 Y106.88 E12.54809
G1 X168.256 Y107.405 E12.56747
G1 X168.767 Y108.581 E12.61012
G1 X168.987 Y109.151 E12.63044
G1 X169.404 Y110.379 E12.67357
G1 X169.575 Y110.958 E12.69365
G1 X169.92 Y112.334 E12.74083
G1 X170.044 Y112.936 E12.76128
G1 X170.301 Y114.503 E12.81409
G1 X170.374 Y115.093 E12.83387
G1 X170.453 Y116.052 E12.86587
G1 X170.478 Y116.655 E12.88594
G1 X170.479 Y118.243 E12.93876
G1 X170.454 Y118.852 E12.95903
G1 X170.37 Y119.877 E12.99324
G1 X170.326 Y120.3 E13.00738
G1 X170.271 Y120.696 E13.02068
G1 X170.057 Y121.98 E13.06398
G1 X170.042 Y121.978 E13.06448
G1 X169.915 Y122.691 E13.08857
G1 X169.599 Y123.916 E13.13064
G1 X169.464 Y124.378 E13.14665
G1 X169.006 Y125.772 E13.19546
G1 X168.773 Y126.389 E13.21739
G1 X168.255 Y127.592 E13.26096
G1 X167.993 Y128.137 E13.28107
G1 X167.357 Y129.334 E13.32615
G1 X167.027 Y129.893 E13.34774
G1 X166.378 Y130.892 E13.38736
G1 X165.979 Y131.479 E13.41097
G1 X165.169 Y132.539 E13.45534
G1 X164.78 Y133.006 E13.47556
G1 X163.902 Y133.978 E13.51912
G1 X163.5 Y134.391 E13.53829
G1 X162.46 Y135.376 E13.58593
G1 X161.993 Y135.782 E13.60652
G1 X160.949 Y136.617 E13.65098
G1 X160.449 Y136.983 E13.67159
G1 X159.319 Y137.741 E13.71685
G1 X158.813 Y138.053 E13.73662
G1 X157.638 Y138.711 E13.78141
G1 X157.098 Y138.984 E13.80153
G1 X155.923 Y139.521 E13.8445
G1 X155.364 Y139.75 E13.8646
G1 X154.015 Y140.238 E13.91231
G1 X153.456 Y140.415 E13.93181
G1 X152.177 Y140.766 E13.97592
G1 X151.543 Y140.911 E13.99755
G1 X150.333 Y141.131 E14.03846
G1 X149.769 Y141.211 E14.05741
G1 X148.452 Y141.347 E14.10144
G1 X147.834 Y141.385 E14.12204
G1 X146.222 Y141.416 E14.17566
G1 X145.605 Y141.402 E14.19619
G1 X144.438 Y141.327 E14.23508
G1 X143.874 Y141.269 E14.25394
G1 X142.435 Y141.065 E14.30228
G1 X141.798 Y140.946 E14.32383
G1 X140.572 Y140.661 E14.3657
G1 X140.051 Y140.519 E14.38366
G1 X138.71 Y140.102 E14.43037
G1 X138.084 Y139.876 E14.4525
G1 X136.933 Y139.401 E14.49392
G1 X136.427 Y139.17 E14.51242
G1 X136.271 Y139.091 E14.51823
G1 X135.548 Y139.146 E14.54235
G1 X134.779 Y139.124 E14.56794
G1 X134.017 Y139.022 E14.59351
G1 X133.269 Y138.841 E14.6191
G1 X132.544 Y138.584 E14.64469
G1 X132.368 Y138.524 E14.65087
G1 X131.562 Y138.197 E14.6798
G1 X131.351 Y138.12 E14.68727
G1 X131.027 Y137.962 E14.69926
G1 X130.753 Y137.861 E14.70898
G1 X130.573 Y137.768 E14.71571
G1 X130.005 Y137.541 E14.73606
G1 X129.941 Y137.507 E14.73847
G1 X129.568 Y137.363 E14.75177
G1 X129.238 Y137.194 E14.7641
G1 X128.957 Y137.086 E14.77411
G1 X128.548 Y136.883 E14.7893
G1 X128.185 Y136.739 E14.80229
G1 X128.04 Y136.668 E14.80766
G1 X127.668 Y136.545 E14.82069
G1 X126.901 Y136.193 E14.84876
G1 X126.543 Y136.003 E14.86224
G1 X126.133 Y135.873 E14.87654
G1 X125.633 Y135.665 E14.89455
G1 X123.808 Y134.825 E14.96138
G1 X121.4 Y133.892 E15.04727
G1 X119.764 Y133.403 E15.10406
G1 X118.847 Y133.15 E15.1357
G1 X117.113 Y132.725 E15.19508
G1 X115.026 Y132.5 E15.2649
G1 X114.63 Y132.443 E15.2782
G1 X113.151 Y132.4 E15.32741
G1 X75.624 Y132.4 E16.57557
G1 X75.157 Y132.385 E16.59111
G1 X73.972 Y132.31 E16.6306
G1 X72.936 Y132.171 E16.66537
G1 X72.015 Y131.98 E16.69665
G1 X71.105 Y131.729 E16.72805
G1 X70.16 Y131.403 E16.7613
G1 X69.335 Y131.062 E16.79099
G1 X68.513 Y130.662 E16.82139
G1 X67.651 Y130.169 E16.85442
G1 X66.805 Y129.606 E16.88822
G1 X66.026 Y129.008 E16.92088
G1 X65.286 Y128.359 E16.95362
G1 X64.597 Y127.671 E16.98601
G1 X63.957 Y126.94 E17.01832
G1 X63.36 Y126.159 E17.05102
G1 X62.765 Y125.263 E17.08679
G1 X62.269 Y124.392 E17.12013
G1 X61.893 Y123.615 E17.14884
G1 X61.554 Y122.792 E17.17844
G1 X61.229 Y121.844 E17.21177
G1 X60.978 Y120.923 E17.24352
G1 X60.814 Y120.119 E17.27082
G1 X60.68 Y119.112 E17.3046
G1 X60.601 Y117.876 E17.3458
G1 X60.602 Y116.91 E17.37793
G1 X60.667 Y115.938 E17.41033
G1 X60.809 Y114.911 E17.44481
G1 X60.994 Y114.03 E17.47475
G1 X61.21 Y113.227 E17.50241
G1 X61.51 Y112.32 E17.53418
G1 X61.914 Y111.341 E17.56941
G1 X62.34 Y110.487 E17.60115
G1 X62.788 Y109.711 E17.63095
G1 X63.374 Y108.824 E17.66631
G1 X63.988 Y108.02 E17.69996
G1 X64.601 Y107.322 E17.73086
G1 X65.323 Y106.605 E17.7647
G1 X66.087 Y105.945 E17.79828
G1 X66.777 Y105.417 E17.82718
G1 X67.557 Y104.889 E17.8585
G0 F6000 X67.781 Y105.22
G1 F1200 X68.563 Y104.762 E17.88865
G1 X69.435 Y104.324 E17.9211
G1 X70.363 Y103.938 E17.95453
G1 X71.383 Y103.598 E17.99029
G1 X72.255 Y103.369 E18.02028
G1 X73.033 Y103.217 E18.04664
G1 X73.905 Y103.103 E18.07589
G1 X75.198 Y103.016 E18.119
G1 X75.668 Y103 E18.13464
G1 X112.938 Y103 E19.37424
G1 X113.411 Y103.016 E19.38998
G1 X114.509 Y102.95 E19.42657
G1 X116.678 Y102.745 E19.49903
G1 X116.808 Y102.74 E19.50336
G1 X117.849 Y102.497 E19.53891
G1 X118.586 Y102.366 E19.56381
G1 X118.666 Y102.361 E19.56648
G1 X119.044 Y102.246 E19.57962
G1 X119.315 Y102.173 E19.58895
G1 X119.744 Y102.027 E19.60402
G1 X121.585 Y101.473 E19.66797
G1 X121.724 Y101.433 E19.67278
G1 X123.975 Y100.535 E19.75339
G1 X124.109 Y100.474 E19.75828
G1 X124.638 Y100.258 E19.77729
G1 X124.742 Y100.221 E19.78096
G1 X125.121 Y100.052 E19.79476
G1 X125.261 Y99.999 E19.79974
G1 X125.625 Y99.836 E19.813
G1 X125.729 Y99.796 E19.81671
G1 X126.307 Y99.534 E19.83782
G1 X126.484 Y99.447 E19.84438
G1 X126.736 Y99.347 E19.8534
G1 X127.003 Y99.203 E19.86349
