;FLAVOR:Marlin
;TIME:2200
;Filament used: 2.0413m
;Layer height: 0.3
;MINX:61.712
;MINY:96.647
;MINZ:0.2
;MAXX:173.291
;MAXY:138.353
;MAXZ:4.1
;Generated with Cura_SteamEngine 4.10.0
M140 S60
M105
M190 S60
M104 S205
M105
M109 S205
M82 ;absolute extrusion mode
; Ender 3 Custom Start G-code
G92 E0 ; Reset Extruder
G28 ; Home all axes
G1 Z2.0 F3000 ; Move Z Axis up little to prevent scratching of Heat Bed
G1 X0.1 Y20 Z0.3 F5000.0 ; Move to start position
G1 X0.1 Y200.0 Z0.3 F1500.0 E15 ; Draw the first line
G1 X0.4 Y200.0 Z0.3 F5000.0 ; Move to side a little
G1 X0.4 Y20 Z0.3 F1500.0 E30 ; Draw the second line
G92 E0 ; Reset Extruder
G1 Z2.0 F3000 ; Move Z Axis up little to prevent scratching of Heat Bed
G1 X5 Y20 Z0.3 F5000.0 ; Move over to prevent blob squish
G92 E0
G92 E0
G1 F2700 E-5
;LAYER_COUNT:14
;LAYER:0
M107
G0 F6000 X69.476 Y102.799 Z0.2
;TYPE:SKIRT
G1 F2700 E0
G1 F1200 X70.198 Y102.332 E0.0286
G1 X71.157 Y101.784 E0.06534
G1 X71.925 Y101.399 E0.09391
G1 X72.94 Y100.959 E0.1307
G1 X73.764 Y100.656 E0.1599
G1 X74.822 Y100.333 E0.1967
G1 X75.645 Y100.13 E0.22489
G1 X76.735 Y99.923 E0.26179
G1 X77.598 Y99.809 E0.29075
G1 X78.701 Y99.725 E0.32754
G1 X79.561 Y99.707 E0.35615
G1 X80.665 Y99.745 E0.39289
G1 X81.53 Y99.823 E0.42178
G1 X82.627 Y99.984 E0.45865
G1 X83.472 Y100.156 E0.48733
G1 X84.54 Y100.436 E0.52406
G1 X85.359 Y100.7 E0.55268
G1 X86.395 Y101.098 E0.58959
G1 X87.182 Y101.451 E0.61828
G1 X88.162 Y101.958 E0.65498
G1 X88.897 Y102.391 E0.68335
G1 X89.362 Y102.7 E0.70192
G1 X138.82 Y102.699 E2.3469
G1 X139.037 Y102.477 E2.35722
G1 X139.587 Y101.967 E2.38217
G1 X140.543 Y101.161 E2.42376
G1 X141.137 Y100.707 E2.44863
G1 X142.163 Y99.998 E2.49011
G1 X142.793 Y99.606 E2.51479
G1 X143.883 Y98.997 E2.55631
G1 X144.553 Y98.663 E2.58121
G1 X145.697 Y98.161 E2.62276
G1 X146.402 Y97.892 E2.64786
G1 X147.589 Y97.503 E2.68941
G1 X148.297 Y97.307 E2.71384
G1 X149.517 Y97.031 E2.75544
G1 X150.257 Y96.901 E2.78043
G1 X151.496 Y96.744 E2.82197
G1 X152.233 Y96.686 E2.84656
G1 X153.481 Y96.647 E2.88809
G1 X154.238 Y96.66 E2.91327
G1 X155.483 Y96.742 E2.95477
G1 X156.217 Y96.825 E2.97934
G1 X157.452 Y97.025 E3.02095
G1 X158.182 Y97.18 E3.04577
G1 X159.388 Y97.496 E3.08724
G1 X160.105 Y97.721 E3.11223
G1 X161.279 Y98.153 E3.15384
G1 X161.958 Y98.44 E3.17836
G1 X163.084 Y98.98 E3.21989
G1 X163.746 Y99.338 E3.24492
G1 X164.813 Y99.983 E3.28639
G1 X165.43 Y100.397 E3.31111
G1 X166.434 Y101.143 E3.35271
G1 X167.012 Y101.617 E3.37757
G1 X167.937 Y102.453 E3.41904
G1 X168.464 Y102.977 E3.44376
G1 X169.307 Y103.899 E3.48531
G1 X169.786 Y104.477 E3.51028
G1 X170.538 Y105.478 E3.55192
G1 X170.954 Y106.089 E3.5765
G1 X171.605 Y107.152 E3.61796
G1 X171.967 Y107.813 E3.64303
G1 X172.514 Y108.937 E3.6846
G1 X172.823 Y109.663 E3.71085
G1 X173.057 Y110.418 E3.73714
G1 X173.214 Y111.192 E3.7634
G1 X173.291 Y111.977 E3.78964
G1 X173.289 Y112.767 E3.81591
G1 X173.207 Y113.553 E3.8422
G1 X173.046 Y114.326 E3.86846
G1 X172.807 Y115.078 E3.8947
G1 X172.494 Y115.803 E3.92097
G1 X172.109 Y116.493 E3.94725
G1 X171.656 Y117.14 E3.97352
G1 X171.346 Y117.5 E3.98932
G1 X171.666 Y117.872 E4.00564
G1 X172.117 Y118.52 E4.0319
G1 X172.501 Y119.211 E4.05819
G1 X172.813 Y119.936 E4.08444
G1 X173.05 Y120.689 E4.1107
G1 X173.209 Y121.463 E4.13698
G1 X173.29 Y122.248 E4.16323
G1 X173.29 Y123.038 E4.18951
G1 X173.211 Y123.824 E4.21578
G1 X173.053 Y124.597 E4.24202
G1 X172.817 Y125.351 E4.2683
G1 X172.514 Y126.063 E4.29404
G1 X171.967 Y127.187 E4.33561
G1 X171.605 Y127.848 E4.36068
G1 X170.954 Y128.911 E4.40214
G1 X170.539 Y129.521 E4.42668
G1 X169.788 Y130.521 E4.46827
G1 X169.308 Y131.1 E4.49329
G1 X168.466 Y132.021 E4.53479
G1 X167.939 Y132.544 E4.55948
G1 X167.013 Y133.381 E4.601
G1 X166.436 Y133.855 E4.62584
G1 X165.431 Y134.602 E4.66749
G1 X164.813 Y135.017 E4.69224
G1 X163.746 Y135.662 E4.73371
G1 X163.084 Y136.02 E4.75874
G1 X161.958 Y136.56 E4.80028
G1 X161.279 Y136.847 E4.8248
G1 X160.105 Y137.279 E4.86641
G1 X159.388 Y137.504 E4.8914
G1 X158.182 Y137.82 E4.93287
G1 X157.452 Y137.975 E4.95769
G1 X156.217 Y138.175 E4.9993
G1 X155.483 Y138.258 E5.02387
G1 X154.238 Y138.34 E5.06536
G1 X153.481 Y138.353 E5.09055
G1 X152.233 Y138.314 E5.13208
G1 X151.496 Y138.256 E5.15666
G1 X150.257 Y138.099 E5.1982
G1 X149.517 Y137.969 E5.22319
G1 X148.297 Y137.693 E5.26479
G1 X147.589 Y137.497 E5.28923
G1 X146.402 Y137.108 E5.33077
G1 X145.697 Y136.839 E5.35587
G1 X144.553 Y136.337 E5.39742
G1 X143.883 Y136.003 E5.42232
G1 X142.793 Y135.394 E5.46385
G1 X142.163 Y135.002 E5.48853
G1 X141.137 Y134.293 E5.53001
G1 X140.546 Y133.842 E5.55474
G1 X139.589 Y133.036 E5.59635
G1 X139.038 Y132.524 E5.62137
G1 X138.819 Y132.3 E5.63179
G1 X89.36 Y132.301 E7.2768
G1 X88.905 Y132.604 E7.29498
G1 X88.164 Y133.041 E7.3236
G1 X87.182 Y133.549 E7.36037
G1 X86.395 Y133.902 E7.38906
G1 X85.359 Y134.3 E7.42597
G1 X84.54 Y134.564 E7.45459
G1 X83.472 Y134.844 E7.49131
G1 X82.627 Y135.016 E7.51999
G1 X81.53 Y135.177 E7.55687
G1 X80.665 Y135.255 E7.58576
G1 X79.561 Y135.293 E7.6225
G1 X78.701 Y135.275 E7.65111
G1 X77.598 Y135.191 E7.6879
G1 X76.735 Y135.077 E7.71685
G1 X75.645 Y134.87 E7.75375
G1 X74.822 Y134.667 E7.78195
G1 X73.764 Y134.344 E7.81874
G1 X72.94 Y134.041 E7.84794
G1 X71.925 Y133.601 E7.88474
G1 X71.157 Y133.216 E7.91331
G1 X70.198 Y132.668 E7.95005
G1 X69.476 Y132.201 E7.97865
G1 X68.582 Y131.55 E8.01543
G1 X67.907 Y130.998 E8.04443
G1 X67.089 Y130.249 E8.08132
G1 X66.496 Y129.644 E8.1095
G1 X65.765 Y128.812 E8.14633
G1 X65.224 Y128.122 E8.17549
G1 X64.593 Y127.216 E8.21222
G1 X64.14 Y126.481 E8.24093
G1 X63.611 Y125.507 E8.2778
G1 X63.246 Y124.738 E8.30611
G1 X62.827 Y123.714 E8.34291
G1 X62.543 Y122.892 E8.37183
G1 X62.241 Y121.829 E8.40859
G1 X62.051 Y120.985 E8.43736
G1 X61.868 Y119.892 E8.47422
G1 X61.773 Y119.035 E8.5029
G1 X61.712 Y117.932 E8.53964
G1 X61.712 Y117.071 E8.56828
G1 X61.773 Y115.966 E8.60509
G1 X61.868 Y115.108 E8.6338
G1 X62.051 Y114.015 E8.67066
G1 X62.243 Y113.165 E8.69964
G1 X62.546 Y112.102 E8.73641
G1 X62.825 Y111.292 E8.7649
G1 X63.243 Y110.268 E8.80169
G1 X63.606 Y109.502 E8.82988
G1 X64.134 Y108.527 E8.86676
G1 X64.598 Y107.775 E8.89615
G1 X65.23 Y106.87 E8.93286
G1 X65.765 Y106.188 E8.96169
G1 X66.496 Y105.356 E8.99853
G1 X67.089 Y104.751 E9.0267
G1 X67.907 Y104.002 E9.06359
G1 X68.582 Y103.45 E9.0926
G1 X69.476 Y102.799 E9.12938
G0 F6000 X69.712 Y103.122
G1 F1200 X70.397 Y102.679 E9.15651
G1 X71.356 Y102.131 E9.19325
G1 X72.084 Y101.766 E9.22033
G1 X73.099 Y101.326 E9.25713
G1 X73.881 Y101.038 E9.28485
G1 X74.939 Y100.715 E9.32164
G1 X75.719 Y100.523 E9.34836
G1 X76.809 Y100.316 E9.38526
G1 X77.628 Y100.207 E9.41274
G1 X78.731 Y100.123 E9.44953
G1 X79.548 Y100.106 E9.47671
G1 X80.652 Y100.144 E9.51345
G1 X81.472 Y100.218 E9.54083
G1 X82.569 Y100.379 E9.57771
G1 X83.371 Y100.543 E9.60494
G1 X84.439 Y100.823 E9.64166
G1 X85.216 Y101.073 E9.66881
G1 X86.252 Y101.471 E9.70572
G1 X86.998 Y101.806 E9.73292
G1 X87.978 Y102.313 E9.76962
G1 X88.675 Y102.724 E9.79653
G1 X89.24 Y103.1 E9.8191
G1 X138.989 Y103.099 E11.47376
G1 X139.323 Y102.757 E11.48966
G1 X139.845 Y102.272 E11.51336
G1 X140.801 Y101.466 E11.55495
G1 X141.364 Y101.036 E11.57851
G1 X142.39 Y100.327 E11.61999
G1 X142.988 Y99.955 E11.64342
G1 X144.078 Y99.346 E11.68495
G1 X144.713 Y99.03 E11.70854
G1 X145.857 Y98.528 E11.75009
G1 X146.526 Y98.272 E11.77391
G1 X147.713 Y97.883 E11.81546
G1 X148.385 Y97.697 E11.83865
G1 X149.605 Y97.421 E11.88025
G1 X150.308 Y97.298 E11.90399
G1 X151.547 Y97.141 E11.94553
G1 X152.246 Y97.086 E11.96885
G1 X153.494 Y97.047 E12.01038
G1 X154.211 Y97.059 E12.03423
G1 X155.456 Y97.141 E12.07573
G1 X156.153 Y97.22 E12.09906
G1 X157.388 Y97.42 E12.14067
G1 X158.081 Y97.567 E12.16423
G1 X159.287 Y97.883 E12.2057
G1 X159.966 Y98.096 E12.22937
G1 X161.14 Y98.528 E12.27097
G1 X161.785 Y98.801 E12.29427
G1 X162.911 Y99.341 E12.3358
G1 X163.539 Y99.68 E12.35954
G1 X164.606 Y100.325 E12.40101
G1 X165.191 Y100.718 E12.42445
G1 X166.195 Y101.464 E12.46605
G1 X166.744 Y101.914 E12.48966
G1 X167.669 Y102.75 E12.53113
G1 X168.168 Y103.247 E12.55455
G1 X169.011 Y104.169 E12.59611
G1 X169.466 Y104.717 E12.6198
G1 X170.218 Y105.718 E12.66144
G1 X170.613 Y106.298 E12.68478
G1 X171.264 Y107.361 E12.72624
G1 X171.607 Y107.988 E12.75001
G1 X172.154 Y109.112 E12.79158
G1 X172.454 Y109.82 E12.81716
G1 X172.679 Y110.556 E12.84276
G1 X172.827 Y111.31 E12.86831
G1 X172.895 Y112.077 E12.89392
G1 X172.883 Y112.846 E12.9195
G1 X172.792 Y113.609 E12.94506
G1 X172.622 Y114.359 E12.97064
G1 X172.375 Y115.088 E12.99624
G1 X172.054 Y115.787 E13.02182
G1 X171.661 Y116.448 E13.0474
G1 X171.203 Y117.066 E13.07298
G1 X170.803 Y117.501 E13.09264
G1 X170.97 Y117.666 E13.10045
G1 X171.458 Y118.261 E13.12604
G1 X171.881 Y118.903 E13.15161
G1 X172.236 Y119.586 E13.17721
G1 X172.517 Y120.301 E13.20277
G1 X172.723 Y121.043 E13.22838
G1 X172.851 Y121.801 E13.25395
G1 X172.9 Y122.569 E13.27954
G1 X172.868 Y123.337 E13.30511
G1 X172.757 Y124.098 E13.33069
G1 X172.567 Y124.844 E13.35629
G1 X172.154 Y125.888 E13.39363
G1 X171.607 Y127.012 E13.43521
G1 X171.264 Y127.639 E13.45898
G1 X170.613 Y128.702 E13.50044
G1 X170.219 Y129.281 E13.52373
G1 X169.468 Y130.281 E13.56533
G1 X169.013 Y130.83 E13.58904
G1 X168.171 Y131.751 E13.63055
G1 X167.671 Y132.248 E13.654
G1 X166.745 Y133.085 E13.69551
G1 X166.197 Y133.534 E13.71907
G1 X165.192 Y134.281 E13.76072
G1 X164.606 Y134.675 E13.78421
G1 X163.539 Y135.32 E13.82568
G1 X162.911 Y135.659 E13.84941
G1 X161.785 Y136.199 E13.89095
G1 X161.14 Y136.472 E13.91425
G1 X159.966 Y136.904 E13.95585
G1 X159.287 Y137.117 E13.97952
G1 X158.081 Y137.433 E14.02099
G1 X157.388 Y137.58 E14.04455
G1 X156.153 Y137.78 E14.08616
G1 X155.456 Y137.859 E14.10949
G1 X154.211 Y137.941 E14.15099
G1 X153.494 Y137.953 E14.17484
G1 X152.246 Y137.914 E14.21637
G1 X151.547 Y137.859 E14.23969
G1 X150.308 Y137.702 E14.28123
G1 X149.605 Y137.579 E14.30497
G1 X148.385 Y137.303 E14.34657
G1 X147.713 Y137.117 E14.36976
G1 X146.526 Y136.728 E14.41131
G1 X145.857 Y136.472 E14.43513
G1 X144.713 Y135.97 E14.47668
G1 X144.078 Y135.654 E14.50027
G1 X142.988 Y135.045 E14.5418
G1 X142.39 Y134.673 E14.56522
G1 X141.364 Y133.964 E14.6067
G1 X140.804 Y133.536 E14.63015
G1 X139.847 Y132.73 E14.67176
G1 X139.324 Y132.244 E14.69551
G1 X138.988 Y131.9 E14.7115
G1 X89.238 Y131.901 E16.36619
G1 X88.683 Y132.271 E16.38838
G1 X87.98 Y132.686 E16.41553
G1 X86.998 Y133.194 E16.4523
G1 X86.252 Y133.529 E16.4795
G1 X85.216 Y133.927 E16.51642
G1 X84.439 Y134.177 E16.54356
G1 X83.371 Y134.457 E16.58029
G1 X82.569 Y134.621 E16.60751
G1 X81.472 Y134.782 E16.64439
G1 X80.652 Y134.856 E16.67177
G1 X79.548 Y134.894 E16.70852
G1 X78.731 Y134.877 E16.73569
G1 X77.628 Y134.793 E16.77249
G1 X76.809 Y134.684 E16.79997
G1 X75.719 Y134.477 E16.83687
G1 X74.939 Y134.285 E16.86359
G1 X73.881 Y133.962 E16.90038
G1 X73.099 Y133.674 E16.9281
G1 X72.084 Y133.234 E16.96489
G1 X71.356 Y132.869 E16.99198
G1 X70.397 Y132.321 E17.02871
G1 X69.712 Y131.878 E17.05585
G1 X68.818 Y131.227 E17.09263
G1 X68.177 Y130.703 E17.12017
G1 X67.359 Y129.954 E17.15705
G1 X66.797 Y129.38 E17.18377
G1 X66.066 Y128.548 E17.22061
G1 X65.553 Y127.893 E17.24828
G1 X64.922 Y126.987 E17.285
G1 X64.491 Y126.29 E17.31226
G1 X63.962 Y125.316 E17.34912
G1 X63.616 Y124.586 E17.37599
G1 X63.197 Y123.562 E17.41279
G1 X62.928 Y122.782 E17.44024
G1 X62.626 Y121.719 E17.47699
G1 X62.446 Y120.919 E17.50426
G1 X62.263 Y119.826 E17.54112
G1 X62.172 Y119.013 E17.56833
G1 X62.111 Y117.91 E17.60507
G1 X62.111 Y117.093 E17.63225
G1 X62.172 Y115.988 E17.66906
G1 X62.263 Y115.174 E17.6963
G1 X62.446 Y114.081 E17.73316
G1 X62.627 Y113.274 E17.76067
G1 X62.93 Y112.211 E17.79743
G1 X63.196 Y111.443 E17.82446
G1 X63.614 Y110.419 E17.86125
G1 X63.958 Y109.692 E17.888
G1 X64.486 Y108.717 E17.92488
G1 X64.926 Y108.004 E17.95274
G1 X65.558 Y107.099 E17.98946
G1 X66.066 Y106.452 E18.01682
G1 X66.797 Y105.62 E18.05365
G1 X67.359 Y105.046 E18.08037
G1 X68.177 Y104.297 E18.11726
G1 X68.818 Y103.773 E18.1448
G1 X69.712 Y103.122 E18.18158
G0 F6000 X69.947 Y103.445
G1 F1200 X70.595 Y103.026 E18.20725
G1 X71.554 Y102.478 E18.24398
G1 X72.243 Y102.133 E18.26961
G1 X73.258 Y101.693 E18.30641
G1 X73.998 Y101.421 E18.33263
G1 X75.056 Y101.098 E18.36942
G1 X75.794 Y100.916 E18.3947
G1 X76.884 Y100.709 E18.4316
G1 X77.658 Y100.606 E18.45757
G1 X78.761 Y100.522 E18.49437
G1 X79.534 Y100.506 E18.52008
G1 X80.638 Y100.544 E18.55682
G1 X81.413 Y100.614 E18.5827
G1 X82.51 Y100.775 E18.61958
G1 X83.269 Y100.93 E18.64535
G1 X84.337 Y101.21 E18.68207
G1 X85.072 Y101.447 E18.70775
G1 X86.108 Y101.845 E18.74467
G1 X86.814 Y102.162 E18.77041
G1 X87.794 Y102.669 E18.80711
G1 X88.454 Y103.057 E18.83257
G1 X89.12 Y103.5 E18.85917
G1 X139.158 Y103.499 E20.52345
G1 X139.61 Y103.037 E20.54494
G1 X140.103 Y102.578 E20.56735
G1 X141.059 Y101.772 E20.60894
G1 X141.591 Y101.365 E20.63121
G1 X142.617 Y100.656 E20.67269
G1 X143.183 Y100.304 E20.69486
G1 X144.273 Y99.695 E20.73639
G1 X144.874 Y99.396 E20.75872
G1 X146.018 Y98.894 E20.80027
G1 X146.651 Y98.652 E20.82281
G1 X147.838 Y98.263 E20.86436
G1 X148.473 Y98.088 E20.88626
G1 X149.693 Y97.812 E20.92787
G1 X150.358 Y97.695 E20.95032
G1 X151.597 Y97.538 E20.99186
G1 X152.258 Y97.485 E21.01392
G1 X153.506 Y97.446 E21.05545
G1 X154.185 Y97.458 E21.07803
G1 X155.43 Y97.54 E21.11953
G1 X156.089 Y97.615 E21.14159
G1 X157.324 Y97.815 E21.1832
G1 X157.979 Y97.954 E21.20547
G1 X159.185 Y98.27 E21.24694
G1 X159.828 Y98.472 E21.26936
G1 X161.002 Y98.904 E21.31096
G1 X161.612 Y99.161 E21.33298
G1 X162.738 Y99.701 E21.37451
G1 X163.332 Y100.022 E21.39697
G1 X164.399 Y100.667 E21.43844
G1 X164.953 Y101.039 E21.46063
G1 X165.957 Y101.785 E21.50224
G1 X166.476 Y102.211 E21.52457
G1 X167.401 Y103.047 E21.56604
G1 X167.873 Y103.517 E21.58819
G1 X168.716 Y104.439 E21.62974
G1 X169.147 Y104.958 E21.65218
G1 X169.899 Y105.959 E21.69382
G1 X170.271 Y106.507 E21.71585
G1 X170.922 Y107.57 E21.75731
G1 X171.247 Y108.163 E21.7798
G1 X171.794 Y109.287 E21.82138
G1 X172.085 Y109.976 E21.84626
G1 X172.301 Y110.692 E21.87113
G1 X172.439 Y111.428 E21.89604
G1 X172.498 Y112.173 E21.92089
G1 X172.477 Y112.921 E21.94578
G1 X172.376 Y113.662 E21.97065
G1 X172.197 Y114.389 E21.99556
G1 X171.941 Y115.092 E22.02044
G1 X171.611 Y115.763 E22.04531
G1 X171.212 Y116.396 E22.0702
G1 X170.748 Y116.982 E22.09506
G1 X170.239 Y117.501 E22.11924
G1 X170.263 Y117.521 E22.12028
G1 X170.784 Y118.058 E22.14516
G1 X171.243 Y118.648 E22.17002
G1 X171.638 Y119.284 E22.19493
G1 X171.962 Y119.958 E22.2198
G1 X172.212 Y120.663 E22.24468
G1 X172.386 Y121.391 E22.26957
G1 X172.481 Y122.133 E22.29445
G1 X172.496 Y122.881 E22.31934
G1 X172.432 Y123.626 E22.34421
G1 X172.288 Y124.36 E22.36909
G1 X172.067 Y125.075 E22.39398
G1 X171.794 Y125.713 E22.41706
G1 X171.247 Y126.837 E22.45863
G1 X170.922 Y127.43 E22.48113
G1 X170.271 Y128.493 E22.52258
G1 X169.899 Y129.041 E22.54461
G1 X169.148 Y130.041 E22.58621
G1 X168.717 Y130.56 E22.60865
G1 X167.875 Y131.481 E22.65015
G1 X167.403 Y131.951 E22.67231
G1 X166.477 Y132.788 E22.71382
G1 X165.959 Y133.213 E22.73611
G1 X164.954 Y133.96 E22.77776
G1 X164.399 Y134.333 E22.8
G1 X163.332 Y134.978 E22.84147
G1 X162.738 Y135.299 E22.86392
G1 X161.612 Y135.839 E22.90546
G1 X161.002 Y136.096 E22.92747
G1 X159.828 Y136.528 E22.96908
G1 X159.185 Y136.73 E22.9915
G1 X157.979 Y137.046 E23.03296
G1 X157.324 Y137.185 E23.05523
G1 X156.089 Y137.385 E23.09684
G1 X155.43 Y137.46 E23.1189
G1 X154.185 Y137.542 E23.1604
G1 X153.506 Y137.554 E23.18299
G1 X152.258 Y137.515 E23.22452
G1 X151.597 Y137.462 E23.24657
G1 X150.358 Y137.305 E23.28811
G1 X149.693 Y137.188 E23.31057
G1 X148.473 Y136.912 E23.35217
G1 X147.838 Y136.737 E23.37408
G1 X146.651 Y136.348 E23.41563
G1 X146.018 Y136.106 E23.43817
G1 X144.874 Y135.604 E23.47972
G1 X144.273 Y135.305 E23.50205
G1 X143.183 Y134.696 E23.54357
G1 X142.617 Y134.344 E23.56574
G1 X141.591 Y133.635 E23.60722
G1 X141.062 Y133.23 E23.62938
G1 X140.105 Y132.424 E23.671
G1 X139.61 Y131.964 E23.69347
G1 X139.156 Y131.5 E23.71506
G1 X89.117 Y131.501 E25.37937
