;FLAVOR:Marlin
;TIME:8843
;Filament used: 6.71035m
;Layer height: 0.2
;MINX:49.08
;MINY:78.321
;MINZ:0.2
;MAXX:144.88
;MAXY:123.321
;MAXZ:14.6
;Generated with Cura_SteamEngine 4.10.0
M140 S60
M105
M190 S60
M104 S205
M105
M109 S205
M82 ;absolute extrusion mode
; Ender 3 Custom Start G-code
G92 E0 ; Reset Extruder
G28 ; Home all axes
G1 Z2.0 F3000 ; Move Z Axis up little to prevent scratching of Heat Bed
G1 X0.1 Y20 Z0.3 F5000.0 ; Move to start position
G1 X0.1 Y200.0 Z0.3 F1500.0 E15 ; Draw the first line
G1 X0.4 Y200.0 Z0.3 F5000.0 ; Move to side a little
G1 X0.4 Y20 Z0.3 F1500.0 E30 ; Draw the second line
G92 E0 ; Reset Extruder
G1 Z2.0 F3000 ; Move Z Axis up little to prevent scratching of Heat Bed
G1 X5 Y20 Z0.3 F5000.0 ; Move over to prevent blob squish
G92 E0
G92 E0
G1 F2700 E-5
;LAYER_COUNT:74
;LAYER:0
M107
G0 F6000 X52.704 Y79.609 Z0.2
;TYPE:SKIRT
G1 F2700 E0
G1 F1200 X53.384 Y79.208 E0.02626
G1 X54.102 Y78.878 E0.05254
G1 X54.849 Y78.623 E0.07879
G1 X55.618 Y78.444 E0.10505
G1 X56.402 Y78.344 E0.13134
G1 X56.997 Y78.321 E0.15114
G1 X136.963 Y78.321 E2.81082
G1 X137.752 Y78.361 E2.8371
G1 X138.532 Y78.48 E2.86334
G1 X139.297 Y78.678 E2.88963
G1 X140.037 Y78.952 E2.91587
G1 X140.746 Y79.3 E2.94214
G1 X141.417 Y79.718 E2.96843
G1 X142.041 Y80.201 E2.99468
G1 X142.478 Y80.606 E3.0145
G1 X142.595 Y80.723 E3.02
G1 X143.125 Y81.309 E3.04628
G1 X143.592 Y81.945 E3.07252
G1 X143.993 Y82.625 E3.09878
G1 X144.323 Y83.343 E3.12506
G1 X144.578 Y84.09 E3.15131
G1 X144.757 Y84.859 E3.17758
G1 X144.857 Y85.643 E3.20386
G1 X144.88 Y86.238 E3.22367
G1 X144.88 Y115.404 E4.19373
G1 X144.84 Y116.193 E4.22001
G1 X144.721 Y116.973 E4.24625
G1 X144.523 Y117.738 E4.27253
G1 X144.249 Y118.478 E4.29878
G1 X143.901 Y119.187 E4.32505
G1 X143.483 Y119.858 E4.35134
G1 X143 Y120.482 E4.37759
G1 X142.595 Y120.919 E4.3974
G1 X142.478 Y121.036 E4.40291
G1 X141.892 Y121.566 E4.42919
G1 X141.256 Y122.033 E4.45543
G1 X140.576 Y122.434 E4.48169
G1 X139.858 Y122.764 E4.50797
G1 X139.111 Y123.019 E4.53422
G1 X138.342 Y123.198 E4.56048
G1 X137.558 Y123.298 E4.58677
G1 X136.963 Y123.321 E4.60658
G1 X56.997 Y123.321 E7.26626
G1 X56.208 Y123.281 E7.29253
G1 X55.428 Y123.162 E7.31877
G1 X54.663 Y122.964 E7.34506
G1 X53.923 Y122.69 E7.3713
G1 X53.214 Y122.342 E7.39757
G1 X52.543 Y121.924 E7.42386
G1 X51.919 Y121.441 E7.45011
G1 X51.482 Y121.036 E7.46993
G1 X51.365 Y120.919 E7.47543
G1 X50.835 Y120.333 E7.50171
G1 X50.368 Y119.697 E7.52795
G1 X49.967 Y119.017 E7.55421
G1 X49.637 Y118.299 E7.58049
G1 X49.382 Y117.552 E7.60675
G1 X49.203 Y116.783 E7.63301
G1 X49.103 Y115.999 E7.65929
G1 X49.08 Y115.404 E7.6791
G1 X49.08 Y86.238 E8.64916
G1 X49.12 Y85.449 E8.67544
G1 X49.239 Y84.669 E8.70168
G1 X49.437 Y83.904 E8.72796
G1 X49.711 Y83.164 E8.75421
G1 X50.059 Y82.455 E8.78048
G1 X50.477 Y81.784 E8.80677
G1 X50.96 Y81.16 E8.83302
G1 X51.365 Y80.723 E8.85283
G1 X51.482 Y80.606 E8.85834
G1 X52.068 Y80.076 E8.88462
G1 X52.704 Y79.609 E8.91086
G0 F6000 X52.958 Y79.921
G1 F1200 X53.623 Y79.535 E8.93644
G1 X54.325 Y79.22 E8.96203
G1 X55.056 Y78.98 E8.98762
G1 X55.807 Y78.817 E9.01318
G1 X56.572 Y78.733 E9.03877
G1 X56.997 Y78.721 E9.05291
G1 X136.963 Y78.721 E11.71259
G1 X137.731 Y78.761 E11.73817
G1 X138.491 Y78.88 E11.76376
G1 X139.234 Y79.078 E11.78933
G1 X139.953 Y79.352 E11.81493
G1 X140.639 Y79.699 E11.84049
G1 X141.286 Y80.115 E11.86608
G1 X141.886 Y80.596 E11.89166
G1 X142.196 Y80.888 E11.90582
G1 X142.313 Y81.005 E11.91132
G1 X142.827 Y81.577 E11.9369
G1 X143.28 Y82.199 E11.96249
G1 X143.666 Y82.864 E11.98807
G1 X143.981 Y83.566 E12.01366
G1 X144.221 Y84.297 E12.03925
G1 X144.384 Y85.048 E12.06481
G1 X144.468 Y85.813 E12.09041
G1 X144.48 Y86.238 E12.10455
G1 X144.48 Y115.404 E13.07461
G1 X144.44 Y116.172 E13.10019
G1 X144.321 Y116.932 E13.12578
G1 X144.123 Y117.675 E13.15135
G1 X143.849 Y118.394 E13.17694
G1 X143.502 Y119.08 E13.20251
G1 X143.086 Y119.727 E13.2281
G1 X142.605 Y120.327 E13.25367
G1 X142.313 Y120.637 E13.26784
G1 X142.196 Y120.754 E13.27334
G1 X141.624 Y121.268 E13.29892
G1 X141.002 Y121.721 E13.32451
G1 X140.337 Y122.107 E13.35008
G1 X139.635 Y122.422 E13.37568
G1 X138.904 Y122.662 E13.40127
G1 X138.153 Y122.825 E13.42683
G1 X137.388 Y122.909 E13.45242
G1 X136.963 Y122.921 E13.46656
G1 X56.997 Y122.921 E16.12624
G1 X56.229 Y122.881 E16.15182
G1 X55.469 Y122.762 E16.17741
G1 X54.726 Y122.564 E16.20298
G1 X54.007 Y122.29 E16.22857
G1 X53.321 Y121.943 E16.25414
G1 X52.674 Y121.527 E16.27973
G1 X52.074 Y121.046 E16.3053
G1 X51.764 Y120.754 E16.31947
G1 X51.647 Y120.637 E16.32497
G1 X51.133 Y120.065 E16.35055
G1 X50.68 Y119.443 E16.37614
G1 X50.294 Y118.778 E16.40172
G1 X49.979 Y118.076 E16.42731
G1 X49.739 Y117.345 E16.4529
G1 X49.576 Y116.594 E16.47846
G1 X49.492 Y115.829 E16.50406
G1 X49.48 Y115.404 E16.5182
G1 X49.48 Y86.238 E17.48826
G1 X49.52 Y85.47 E17.51384
G1 X49.639 Y84.71 E17.53943
G1 X49.837 Y83.967 E17.565
G1 X50.111 Y83.248 E17.59059
G1 X50.458 Y82.562 E17.61616
G1 X50.874 Y81.915 E17.64174
G1 X51.355 Y81.315 E17.66732
G1 X51.647 Y81.005 E17.68149
G1 X51.764 Y80.888 E17.68699
G1 X52.336 Y80.374 E17.71257
G1 X52.958 Y79.921 E17.73816
G0 F6000 X53.21 Y80.234
G1 F1200 X53.86 Y79.863 E17.76305
G1 X54.546 Y79.564 E17.78794
G1 X55.26 Y79.34 E17.81283
G1 X55.993 Y79.193 E17.8377
G1 X56.997 Y79.121 E17.87118
G1 X136.963 Y79.121 E20.53086
G1 X137.71 Y79.161 E20.55574
G1 X138.448 Y79.28 E20.5806
G1 X139.17 Y79.478 E20.6055
G1 X139.866 Y79.751 E20.63037
G1 X140.529 Y80.098 E20.65525
G1 X141.152 Y80.513 E20.68015
G1 X141.913 Y81.171 E20.71361
G1 X142.03 Y81.288 E20.71912
G1 X142.53 Y81.845 E20.74401
G1 X142.967 Y82.451 E20.76886
G1 X143.338 Y83.101 E20.79375
G1 X143.637 Y83.787 E20.81864
G1 X143.861 Y84.501 E20.84353
G1 X144.008 Y85.234 E20.8684
G1 X144.08 Y86.238 E20.90188
G1 X144.08 Y115.404 E21.87194
G1 X144.04 Y116.151 E21.89682
G1 X143.921 Y116.889 E21.92169
G1 X143.723 Y117.611 E21.94659
G1 X143.45 Y118.307 E21.97145
G1 X143.103 Y118.97 E21.99634
G1 X142.688 Y119.593 E22.02124
G1 X142.03 Y120.354 E22.0547
G1 X141.913 Y120.471 E22.0602
G1 X141.356 Y120.971 E22.0851
G1 X140.75 Y121.408 E22.10995
G1 X140.1 Y121.779 E22.13484
G1 X139.414 Y122.078 E22.15973
G1 X138.7 Y122.302 E22.18462
G1 X137.967 Y122.449 E22.20948
G1 X136.963 Y122.521 E22.24296
G1 X56.997 Y122.521 E24.90264
G1 X56.25 Y122.481 E24.92752
G1 X55.512 Y122.362 E24.95239
G1 X54.79 Y122.164 E24.97729
G1 X54.094 Y121.891 E25.00215
G1 X53.431 Y121.544 E25.02704
G1 X52.808 Y121.129 E25.05194
G1 X52.047 Y120.471 E25.0854
G1 X51.93 Y120.354 E25.0909
G1 X51.43 Y119.797 E25.1158
G1 X50.993 Y119.191 E25.14065
G1 X50.622 Y118.541 E25.16554
G1 X50.323 Y117.855 E25.19043
G1 X50.099 Y117.141 E25.21532
G1 X49.952 Y116.408 E25.24018
G1 X49.88 Y115.404 E25.27366
G1 X49.88 Y86.238 E26.24373
G1 X49.92 Y85.491 E26.26861
G1 X50.039 Y84.753 E26.29347
G1 X50.237 Y84.031 E26.31837
G1 X50.51 Y83.335 E26.34324
G1 X50.857 Y82.672 E26.36813
G1 X51.272 Y82.049 E26.39303
G1 X51.93 Y81.288 E26.42649
G1 X52.047 Y81.171 E26.43199
G1 X52.604 Y80.671 E26.45688
G1 X53.21 Y80.234 E26.48173
G0 F6000 X53.462 Y80.547
G1 F1200 X54.096 Y80.193 E26.50589
G1 X54.765 Y79.91 E26.53005
G1 X55.461 Y79.702 E26.55421
G1 X56.176 Y79.572 E26.57838
G1 X56.997 Y79.521 E26.60574
G1 X136.963 Y79.521 E29.26542
G1 X137.688 Y79.561 E29.28957
G1 X138.405 Y79.68 E29.31374
G1 X139.104 Y79.878 E29.3379
G1 X139.777 Y80.151 E29.36206
G1 X140.416 Y80.496 E29.38621
G1 X141.013 Y80.91 E29.41038
G1 X141.63 Y81.454 E29.43774
G1 X141.747 Y81.571 E29.44324
G1 X142.231 Y82.112 E29.46738
G1 X142.654 Y82.703 E29.49155
G1 X143.008 Y83.337 E29.51571
G1 X143.291 Y84.006 E29.53987
G1 X143.499 Y84.702 E29.56403
G1 X143.629 Y85.417 E29.5882
G1 X143.68 Y86.238 E29.61556
G1 X143.68 Y115.404 E30.58562
G1 X143.64 Y116.129 E30.60977
G1 X143.521 Y116.846 E30.63395
G1 X143.323 Y117.545 E30.65811
G1 X143.05 Y118.218 E30.68227
G1 X142.705 Y118.857 E30.70642
G1 X142.291 Y119.454 E30.73058
G1 X141.747 Y120.071 E30.75794
G1 X141.63 Y120.188 E30.76344
G1 X141.089 Y120.672 E30.78759
G1 X140.498 Y121.095 E30.81176
G1 X139.864 Y121.449 E30.83591
G1 X139.195 Y121.732 E30.86007
G1 X138.499 Y121.94 E30.88423
G1 X137.784 Y122.07 E30.9084
G1 X136.963 Y122.121 E30.93576
G1 X56.997 Y122.121 E33.59544
G1 X56.272 Y122.081 E33.61959
G1 X55.555 Y121.962 E33.64377
G1 X54.856 Y121.764 E33.66793
G1 X54.183 Y121.491 E33.69209
G1 X53.544 Y121.146 E33.71624
G1 X52.947 Y120.732 E33.7404
G1 X52.33 Y120.188 E33.76776
G1 X52.213 Y120.071 E33.77326
G1 X51.729 Y119.53 E33.79741
G1 X51.306 Y118.939 E33.82158
G1 X50.952 Y118.305 E33.84573
G1 X50.669 Y117.636 E33.86989
G1 X50.461 Y116.94 E33.89405
G1 X50.331 Y116.225 E33.91822
G1 X50.28 Y115.404 E33.94558
G1 X50.28 Y86.238 E34.91565
G1 X50.32 Y85.513 E34.9398
G1 X50.439 Y84.796 E34.96397
G1 X50.637 Y84.097 E34.98814
G1 X50.91 Y83.424 E35.01229
G1 X51.255 Y82.785 E35.03644
G1 X51.669 Y82.188 E35.06061
G1 X52.213 Y81.571 E35.08797
G1 X52.33 Y81.454 E35.09347
G1 X52.871 Y80.97 E35.11761
G1 X53.462 Y80.547 E35.14179
G0 F6000 X53.713 Y80.862
G1 F1200 X54.331 Y80.524 E35.16521
G1 X54.982 Y80.257 E35.18862
G1 X55.66 Y80.067 E35.21204
G1 X56.355 Y79.954 E35.23546
G1 X56.997 Y79.921 E35.25684
G1 X136.963 Y79.921 E37.91652
G1 X137.666 Y79.961 E37.93994
G1 X138.36 Y80.08 E37.96336
G1 X139.035 Y80.278 E37.98675
G1 X139.684 Y80.55 E38.01016
G1 X140.298 Y80.895 E38.03358
G1 X140.869 Y81.306 E38.05698
G1 X141.347 Y81.737 E38.07839
G1 X141.464 Y81.854 E38.08389
G1 X141.933 Y82.379 E38.10731
G1 X142.339 Y82.954 E38.13072
G1 X142.677 Y83.572 E38.15415
G1 X142.944 Y84.223 E38.17755
G1 X143.134 Y84.901 E38.20097
G1 X143.247 Y85.596 E38.22439
G1 X143.28 Y86.238 E38.24577
G1 X143.28 Y115.404 E39.21583
G1 X143.24 Y116.107 E39.23925
G1 X143.121 Y116.801 E39.26267
G1 X142.923 Y117.476 E39.28607
G1 X142.651 Y118.125 E39.30947
G1 X142.306 Y118.739 E39.3329
G1 X141.895 Y119.31 E39.3563
G1 X141.464 Y119.788 E39.37771
G1 X141.347 Y119.905 E39.38321
G1 X140.822 Y120.374 E39.40662
G1 X140.247 Y120.78 E39.43003
G1 X139.629 Y121.118 E39.45346
G1 X138.978 Y121.385 E39.47687
G1 X138.3 Y121.575 E39.50028
G1 X137.605 Y121.688 E39.5237
G1 X136.963 Y121.721 E39.54509
G1 X56.997 Y121.721 E42.20477
G1 X56.294 Y121.681 E42.22819
G1 X55.6 Y121.562 E42.2516
G1 X54.925 Y121.364 E42.275
G1 X54.276 Y121.092 E42.29841
G1 X53.662 Y120.747 E42.32183
G1 X53.091 Y120.336 E42.34523
G1 X52.613 Y119.905 E42.36664
G1 X52.496 Y119.788 E42.37214
G1 X52.027 Y119.263 E42.39555
G1 X51.621 Y118.688 E42.41897
G1 X51.283 Y118.07 E42.44239
G1 X51.016 Y117.419 E42.4658
G1 X50.826 Y116.741 E42.48922
G1 X50.713 Y116.046 E42.51264
G1 X50.68 Y115.404 E42.53402
G1 X50.68 Y86.238 E43.50408
G1 X50.72 Y85.535 E43.5275
G1 X50.839 Y84.841 E43.55092
G1 X51.037 Y84.166 E43.57432
G1 X51.309 Y83.517 E43.59772
G1 X51.654 Y82.903 E43.62115
G1 X52.065 Y82.332 E43.64455
G1 X52.496 Y81.854 E43.66595
G1 X52.613 Y81.737 E43.67146
G1 X53.138 Y81.268 E43.69487
G1 X53.713 Y80.862 E43.71828
G0 F6000 X53.963 Y81.178
G1 F1200 X54.563 Y80.856 E43.74093
G1 X55.197 Y80.607 E43.76359
G1 X55.856 Y80.434 E43.78625
G1 X56.53 Y80.34 E43.80888
G1 X56.997 Y80.321 E43.82443
G1 X136.963 Y80.321 E46.48411
G1 X137.643 Y80.361 E46.50676
G1 X138.313 Y80.48 E46.5294
G1 X138.965 Y80.677 E46.55205
G1 X139.589 Y80.949 E46.57469
G1 X140.177 Y81.293 E46.59735
G1 X140.721 Y81.703 E46.62
G1 X141.064 Y82.02 E46.63554
G1 X141.181 Y82.137 E46.64104
G1 X141.634 Y82.646 E46.66371
G1 X142.023 Y83.204 E46.68633
G1 X142.345 Y83.804 E46.70898
G1 X142.594 Y84.438 E46.73163
G1 X142.767 Y85.097 E46.75429
G1 X142.861 Y85.771 E46.77693
G1 X142.88 Y86.238 E46.79247
G1 X142.88 Y115.404 E47.76254
G1 X142.84 Y116.084 E47.78519
G1 X142.721 Y116.754 E47.80783
G1 X142.524 Y117.406 E47.83048
G1 X142.252 Y118.03 E47.85312
G1 X141.908 Y118.618 E47.87578
G1 X141.498 Y119.162 E47.89844
G1 X141.181 Y119.505 E47.91397
G1 X141.064 Y119.622 E47.91947
G1 X140.555 Y120.075 E47.94214
G1 X139.997 Y120.464 E47.96476
G1 X139.397 Y120.786 E47.98741
G1 X138.763 Y121.035 E48.01006
G1 X138.104 Y121.208 E48.03273
G1 X137.43 Y121.302 E48.05536
G1 X136.963 Y121.321 E48.07091
G1 X56.997 Y121.321 E50.73058
G1 X56.317 Y121.281 E50.75324
G1 X55.647 Y121.162 E50.77587
G1 X54.995 Y120.965 E50.79853
G1 X54.371 Y120.693 E50.82117
G1 X53.783 Y120.349 E50.84383
G1 X53.239 Y119.939 E50.86648
G1 X52.896 Y119.622 E50.88202
G1 X52.779 Y119.505 E50.88752
G1 X52.326 Y118.996 E50.91018
G1 X51.937 Y118.438 E50.93281
G1 X51.615 Y117.838 E50.95546
G1 X51.366 Y117.204 E50.97811
G1 X51.193 Y116.545 E51.00077
G1 X51.099 Y115.871 E51.02341
G1 X51.08 Y115.404 E51.03895
G1 X51.08 Y86.238 E52.00902
G1 X51.12 Y85.558 E52.03167
G1 X51.239 Y84.888 E52.05431
G1 X51.436 Y84.236 E52.07696
G1 X51.708 Y83.612 E52.0996
G1 X52.052 Y83.024 E52.12226
G1 X52.462 Y82.48 E52.14491
G1 X52.779 Y82.137 E52.16045
G1 X52.896 Y82.02 E52.16595
G1 X53.405 Y81.567 E52.18862
G1 X53.963 Y81.178 E52.21124
G0 F6000 X54.212 Y81.495
G1 F1200 X54.794 Y81.191 E52.23308
G1 X55.409 Y80.96 E52.25493
G1 X56.048 Y80.805 E52.2768
G1 X56.997 Y80.721 E52.30849
G1 X136.963 Y80.721 E54.96817
G1 X137.619 Y80.761 E54.99002
G1 X138.265 Y80.88 E55.01187
G1 X138.892 Y81.077 E55.03373
G1 X139.49 Y81.349 E55.05558
G1 X140.051 Y81.691 E55.07743
G1 X140.781 Y82.303 E55.10912
G1 X140.898 Y82.42 E55.11462
G1 X141.334 Y82.912 E55.13649
G1 X141.706 Y83.453 E55.15832
G1 X142.01 Y84.035 E55.18016
G1 X142.241 Y84.65 E55.20201
G1 X142.396 Y85.289 E55.22388
G1 X142.48 Y86.238 E55.25557
G1 X142.48 Y115.404 E56.22563
G1 X142.44 Y116.06 E56.24749
G1 X142.321 Y116.706 E56.26934
G1 X142.124 Y117.333 E56.2912
G1 X141.852 Y117.931 E56.31305
G1 X141.51 Y118.492 E56.3349
G1 X140.898 Y119.222 E56.36659
G1 X140.781 Y119.339 E56.37209
G1 X140.289 Y119.775 E56.39396
G1 X139.748 Y120.147 E56.41579
G1 X139.166 Y120.451 E56.43763
G1 X138.551 Y120.682 E56.45948
G1 X137.912 Y120.837 E56.48135
G1 X136.963 Y120.921 E56.51304
G1 X56.997 Y120.921 E59.17272
G1 X56.341 Y120.881 E59.19458
G1 X55.695 Y120.762 E59.21643
G1 X55.068 Y120.565 E59.23828
G1 X54.47 Y120.293 E59.26013
G1 X53.909 Y119.951 E59.28199
G1 X53.179 Y119.339 E59.31367
G1 X53.062 Y119.222 E59.31917
G1 X52.626 Y118.73 E59.34104
G1 X52.254 Y118.189 E59.36288
G1 X51.95 Y117.607 E59.38472
G1 X51.719 Y116.992 E59.40657
G1 X51.564 Y116.353 E59.42844
G1 X51.48 Y115.404 E59.46012
G1 X51.48 Y86.238 E60.43019
G1 X51.52 Y85.582 E60.45205
G1 X51.639 Y84.936 E60.47389
G1 X51.836 Y84.309 E60.49575
G1 X52.108 Y83.711 E60.5176
G1 X52.45 Y83.15 E60.53946
G1 X53.062 Y82.42 E60.57114
G1 X53.179 Y82.303 E60.57664
G1 X53.671 Y81.867 E60.59851
G1 X54.212 Y81.495 E60.62035
G0 F6000 X54.459 Y81.813
G1 F1200 X55.023 Y81.527 E60.64138
G1 X55.618 Y81.315 E60.66239
G1 X56.236 Y81.179 E60.68343
G1 X56.997 Y81.121 E60.70882
G1 X136.963 Y81.121 E63.3685
G1 X137.594 Y81.161 E63.38953
G1 X138.215 Y81.28 E63.41056
G1 X138.815 Y81.477 E63.43156
G1 X139.387 Y81.748 E63.45261
G1 X139.919 Y82.088 E63.47361
G1 X140.499 Y82.585 E63.49902
G1 X140.616 Y82.702 E63.50452
G1 X141.033 Y83.177 E63.52554
G1 X141.388 Y83.7 E63.54657
G1 X141.674 Y84.264 E63.5676
G1 X141.886 Y84.859 E63.58861
G1 X142.022 Y85.477 E63.60966
G1 X142.08 Y86.238 E63.63504
G1 X142.08 Y115.404 E64.6051
G1 X142.04 Y116.035 E64.62613
G1 X141.921 Y116.656 E64.64716
G1 X141.724 Y117.256 E64.66817
G1 X141.453 Y117.828 E64.68922
G1 X141.113 Y118.36 E64.71022
G1 X140.616 Y118.94 E64.73562
G1 X140.499 Y119.057 E64.74113
G1 X140.024 Y119.474 E64.76215
G1 X139.501 Y119.829 E64.78317
G1 X138.937 Y120.115 E64.80421
G1 X138.342 Y120.327 E64.82522
G1 X137.724 Y120.463 E64.84626
G1 X136.963 Y120.521 E64.87165
G1 X56.997 Y120.521 E67.53133
G1 X56.366 Y120.481 E67.55236
G1 X55.745 Y120.362 E67.57339
G1 X55.145 Y120.165 E67.59439
G1 X54.573 Y119.894 E67.61544
G1 X54.041 Y119.554 E67.63644
G1 X53.461 Y119.057 E67.66185
G1 X53.344 Y118.94 E67.66735
G1 X52.927 Y118.465 E67.68837
G1 X52.572 Y117.942 E67.7094
G1 X52.286 Y117.378 E67.73043
G1 X52.074 Y116.783 E67.75144
G1 X51.938 Y116.165 E67.77248
G1 X51.88 Y115.404 E67.79787
G1 X51.88 Y86.238 E68.76793
G1 X51.92 Y85.607 E68.78896
G1 X52.039 Y84.986 E68.80999
