;FLAVOR:Marlin
;TIME:1814
;Filament used: 0.794807m
;Layer height: 0.2
;MINX:97.529
;MINY:96.24
;MINZ:0.2
;MAXX:137.471
;MAXY:138.768
;MAXZ:5
;Generated with Cura_SteamEngine 4.11.0
M140 S60
M105
M190 S60
M104 S220
M105
M109 S220
M82 ;absolute extrusion mode
; Ender 3 Custom Start G-code
G92 E0 ; Reset Extruder
G28 ; Home all axes
G1 Z2.0 F3000 ; Move Z Axis up little to prevent scratching of Heat Bed
G1 X0.1 Y20 Z0.3 F5000.0 ; Move to start position
G1 X0.1 Y200.0 Z0.3 F1500.0 E15 ; Draw the first line
G1 X0.4 Y200.0 Z0.3 F5000.0 ; Move to side a little
G1 X0.4 Y20 Z0.3 F1500.0 E30 ; Draw the second line
G92 E0 ; Reset Extruder
G1 Z2.0 F3000 ; Move Z Axis up little to prevent scratching of Heat Bed
G1 X5 Y20 Z0.3 F5000.0 ; Move over to prevent blob squish
G92 E0
G92 E0
;LAYER_COUNT:25
;LAYER:0
M107
G0 F6000 X100.864 Y98.24 Z0.2
;TYPE:SKIRT
G1 F1200 X101.175 Y97.951 E0.01412
G1 X101.406 Y97.773 E0.02382
G1 X101.632 Y97.615 E0.03299
G1 X101.726 Y97.555 E0.0367
G1 X102.153 Y97.296 E0.05331
G1 X102.488 Y97.13 E0.06575
G1 X102.831 Y96.995 E0.07801
G1 X103.195 Y96.887 E0.09063
G1 X103.234 Y96.879 E0.09196
G1 X103.643 Y96.834 E0.10564
G1 X103.977 Y96.829 E0.11675
G1 X104.399 Y96.864 E0.13084
G1 X104.438 Y96.871 E0.13216
G1 X104.816 Y96.974 E0.14519
G1 X105.133 Y97.092 E0.15644
G1 X105.405 Y97.215 E0.16637
G1 X105.433 Y97.23 E0.16742
G1 X105.762 Y97.446 E0.18051
G1 X106.009 Y97.642 E0.191
G1 X106.225 Y97.838 E0.2007
G1 X106.364 Y97.988 E0.2075
G1 X106.659 Y98.332 E0.22258
G1 X107.141 Y98.882 E0.2469
G1 X107.571 Y99.347 E0.26796
G1 X107.897 Y99.669 E0.2832
G1 X108.135 Y99.89 E0.29401
G1 X108.336 Y100.06 E0.30276
G1 X108.534 Y100.216 E0.31115
G1 X108.723 Y100.354 E0.31893
G1 X110.971 Y101.824 E0.40827
G1 X111.631 Y102.244 E0.43429
G1 X111.781 Y102.348 E0.44036
G1 X112.031 Y102.538 E0.4508
G1 X112.369 Y102.856 E0.46624
G1 X112.589 Y103.112 E0.47746
G1 X112.861 Y103.511 E0.49352
G1 X112.877 Y103.541 E0.49465
G1 X113.01 Y103.841 E0.50557
G1 X113.111 Y104.126 E0.51563
G1 X113.21 Y104.515 E0.52898
G1 X113.217 Y104.559 E0.53046
G1 X113.239 Y105.052 E0.54687
G1 X113.217 Y105.381 E0.55784
G1 X113.17 Y105.711 E0.56892
G1 X113.105 Y105.95 E0.57716
G1 X112.957 Y106.399 E0.59289
G1 X112.823 Y106.744 E0.6052
G1 X112.672 Y107.076 E0.61733
G1 X112.616 Y107.189 E0.62152
G1 X112.457 Y107.488 E0.63279
G1 X112.332 Y107.696 E0.64086
G1 X112.158 Y107.923 E0.65037
G1 X111.965 Y108.144 E0.66013
G1 X111.667 Y108.427 E0.6738
G1 X111.639 Y108.449 E0.67498
G1 X111.319 Y108.658 E0.68769
G1 X111.037 Y108.809 E0.69833
G1 X110.636 Y108.975 E0.71277
G1 X110.603 Y108.985 E0.71392
G1 X110.239 Y109.063 E0.7263
G1 X109.944 Y109.1 E0.73619
G1 X109.67 Y109.117 E0.74532
G1 X109.643 Y109.117 E0.74621
G1 X109.243 Y109.08 E0.75958
G1 X108.956 Y109.027 E0.76928
G1 X108.613 Y108.935 E0.78109
G1 X108.351 Y108.841 E0.79035
G1 X108.172 Y108.767 E0.79679
G1 X107.923 Y108.652 E0.80592
G1 X107.678 Y108.522 E0.81514
G1 X106.527 Y107.837 E0.85969
G1 X106.106 Y107.581 E0.87608
G1 X105.779 Y107.968 E0.89293
G1 X105.406 Y108.399 E0.91189
G1 X105.257 Y108.569 E0.91941
G1 X105.294 Y113.101 E1.07015
G1 X105.287 Y113.459 E1.08206
G1 X105.293 Y114.166 E1.10557
G1 X105.336 Y115.125 E1.1375
G1 X105.438 Y116.359 E1.17868
G1 X105.63 Y117.906 E1.23053
G1 X105.998 Y120.156 E1.30636
G1 X106.366 Y121.983 E1.36835
G1 X106.718 Y123.449 E1.41849
G1 X107.011 Y124.484 E1.45427
G1 X107.3 Y125.384 E1.48571
G1 X107.637 Y126.301 E1.5182
G1 X107.799 Y126.694 E1.53234
G1 X107.974 Y127.044 E1.54536
G1 X108.123 Y127.26 E1.55408
G1 X108.248 Y127.376 E1.55976
G1 X108.476 Y127.545 E1.5692
G1 X108.885 Y127.839 E1.58595
G1 X109.102 Y127.982 E1.59459
G1 X109.246 Y128.068 E1.60017
G1 X109.539 Y128.224 E1.61121
G1 X110.425 Y128.647 E1.64387
G1 X111.674 Y129.213 E1.68947
G1 X112.421 Y129.519 E1.71632
G1 X112.945 Y129.707 E1.73484
G1 X113.476 Y129.875 E1.75336
G1 X113.949 Y130.003 E1.76966
G1 X114.392 Y130.104 E1.78477
G1 X114.891 Y130.196 E1.80165
G1 X115.357 Y130.263 E1.81731
G1 X115.807 Y130.307 E1.83235
G1 X116.282 Y130.336 E1.84818
G1 X116.77 Y130.344 E1.86441
G1 X117.216 Y130.332 E1.87925
G1 X117.719 Y130.298 E1.89602
G1 X118.221 Y130.243 E1.91281
G1 X118.709 Y130.168 E1.92923
G1 X119.256 Y130.061 E1.94777
G1 X119.773 Y129.935 E1.96547
G1 X120.349 Y129.769 E1.98541
G1 X120.945 Y129.569 E2.00632
G1 X121.519 Y129.35 E2.02675
G1 X122.153 Y129.077 E2.04971
G1 X122.835 Y128.75 E2.07487
G1 X123.521 Y128.384 E2.10073
G1 X124.144 Y128.017 E2.12478
G1 X124.834 Y127.575 E2.15203
G1 X125.472 Y127.129 E2.17792
G1 X125.75 Y126.91 E2.18969
G1 X125.979 Y126.698 E2.20007
G1 X126.24 Y126.393 E2.21342
G1 X126.403 Y126.129 E2.22374
G1 X126.541 Y125.778 E2.23629
G1 X126.917 Y124.478 E2.2813
G1 X127.255 Y123.346 E2.32059
G1 X127.624 Y121.939 E2.36897
G1 X128.085 Y119.918 E2.43791
G1 X128.443 Y117.976 E2.50359
G1 X128.713 Y116.119 E2.56601
G1 X128.931 Y114.012 E2.63646
G1 X129.139 Y111.164 E2.73144
G1 X129.204 Y109.18 E2.79746
G1 X129.192 Y107.858 E2.84143
G1 X128.757 Y107.435 E2.86161
G1 X128.566 Y107.264 E2.87014
G1 X128.162 Y107.548 E2.88657
G1 X126.906 Y108.377 E2.93662
G1 X126.579 Y108.555 E2.949
G1 X126.308 Y108.674 E2.95885
G1 X126.039 Y108.772 E2.96837
G1 X125.755 Y108.838 E2.97807
G1 X125.432 Y108.891 E2.98895
G1 X125.166 Y108.918 E2.99785
G1 X124.951 Y108.919 E3.005
G1 X124.594 Y108.902 E3.01688
G1 X124.402 Y108.884 E3.0233
G1 X124.089 Y108.822 E3.03391
G1 X123.756 Y108.73 E3.0454
G1 X123.388 Y108.591 E3.05849
G1 X123.361 Y108.578 E3.05948
G1 X123.104 Y108.433 E3.0693
G1 X122.837 Y108.257 E3.07993
G1 X122.412 Y107.89 E3.09861
G1 X122.35 Y107.821 E3.10169
G1 X122.136 Y107.542 E3.11339
G1 X121.913 Y107.193 E3.12716
G1 X121.688 Y106.814 E3.14182
G1 X121.636 Y106.72 E3.1454
G1 X121.41 Y106.293 E3.16147
G1 X121.267 Y105.96 E3.17352
G1 X121.209 Y105.765 E3.18029
G1 X121.126 Y105.427 E3.19186
G1 X121.066 Y105.024 E3.20541
G1 X121.064 Y104.988 E3.20661
G1 X121.08 Y104.579 E3.22023
G1 X121.123 Y104.252 E3.2312
G1 X121.244 Y103.767 E3.24782
G1 X121.259 Y103.727 E3.24924
G1 X121.411 Y103.404 E3.26112
G1 X121.562 Y103.141 E3.2712
G1 X121.804 Y102.799 E3.28514
G1 X122.024 Y102.578 E3.29551
G1 X122.18 Y102.442 E3.30239
G1 X122.484 Y102.22 E3.31491
G1 X122.962 Y101.929 E3.33353
G1 X123.431 Y101.639 E3.35187
G1 X123.862 Y101.352 E3.36909
G1 X124.334 Y101.012 E3.38844
G1 X124.787 Y100.659 E3.40754
G1 X125.155 Y100.347 E3.42358
G1 X125.518 Y100.017 E3.4399
G1 X125.871 Y99.665 E3.45648
G1 X126.138 Y99.378 E3.46952
G1 X126.429 Y99.039 E3.48438
G1 X126.674 Y98.729 E3.49752
G1 X126.929 Y98.38 E3.5119
G1 X127.232 Y97.928 E3.53
G1 X127.431 Y97.674 E3.54073
G1 X127.689 Y97.39 E3.55349
G1 X127.878 Y97.204 E3.56231
G1 X128.054 Y97.065 E3.56977
G1 X128.286 Y96.899 E3.57926
G1 X128.603 Y96.71 E3.59153
G1 X128.874 Y96.578 E3.60156
G1 X129.215 Y96.446 E3.61372
G1 X129.507 Y96.36 E3.62384
G1 X129.847 Y96.288 E3.6354
G1 X130.126 Y96.252 E3.64476
G1 X130.565 Y96.24 E3.65937
G1 X130.971 Y96.269 E3.6729
G1 X131.499 Y96.372 E3.6908
G1 X131.856 Y96.489 E3.70329
G1 X132.234 Y96.654 E3.71701
G1 X132.576 Y96.852 E3.73015
G1 X132.796 Y96.999 E3.73895
G1 X132.902 Y97.074 E3.74327
G1 X133.149 Y97.261 E3.75358
G1 X133.334 Y97.418 E3.76165
G1 X133.562 Y97.634 E3.77209
G1 X133.851 Y97.969 E3.78681
G1 X134.019 Y98.209 E3.79655
G1 X134.269 Y98.678 E3.81423
G1 X134.286 Y98.722 E3.8158
G1 X134.4 Y99.132 E3.82995
G1 X134.458 Y99.46 E3.84103
G1 X134.489 Y99.953 E3.85746
G1 X134.487 Y99.993 E3.85879
G1 X134.43 Y100.395 E3.8723
G1 X134.359 Y100.692 E3.88245
G1 X134.276 Y100.96 E3.89178
G1 X134.201 Y101.138 E3.89821
G1 X134.04 Y101.479 E3.91075
G1 X133.954 Y101.641 E3.91685
G1 X134.562 Y102.188 E3.94405
G1 X135.633 Y103.124 E3.99136
G1 X135.958 Y103.435 E4.00632
G1 X136.092 Y103.577 E4.01282
G1 X136.285 Y103.799 E4.0226
G1 X136.411 Y103.957 E4.02932
G1 X136.639 Y104.274 E4.04231
G1 X136.785 Y104.507 E4.05145
G1 X136.945 Y104.801 E4.06259
G1 X137.059 Y105.045 E4.07154
G1 X137.181 Y105.354 E4.08259
G1 X137.264 Y105.608 E4.09148
G1 X137.352 Y105.946 E4.1031
G1 X137.407 Y106.232 E4.11278
G1 X137.45 Y106.582 E4.12451
G1 X137.466 Y106.81 E4.13212
G1 X137.471 Y107.084 E4.14123
G1 X137.462 Y107.382 E4.15115
G1 X137.456 Y107.476 E4.15428
G1 X137.38 Y108.357 E4.18369
G1 X137.322 Y109.522 E4.22249
G1 X137.232 Y111.563 E4.29044
G1 X137.064 Y113.901 E4.3684
G1 X136.845 Y116.258 E4.44713
G1 X136.546 Y118.7 E4.52896
G1 X136.534 Y118.785 E4.53181
G1 X136.19 Y120.905 E4.60325
G1 X135.769 Y122.99 E4.67399
G1 X135.752 Y123.069 E4.67668
G1 X135.176 Y125.459 E4.75845
G1 X133.936 Y129.88 E4.91117
G1 X133.89 Y130.024 E4.91619
G1 X133.783 Y130.324 E4.92679
G1 X133.704 Y130.518 E4.93376
G1 X133.587 Y130.768 E4.94294
G1 X133.472 Y130.981 E4.95099
G1 X133.262 Y131.325 E4.96439
G1 X133.068 Y131.604 E4.97569
G1 X132.986 Y131.709 E4.98013
G1 X132.791 Y131.945 E4.99031
G1 X132.67 Y132.08 E4.99634
G1 X132.436 Y132.32 E5.00749
G1 X132.194 Y132.544 E5.01845
G1 X131.543 Y133.101 E5.04695
G1 X130.611 Y133.847 E5.08666
G1 X129.686 Y134.532 E5.12494
G1 X129.614 Y134.584 E5.12789
G1 X128.788 Y135.144 E5.16108
G1 X127.896 Y135.702 E5.19608
G1 X127.816 Y135.75 E5.19918
G1 X127.003 Y136.211 E5.23027
G1 X126.212 Y136.623 E5.25993
G1 X125.581 Y136.926 E5.28321
G1 X125.505 Y136.961 E5.286
G1 X124.796 Y137.268 E5.31169
G1 X124.004 Y137.577 E5.33997
G1 X123.91 Y137.612 E5.3433
G1 X123.222 Y137.844 E5.36745
G1 X122.442 Y138.075 E5.39451
G1 X122.358 Y138.098 E5.39741
G1 X121.587 Y138.291 E5.42384
G1 X120.887 Y138.437 E5.44762
G1 X120.111 Y138.568 E5.4738
G1 X119.329 Y138.666 E5.50001
G1 X119.237 Y138.676 E5.50309
G1 X118.532 Y138.733 E5.52662
G1 X117.719 Y138.766 E5.55368
G1 X117.628 Y138.768 E5.55671
G1 X116.908 Y138.766 E5.58065
G1 X116.814 Y138.764 E5.58378
G1 X116.064 Y138.73 E5.60875
G1 X115.973 Y138.724 E5.61178
G1 X115.214 Y138.658 E5.63712
G1 X115.122 Y138.648 E5.6402
G1 X114.342 Y138.547 E5.66636
G1 X113.496 Y138.403 E5.6949
G1 X113.41 Y138.387 E5.69781
G1 X112.59 Y138.212 E5.7257
G1 X111.626 Y137.968 E5.75878
G1 X111.54 Y137.944 E5.76174
G1 X110.645 Y137.677 E5.79281
G1 X110.556 Y137.648 E5.79592
G1 X109.587 Y137.312 E5.83003
G1 X108.701 Y136.964 E5.86169
G1 X108.61 Y136.926 E5.86497
G1 X107.701 Y136.521 E5.89807
G1 X107.617 Y136.481 E5.90117
G1 X106.701 Y136.026 E5.93518
G1 X106.62 Y135.984 E5.93822
G1 X105.689 Y135.472 E5.97356
G1 X105.603 Y135.422 E5.97687
G1 X104.635 Y134.831 E6.01459
G1 X104.558 Y134.782 E6.01762
G1 X103.551 Y134.107 E6.05795
G1 X103.236 Y133.881 E6.07084
G1 X102.918 Y133.634 E6.08423
G1 X102.848 Y133.577 E6.08724
G1 X102.552 Y133.325 E6.10016
G1 X102.408 Y133.191 E6.10671
G1 X102.19 Y132.969 E6.11706
G1 X102.068 Y132.838 E6.12301
G1 X101.895 Y132.632 E6.13196
G1 X101.769 Y132.466 E6.13889
G1 X101.567 Y132.173 E6.15073
G1 X101.435 Y131.956 E6.15917
G1 X101.281 Y131.666 E6.17009
G1 X101.104 Y131.263 E6.18473
G1 X101.066 Y131.164 E6.18826
G1 X99.704 Y127.334 E6.32346
G1 X99.677 Y127.253 E6.3263
G1 X99.271 Y125.954 E6.37157
G1 X98.859 Y124.417 E6.42449
G1 X98.837 Y124.33 E6.42748
G1 X98.512 Y122.881 E6.47687
G1 X98.495 Y122.797 E6.47972
G1 X98.211 Y121.251 E6.532
G1 X97.949 Y119.443 E6.59276
G1 X97.938 Y119.355 E6.59571
G1 X97.744 Y117.478 E6.65847
G1 X97.737 Y117.395 E6.66125
G1 X97.599 Y115.282 E6.73167
G1 X97.595 Y115.196 E6.73454
G1 X97.529 Y112.623 E6.82014
G1 X97.531 Y112.032 E6.8398
G1 X97.583 Y109.664 E6.91858
G1 X97.581 Y108.549 E6.95566
G1 X97.553 Y107.847 E6.97903
G1 X97.552 Y107.706 E6.98372
G1 X97.561 Y107.333 E6.99613
G1 X97.592 Y107.011 E7.00689
G1 X97.643 Y106.716 E7.01685
G1 X97.709 Y106.441 E7.02625
G1 X97.798 Y106.153 E7.03628
G1 X97.899 Y105.889 E7.04568
G1 X98.042 Y105.576 E7.05713
G1 X98.166 Y105.342 E7.06593
G1 X98.385 Y104.984 E7.07989
G1 X98.587 Y104.691 E7.09173
G1 X98.648 Y104.61 E7.0951
G1 X98.962 Y104.209 E7.11204
G1 X99.025 Y104.132 E7.11535
G1 X99.338 Y103.769 E7.13129
G1 X99.687 Y103.392 E7.14838
G1 X100.498 Y102.561 E7.187
G1 X100.366 Y102.354 E7.19517
G1 X100.231 Y102.109 E7.20447
G1 X100.143 Y101.93 E7.2111
G1 X100.037 Y101.642 E7.22131
G1 X99.947 Y101.333 E7.23202
G1 X99.875 Y100.983 E7.2439
G1 X99.871 Y100.95 E7.24501
G1 X99.86 Y100.541 E7.25861
G1 X99.882 Y100.206 E7.26978
G1 X99.931 Y99.865 E7.28124
G1 X99.938 Y99.834 E7.2823
G1 X100.083 Y99.405 E7.29736
G1 X100.21 Y99.127 E7.30752
G1 X100.38 Y98.821 E7.31917
G1 X100.398 Y98.794 E7.32024
G1 X100.59 Y98.546 E7.33068
G1 X100.864 Y98.24 E7.34434
G0 F6000 X101.162 Y98.507
G1 F1200 X101.419 Y98.268 E7.35601
G1 X101.65 Y98.09 E7.36571
G1 X101.857 Y97.946 E7.3741
G1 X101.933 Y97.897 E7.3771
G1 X102.36 Y97.638 E7.39371
G1 X102.635 Y97.502 E7.40392
G1 X102.978 Y97.367 E7.41618
G1 X103.275 Y97.279 E7.42648
G1 X103.314 Y97.271 E7.42781
G1 X103.649 Y97.234 E7.43902
G1 X103.983 Y97.229 E7.45013
G1 X104.328 Y97.257 E7.46164
G1 X104.367 Y97.264 E7.46296
G1 X104.677 Y97.349 E7.47365
G1 X104.994 Y97.467 E7.4849
G1 X105.244 Y97.582 E7.49405
G1 X105.513 Y97.759 E7.50476
G1 X105.76 Y97.955 E7.51525
G1 X105.99 Y98.171 E7.52574
G1 X106.06 Y98.248 E7.5292
G1 X106.343 Y98.578 E7.54366
G1 X106.832 Y99.136 E7.56834
G1 X107.302 Y99.643 E7.59133
G1 X107.612 Y99.95 E7.60584
G1 X107.875 Y100.194 E7.61778
G1 X108.082 Y100.37 E7.62681
G1 X108.278 Y100.524 E7.6351
G1 X108.509 Y100.692 E7.6446
G1 X110.756 Y102.161 E7.73389
G1 X111.416 Y102.581 E7.75991
G1 X111.539 Y102.667 E7.76491
G1 X111.789 Y102.857 E7.77535
G1 X112.065 Y103.117 E7.78796
G1 X112.285 Y103.373 E7.79919
G1 X112.508 Y103.699 E7.81232
G1 X112.524 Y103.729 E7.81346
G1 X112.633 Y103.975 E7.8224
G1 X112.734 Y104.26 E7.83246
G1 X112.815 Y104.578 E7.84338
G1 X112.822 Y104.622 E7.84486
G1 X112.84 Y105.025 E7.85827
G1 X112.818 Y105.354 E7.86924
G1 X112.779 Y105.624 E7.87832
G1 X112.726 Y105.824 E7.8852
G1 X112.578 Y106.273 E7.90092
G1 X112.452 Y106.594 E7.91239
G1 X112.309 Y106.909 E7.9239
G1 X112.263 Y107.001 E7.92732
G1 X112.104 Y107.3 E7.93858
G1 X111.857 Y107.66 E7.9531
G1 X111.664 Y107.881 E7.96286
G1 X111.42 Y108.112 E7.97404
G1 X111.392 Y108.134 E7.97522
G1 X111.13 Y108.306 E7.98565
G1 X110.848 Y108.457 E7.99628
G1 X110.52 Y108.593 E8.00809
G1 X110.487 Y108.603 E8.00924
G1 X110.189 Y108.666 E8.01937
G1 X109.894 Y108.703 E8.02926
G1 X109.643 Y108.717 E8.03762
G1 X109.316 Y108.687 E8.04854
G1 X109.029 Y108.634 E8.05825
G1 X108.748 Y108.558 E8.06793
G1 X108.486 Y108.464 E8.07719
G1 X108.339 Y108.404 E8.08247
G1 X108.09 Y108.289 E8.09159
G1 X107.843 Y108.155 E8.10094
G1 X106.735 Y107.496 E8.14382
G1 X106.019 Y107.061 E8.17168
G1 X105.476 Y107.707 E8.19975
G1 X105.16 Y108.074 E8.21586
G1 X104.913 Y108.341 E8.22796
G1 X104.857 Y108.526 E8.23438
G1 X104.894 Y113.093 E8.38629
G1 X104.887 Y113.451 E8.3982
G1 X104.893 Y114.187 E8.42268
G1 X104.936 Y115.149 E8.45471
G1 X105.039 Y116.392 E8.49619
G1 X105.234 Y117.97 E8.54907
G1 X105.602 Y120.211 E8.62461
G1 X105.978 Y122.082 E8.68808
G1 X106.33 Y123.549 E8.73826
G1 X106.63 Y124.606 E8.7748
G1 X106.925 Y125.526 E8.80694
G1 X107.249 Y126.406 E8.83813
G1 X107.286 Y126.501 E8.84152
G1 X107.43 Y126.848 E8.85401
G1 X107.626 Y127.243 E8.86868
G1 X107.793 Y127.492 E8.87865
G1 X107.99 Y127.682 E8.88776
G1 X108.216 Y127.851 E8.89714
G1 X108.648 Y128.161 E8.91483
G1 X108.91 Y128.333 E8.92525
G1 X109.048 Y128.416 E8.93061
G1 X109.348 Y128.576 E8.94192
G1 X110.272 Y129.017 E8.97597
G1 X111.515 Y129.581 E9.02137
G1 X112.262 Y129.886 E9.0482
G1 X112.838 Y130.094 E9.06857
G1 X113.342 Y130.253 E9.08615
G1 X113.835 Y130.386 E9.10313
G1 X114.348 Y130.504 E9.12064
G1 X114.807 Y130.588 E9.13616
G1 X115.308 Y130.66 E9.153
G1 X115.771 Y130.705 E9.16847
G1 X116.275 Y130.736 E9.18526
G1 X116.773 Y130.744 E9.20183
G1 X117.23 Y130.732 E9.21703
G1 X117.767 Y130.696 E9.23494
G1 X118.257 Y130.642 E9.25133
G1 X118.796 Y130.559 E9.26947
G1 X119.34 Y130.452 E9.28791
G1 X119.86 Y130.326 E9.30571
G1 X120.468 Y130.151 E9.32675
G1 X121.075 Y129.947 E9.34805
G1 X121.692 Y129.712 E9.37001
G1 X122.315 Y129.443 E9.39258
G1 X123.008 Y129.111 E9.41814
G1 X123.707 Y128.739 E9.44447
G1 X124.372 Y128.347 E9.47015
G1 X125.051 Y127.911 E9.49698
G1 X125.706 Y127.454 E9.52355
G1 X126.004 Y127.219 E9.53617
G1 X126.255 Y126.987 E9.54754
