;FLAVOR:Marlin
;TIME:693
;Filament used: 0.321148m
;Layer height: 0.2
;MINX:97.529
;MINY:96.237
;MINZ:0.2
;MAXX:137.471
;MAXY:138.768
;MAXZ:2
;Generated with Cura_SteamEngine 4.11.0
M140 S60
M105
M190 S60
M104 S220
M105
M109 S220
M82 ;absolute extrusion mode
; Ender 3 Custom Start G-code
G92 E0 ; Reset Extruder
G28 ; Home all axes
G1 Z2.0 F3000 ; Move Z Axis up little to prevent scratching of Heat Bed
G1 X0.1 Y20 Z0.3 F5000.0 ; Move to start position
G1 X0.1 Y200.0 Z0.3 F1500.0 E15 ; Draw the first line
G1 X0.4 Y200.0 Z0.3 F5000.0 ; Move to side a little
G1 X0.4 Y20 Z0.3 F1500.0 E30 ; Draw the second line
G92 E0 ; Reset Extruder
G1 Z2.0 F3000 ; Move Z Axis up little to prevent scratching of Heat Bed
G1 X5 Y20 Z0.3 F5000.0 ; Move over to prevent blob squish
G92 E0
G92 E0
;LAYER_COUNT:10
;LAYER:0
M107
G0 F6000 X100.88 Y98.224 Z0.2
;TYPE:SKIRT
G1 F1200 X101.173 Y97.954 E0.01325
G1 X101.403 Y97.776 E0.02293
G1 X101.632 Y97.615 E0.03224
G1 X101.728 Y97.554 E0.03602
G1 X102.156 Y97.295 E0.05266
G1 X102.457 Y97.143 E0.06387
G1 X102.763 Y97.017 E0.07488
G1 X103.016 Y96.93 E0.08378
G1 X103.045 Y96.922 E0.08478
G1 X103.498 Y96.847 E0.10005
G1 X103.831 Y96.827 E0.11115
G1 X104.206 Y96.836 E0.12362
G1 X104.242 Y96.84 E0.12483
G1 X104.62 Y96.917 E0.13766
G1 X104.902 Y97 E0.14743
G1 X105.198 Y97.11 E0.15794
G1 X105.222 Y97.121 E0.15882
G1 X105.5 Y97.274 E0.16937
G1 X105.738 Y97.428 E0.1788
G1 X106.062 Y97.683 E0.19251
G1 X106.369 Y97.993 E0.20702
G1 X106.643 Y98.315 E0.22109
G1 X107.115 Y98.854 E0.24491
G1 X107.582 Y99.359 E0.26779
G1 X107.896 Y99.67 E0.28249
G1 X108.134 Y99.89 E0.29327
G1 X108.336 Y100.061 E0.30207
G1 X108.723 Y100.354 E0.31822
G1 X110.971 Y101.824 E0.40755
G1 X111.631 Y102.244 E0.43357
G1 X111.777 Y102.345 E0.43948
G1 X112.011 Y102.522 E0.44924
G1 X112.205 Y102.687 E0.45771
G1 X112.338 Y102.824 E0.46406
G1 X112.537 Y103.046 E0.47397
G1 X112.765 Y103.348 E0.48656
G1 X112.785 Y103.38 E0.48781
G1 X112.962 Y103.729 E0.50083
G1 X113.074 Y104.009 E0.51086
G1 X113.192 Y104.414 E0.52489
G1 X113.2 Y104.456 E0.52631
G1 X113.239 Y104.883 E0.54057
G1 X113.237 Y105.175 E0.55029
G1 X113.215 Y105.471 E0.56016
G1 X113.211 Y105.499 E0.5611
G1 X113.149 Y105.789 E0.57096
G1 X113.061 Y106.099 E0.58168
G1 X112.997 Y106.292 E0.58844
G1 X112.834 Y106.713 E0.60346
G1 X112.784 Y106.831 E0.60772
G1 X112.677 Y107.066 E0.61631
G1 X112.632 Y107.158 E0.61972
G1 X112.496 Y107.423 E0.62962
G1 X112.322 Y107.707 E0.6407
G1 X112.211 Y107.852 E0.64677
G1 X111.996 Y108.108 E0.65789
G1 X111.714 Y108.388 E0.67111
G1 X111.685 Y108.412 E0.67236
G1 X111.32 Y108.657 E0.68698
G1 X111.036 Y108.809 E0.6977
G1 X110.694 Y108.956 E0.71008
G1 X110.661 Y108.967 E0.71124
G1 X110.241 Y109.063 E0.72557
G1 X109.948 Y109.1 E0.73539
G1 X109.672 Y109.117 E0.74459
G1 X109.645 Y109.117 E0.74548
G1 X109.248 Y109.081 E0.75874
G1 X108.959 Y109.028 E0.76851
G1 X108.613 Y108.935 E0.78043
G1 X108.351 Y108.841 E0.78969
G1 X108.172 Y108.767 E0.79613
G1 X107.923 Y108.652 E0.80525
G1 X107.678 Y108.522 E0.81448
G1 X106.527 Y107.837 E0.85903
G1 X106.106 Y107.581 E0.87542
G1 X105.779 Y107.968 E0.89227
G1 X105.406 Y108.399 E0.91122
G1 X105.257 Y108.569 E0.91874
G1 X105.294 Y113.101 E1.06948
G1 X105.287 Y113.459 E1.08139
G1 X105.293 Y114.166 E1.10491
G1 X105.336 Y115.125 E1.13684
G1 X105.438 Y116.359 E1.17802
G1 X105.63 Y117.906 E1.22987
G1 X105.998 Y120.156 E1.3057
G1 X106.366 Y121.983 E1.36768
G1 X106.718 Y123.449 E1.41783
G1 X107.011 Y124.484 E1.45361
G1 X107.3 Y125.384 E1.48505
G1 X107.637 Y126.301 E1.51754
G1 X107.799 Y126.694 E1.53168
G1 X107.974 Y127.044 E1.54469
G1 X108.127 Y127.264 E1.55361
G1 X108.237 Y127.367 E1.55862
G1 X108.478 Y127.547 E1.56862
G1 X108.882 Y127.836 E1.58514
G1 X109.12 Y127.993 E1.59463
G1 X109.239 Y128.064 E1.59924
G1 X109.539 Y128.224 E1.61054
G1 X110.425 Y128.647 E1.6432
G1 X111.674 Y129.213 E1.68881
G1 X112.421 Y129.519 E1.71566
G1 X112.945 Y129.707 E1.73417
G1 X113.476 Y129.875 E1.7527
G1 X113.949 Y130.003 E1.76899
G1 X114.392 Y130.104 E1.78411
G1 X114.891 Y130.196 E1.80098
G1 X115.357 Y130.263 E1.81664
G1 X115.807 Y130.307 E1.83168
G1 X116.282 Y130.336 E1.84751
G1 X116.77 Y130.344 E1.86374
G1 X117.216 Y130.332 E1.87858
G1 X117.719 Y130.298 E1.89535
G1 X118.221 Y130.243 E1.91215
G1 X118.709 Y130.168 E1.92857
G1 X119.256 Y130.061 E1.94711
G1 X119.773 Y129.935 E1.9648
G1 X120.349 Y129.769 E1.98474
G1 X120.945 Y129.569 E2.00565
G1 X121.519 Y129.35 E2.02608
G1 X122.153 Y129.077 E2.04904
G1 X122.835 Y128.75 E2.0742
G1 X123.521 Y128.384 E2.10006
G1 X124.146 Y128.016 E2.12418
G1 X124.834 Y127.575 E2.15136
G1 X125.472 Y127.129 E2.17725
G1 X125.75 Y126.91 E2.18903
G1 X125.979 Y126.698 E2.1994
G1 X126.24 Y126.393 E2.21276
G1 X126.403 Y126.129 E2.22308
G1 X126.541 Y125.778 E2.23562
G1 X126.917 Y124.478 E2.28063
G1 X127.255 Y123.346 E2.31992
G1 X127.624 Y121.939 E2.3683
G1 X128.085 Y119.918 E2.43725
G1 X128.443 Y117.976 E2.50293
G1 X128.713 Y116.119 E2.56534
G1 X128.931 Y114.012 E2.63579
G1 X129.139 Y111.164 E2.73077
G1 X129.204 Y109.18 E2.7968
G1 X129.192 Y107.858 E2.84077
G1 X128.758 Y107.437 E2.86088
G1 X128.566 Y107.264 E2.86947
G1 X128.162 Y107.548 E2.8859
G1 X126.895 Y108.384 E2.93639
G1 X126.629 Y108.534 E2.94654
G1 X126.407 Y108.628 E2.95456
G1 X126.029 Y108.764 E2.96792
G1 X125.794 Y108.834 E2.97608
G1 X125.404 Y108.895 E2.98921
G1 X125.054 Y108.918 E3.00087
G1 X124.635 Y108.906 E3.01482
G1 X124.302 Y108.864 E3.02598
G1 X123.998 Y108.804 E3.03628
G1 X123.819 Y108.748 E3.04252
G1 X123.519 Y108.641 E3.05312
G1 X123.223 Y108.51 E3.06388
G1 X123.193 Y108.494 E3.06501
G1 X122.866 Y108.281 E3.07799
G1 X122.649 Y108.11 E3.08718
G1 X122.346 Y107.82 E3.10113
G1 X122.327 Y107.798 E3.1021
G1 X122.143 Y107.552 E3.11232
G1 X121.913 Y107.193 E3.1265
G1 X121.688 Y106.814 E3.14116
G1 X121.634 Y106.717 E3.14485
G1 X121.409 Y106.29 E3.1609
G1 X121.297 Y106.043 E3.16992
G1 X121.211 Y105.773 E3.17935
G1 X121.128 Y105.44 E3.19076
G1 X121.066 Y105.021 E3.20485
G1 X121.064 Y104.982 E3.20615
G1 X121.085 Y104.542 E3.2208
G1 X121.14 Y104.176 E3.23311
G1 X121.258 Y103.724 E3.24865
G1 X121.272 Y103.687 E3.24996
G1 X121.485 Y103.267 E3.26563
G1 X121.654 Y103.007 E3.27594
G1 X121.915 Y102.679 E3.28988
G1 X122.11 Y102.5 E3.29869
G1 X122.25 Y102.386 E3.30469
G1 X122.497 Y102.211 E3.31476
G1 X122.978 Y101.919 E3.33347
G1 X123.431 Y101.639 E3.35119
G1 X123.862 Y101.353 E3.36839
G1 X124.334 Y101.012 E3.38776
G1 X124.787 Y100.659 E3.40686
G1 X125.154 Y100.348 E3.42286
G1 X125.52 Y100.015 E3.43932
G1 X125.871 Y99.665 E3.4558
G1 X126.138 Y99.378 E3.46884
G1 X126.429 Y99.039 E3.4837
G1 X126.674 Y98.729 E3.49684
G1 X126.929 Y98.38 E3.51122
G1 X127.232 Y97.928 E3.52932
G1 X127.429 Y97.675 E3.53998
G1 X127.682 Y97.396 E3.55251
G1 X127.823 Y97.254 E3.55916
G1 X128.036 Y97.078 E3.56835
G1 X128.269 Y96.909 E3.57793
G1 X128.624 Y96.699 E3.59165
G1 X128.947 Y96.547 E3.60352
G1 X129.318 Y96.412 E3.61665
G1 X129.611 Y96.334 E3.62674
G1 X129.871 Y96.281 E3.63556
G1 X130.042 Y96.262 E3.64128
G1 X130.397 Y96.237 E3.65312
G1 X130.843 Y96.251 E3.66796
G1 X131.15 Y96.292 E3.67826
G1 X131.438 Y96.35 E3.68803
G1 X131.637 Y96.413 E3.69498
G1 X131.988 Y96.542 E3.70741
G1 X132.411 Y96.752 E3.72312
G1 X132.75 Y96.968 E3.73649
G1 X132.899 Y97.071 E3.74252
G1 X133.153 Y97.264 E3.75313
G1 X133.337 Y97.421 E3.76117
G1 X133.576 Y97.648 E3.77213
G1 X133.781 Y97.872 E3.78223
G1 X133.932 Y98.081 E3.79081
G1 X134.093 Y98.335 E3.80081
G1 X134.301 Y98.757 E3.81646
G1 X134.316 Y98.798 E3.81791
G1 X134.43 Y99.261 E3.83377
G1 X134.471 Y99.566 E3.84401
G1 X134.488 Y99.978 E3.85772
G1 X134.486 Y100.015 E3.85895
G1 X134.425 Y100.422 E3.87264
G1 X134.356 Y100.702 E3.88223
G1 X134.277 Y100.956 E3.89108
G1 X134.204 Y101.13 E3.89736
G1 X134.042 Y101.475 E3.91003
G1 X133.954 Y101.641 E3.91628
G1 X134.562 Y102.188 E3.94348
G1 X135.633 Y103.124 E3.99079
G1 X135.958 Y103.435 E4.00575
G1 X136.092 Y103.577 E4.01225
G1 X136.285 Y103.799 E4.02203
G1 X136.411 Y103.957 E4.02875
G1 X136.639 Y104.274 E4.04174
G1 X136.785 Y104.507 E4.05089
G1 X136.945 Y104.801 E4.06202
G1 X137.059 Y105.045 E4.07098
G1 X137.181 Y105.354 E4.08203
G1 X137.264 Y105.608 E4.09091
G1 X137.352 Y105.946 E4.10253
G1 X137.407 Y106.232 E4.11222
G1 X137.45 Y106.582 E4.12395
G1 X137.466 Y106.81 E4.13155
G1 X137.471 Y107.084 E4.14066
G1 X137.462 Y107.382 E4.15058
G1 X137.456 Y107.476 E4.15371
G1 X137.38 Y108.357 E4.18312
G1 X137.322 Y109.522 E4.22192
G1 X137.232 Y111.563 E4.28987
G1 X137.064 Y113.901 E4.36783
G1 X136.845 Y116.258 E4.44656
G1 X136.546 Y118.7 E4.52839
G1 X136.534 Y118.785 E4.53125
G1 X136.19 Y120.905 E4.60268
G1 X135.769 Y122.99 E4.67343
G1 X135.752 Y123.069 E4.67611
G1 X135.176 Y125.459 E4.75788
G1 X133.917 Y129.942 E4.91275
G1 X133.847 Y130.15 E4.92005
G1 X133.707 Y130.507 E4.93281
G1 X133.608 Y130.724 E4.94074
G1 X133.483 Y130.963 E4.94971
G1 X133.394 Y131.117 E4.95563
G1 X133.245 Y131.353 E4.96491
G1 X133.064 Y131.609 E4.97534
G1 X132.986 Y131.709 E4.97956
G1 X132.79 Y131.946 E4.98979
G1 X132.67 Y132.08 E4.99577
G1 X132.436 Y132.32 E5.00692
G1 X132.194 Y132.544 E5.01789
G1 X131.543 Y133.101 E5.04638
G1 X130.611 Y133.847 E5.08609
G1 X129.686 Y134.532 E5.12437
G1 X129.614 Y134.584 E5.12732
G1 X128.788 Y135.144 E5.16052
G1 X127.896 Y135.702 E5.19551
G1 X127.816 Y135.75 E5.19861
G1 X127.003 Y136.211 E5.2297
G1 X126.212 Y136.623 E5.25936
G1 X125.581 Y136.926 E5.28264
G1 X125.505 Y136.961 E5.28543
G1 X124.796 Y137.268 E5.31112
G1 X124.004 Y137.577 E5.3394
G1 X123.91 Y137.612 E5.34274
G1 X123.222 Y137.844 E5.36688
G1 X122.442 Y138.075 E5.39394
G1 X122.358 Y138.098 E5.39684
G1 X121.587 Y138.291 E5.42327
G1 X120.887 Y138.437 E5.44706
G1 X120.111 Y138.568 E5.47323
G1 X119.329 Y138.666 E5.49944
G1 X119.237 Y138.676 E5.50252
G1 X118.532 Y138.733 E5.52605
G1 X117.719 Y138.766 E5.55311
G1 X117.628 Y138.768 E5.55614
G1 X116.908 Y138.766 E5.58008
G1 X116.814 Y138.764 E5.58321
G1 X116.064 Y138.73 E5.60818
G1 X115.973 Y138.724 E5.61122
G1 X115.214 Y138.658 E5.63656
G1 X115.122 Y138.648 E5.63963
G1 X114.342 Y138.547 E5.66579
G1 X113.496 Y138.403 E5.69434
G1 X113.41 Y138.387 E5.69724
G1 X112.59 Y138.212 E5.72513
G1 X111.626 Y137.968 E5.75821
G1 X111.54 Y137.944 E5.76118
G1 X110.645 Y137.677 E5.79224
G1 X110.556 Y137.648 E5.79535
G1 X109.587 Y137.312 E5.82947
G1 X108.701 Y136.964 E5.86113
G1 X108.61 Y136.926 E5.86441
G1 X107.701 Y136.521 E5.8975
G1 X107.617 Y136.481 E5.9006
G1 X106.701 Y136.026 E5.93462
G1 X106.62 Y135.984 E5.93765
G1 X105.689 Y135.472 E5.97299
G1 X105.603 Y135.422 E5.9763
G1 X104.635 Y134.831 E6.01402
G1 X104.558 Y134.782 E6.01706
G1 X103.551 Y134.107 E6.05738
G1 X103.236 Y133.881 E6.07027
G1 X102.918 Y133.634 E6.08366
G1 X102.848 Y133.577 E6.08667
G1 X102.552 Y133.325 E6.0996
G1 X102.408 Y133.191 E6.10614
G1 X102.19 Y132.969 E6.11649
G1 X102.068 Y132.838 E6.12244
G1 X101.895 Y132.632 E6.13139
G1 X101.769 Y132.466 E6.13832
G1 X101.567 Y132.173 E6.15016
G1 X101.435 Y131.956 E6.1586
G1 X101.281 Y131.666 E6.16953
G1 X101.104 Y131.263 E6.18417
G1 X101.066 Y131.164 E6.18769
G1 X99.704 Y127.334 E6.32289
G1 X99.677 Y127.253 E6.32573
G1 X99.271 Y125.954 E6.371
G1 X98.859 Y124.417 E6.42392
G1 X98.837 Y124.33 E6.42691
G1 X98.512 Y122.881 E6.4763
G1 X98.495 Y122.797 E6.47915
G1 X98.211 Y121.251 E6.53143
G1 X97.949 Y119.443 E6.59219
G1 X97.938 Y119.355 E6.59514
G1 X97.744 Y117.478 E6.65791
G1 X97.737 Y117.395 E6.66068
G1 X97.599 Y115.282 E6.7311
G1 X97.595 Y115.196 E6.73397
G1 X97.529 Y112.623 E6.81957
G1 X97.531 Y112.032 E6.83923
G1 X97.583 Y109.664 E6.91801
G1 X97.581 Y108.532 E6.95566
G1 X97.55 Y107.75 E6.98169
G1 X97.551 Y107.554 E6.98821
G1 X97.566 Y107.255 E6.99817
G1 X97.598 Y106.974 E7.00757
G1 X97.65 Y106.686 E7.01731
G1 X97.714 Y106.425 E7.02625
G1 X97.799 Y106.151 E7.03579
G1 X97.899 Y105.889 E7.04511
G1 X98.042 Y105.576 E7.05656
G1 X98.166 Y105.343 E7.06534
G1 X98.386 Y104.983 E7.07937
G1 X98.583 Y104.696 E7.09095
G1 X98.648 Y104.608 E7.09459
G1 X98.962 Y104.208 E7.1115
G1 X99.288 Y103.826 E7.1282
G1 X99.336 Y103.771 E7.13063
G1 X99.686 Y103.392 E7.14779
G1 X100.105 Y102.961 E7.16778
G1 X100.501 Y102.559 E7.18655
G1 X100.453 Y102.49 E7.18935
G1 X100.266 Y102.172 E7.20162
G1 X100.056 Y101.694 E7.21898
G1 X99.954 Y101.357 E7.23069
G1 X99.881 Y101.023 E7.24206
G1 X99.876 Y100.987 E7.24327
G1 X99.857 Y100.59 E7.25649
G1 X99.87 Y100.287 E7.26658
G1 X99.923 Y99.891 E7.27987
G1 X99.931 Y99.856 E7.28106
G1 X100.077 Y99.426 E7.29617
G1 X100.227 Y99.1 E7.3081
G1 X100.406 Y98.785 E7.32015
G1 X100.425 Y98.757 E7.32128
G1 X100.62 Y98.509 E7.33177
G1 X100.88 Y98.224 E7.3446
G0 F6000 X101.175 Y98.494
G1 F1200 X101.417 Y98.271 E7.35555
G1 X101.647 Y98.093 E7.36522
G1 X101.857 Y97.946 E7.37375
G1 X101.935 Y97.896 E7.37683
G1 X102.363 Y97.637 E7.39347
G1 X102.61 Y97.513 E7.40266
G1 X102.916 Y97.387 E7.41367
G1 X103.151 Y97.308 E7.42191
G1 X103.522 Y97.246 E7.43442
G1 X103.855 Y97.226 E7.44552
G1 X104.162 Y97.234 E7.45573
G1 X104.198 Y97.238 E7.45694
G1 X104.507 Y97.3 E7.46742
G1 X104.789 Y97.383 E7.4772
G1 X105.031 Y97.474 E7.4858
G1 X105.055 Y97.485 E7.48667
G1 X105.283 Y97.61 E7.49532
G1 X105.521 Y97.764 E7.50475
G1 X105.785 Y97.973 E7.51595
G1 X106.065 Y98.253 E7.52912
G1 X106.343 Y98.579 E7.54337
G1 X106.832 Y99.137 E7.56805
G1 X107.301 Y99.643 E7.59099
G1 X107.626 Y99.965 E7.60621
G1 X107.862 Y100.183 E7.6169
G1 X108.086 Y100.374 E7.62669
G1 X108.27 Y100.518 E7.63446
G1 X108.509 Y100.692 E7.64429
G1 X110.756 Y102.161 E7.73358
G1 X111.416 Y102.581 E7.7596
G1 X111.536 Y102.664 E7.76445
G1 X111.77 Y102.841 E7.77421
G1 X112.04 Y103.091 E7.78645
G1 X112.239 Y103.313 E7.79637
G1 X112.425 Y103.56 E7.80665
G1 X112.445 Y103.592 E7.80791
G1 X112.59 Y103.877 E7.81854
G1 X112.702 Y104.157 E7.82857
G1 X112.799 Y104.489 E7.84008
G1 X112.807 Y104.531 E7.8415
G1 X112.839 Y104.88 E7.85315
G1 X112.837 Y105.172 E7.86287
G1 X112.815 Y105.443 E7.87191
G1 X112.765 Y105.68 E7.87997
G1 X112.677 Y105.99 E7.89068
G1 X112.624 Y106.148 E7.89623
G1 X112.461 Y106.569 E7.91124
G1 X112.42 Y106.665 E7.91471
G1 X112.313 Y106.9 E7.9233
G1 X112.14 Y107.241 E7.93602
G1 X111.998 Y107.473 E7.94507
G1 X111.904 Y107.595 E7.95019
G1 X111.689 Y107.851 E7.96131
G1 X111.459 Y108.08 E7.9721
G1 X111.43 Y108.104 E7.97336
G1 X111.131 Y108.304 E7.98532
G1 X110.847 Y108.456 E7.99603
G1 X110.567 Y108.577 E8.00618
G1 X110.534 Y108.588 E8.00734
G1 X110.191 Y108.666 E8.01903
G1 X109.898 Y108.703 E8.02886
G1 X109.645 Y108.717 E8.03729
G1 X109.32 Y108.687 E8.04814
G1 X109.031 Y108.634 E8.05791
G1 X108.748 Y108.558 E8.06766
G1 X108.486 Y108.464 E8.07692
G1 X108.339 Y108.404 E8.0822
G1 X108.09 Y108.289 E8.09132
G1 X107.843 Y108.155 E8.10067
G1 X106.735 Y107.496 E8.14354
G1 X106.02 Y107.061 E8.17138
G1 X105.476 Y107.707 E8.19947
G1 X105.16 Y108.074 E8.21558
G1 X104.913 Y108.341 E8.22768
G1 X104.857 Y108.526 E8.2341
G1 X104.894 Y113.093 E8.38601
G1 X104.887 Y113.451 E8.39792
G1 X104.893 Y114.187 E8.4224
G1 X104.936 Y115.149 E8.45443
G1 X105.039 Y116.392 E8.49591
G1 X105.234 Y117.97 E8.54879
G1 X105.602 Y120.211 E8.62433
G1 X105.978 Y122.082 E8.6878
G1 X106.33 Y123.549 E8.73798
G1 X106.63 Y124.606 E8.77452
G1 X106.925 Y125.526 E8.80666
G1 X107.249 Y126.406 E8.83785
G1 X107.286 Y126.501 E8.84124
G1 X107.43 Y126.848 E8.85373
G1 X107.626 Y127.243 E8.8684
G1 X107.794 Y127.492 E8.87839
G1 X107.981 Y127.675 E8.88709
G1 X108.228 Y127.859 E8.89734
G1 X108.646 Y128.159 E8.91445
G1 X108.923 Y128.341 E8.92547
G1 X109.047 Y128.415 E8.93028
G1 X109.348 Y128.576 E8.94163
G1 X110.272 Y129.017 E8.97568
G1 X111.515 Y129.581 E9.02108
G1 X112.262 Y129.886 E9.04792
G1 X112.838 Y130.094 E9.06829
G1 X113.342 Y130.253 E9.08587
G1 X113.835 Y130.386 E9.10285
G1 X114.348 Y130.504 E9.12036
G1 X114.807 Y130.588 E9.13588
G1 X115.308 Y130.66 E9.15271
G1 X115.771 Y130.705 E9.16818
G1 X116.275 Y130.736 E9.18498
G1 X116.773 Y130.744 E9.20154
G1 X117.23 Y130.732 E9.21675
G1 X117.767 Y130.696 E9.23465
G1 X118.257 Y130.642 E9.25105
G1 X118.796 Y130.559 E9.26918
G1 X119.34 Y130.452 E9.28763
G1 X119.86 Y130.326 E9.30542
G1 X120.468 Y130.151 E9.32646
G1 X121.075 Y129.947 E9.34776
G1 X121.692 Y129.712 E9.36972
G1 X122.315 Y129.443 E9.39229
