;FLAVOR:Marlin
;TIME:2338
;Filament used: 2.08081m
;Layer height: 0.3
;MINX:98.156
;MINY:75.71
;MINZ:0.2
;MAXX:136.163
;MAXY:158.153
;MAXZ:14.9
;Generated with Cura_SteamEngine 4.10.0
M140 S60
M105
M190 S60
M104 S205
M105
M109 S205
M82 ;absolute extrusion mode
; Ender 3 Custom Start G-code
G92 E0 ; Reset Extruder
G28 ; Home all axes
G1 Z2.0 F3000 ; Move Z Axis up little to prevent scratching of Heat Bed
G1 X0.1 Y20 Z0.3 F5000.0 ; Move to start position
G1 X0.1 Y200.0 Z0.3 F1500.0 E15 ; Draw the first line
G1 X0.4 Y200.0 Z0.3 F5000.0 ; Move to side a little
G1 X0.4 Y20 Z0.3 F1500.0 E30 ; Draw the second line
G92 E0 ; Reset Extruder
G1 Z2.0 F3000 ; Move Z Axis up little to prevent scratching of Heat Bed
G1 X5 Y20 Z0.3 F5000.0 ; Move over to prevent blob squish
G92 E0
G92 E0
G1 F2700 E-5
;LAYER_COUNT:50
;LAYER:0
M107
G0 F6000 X105.858 Y81.373 Z0.2
;TYPE:SKIRT
G1 F2700 E0
G1 F1200 X106.351 Y80.777 E0.02573
G1 X106.939 Y80.142 E0.05451
G1 X107.485 Y79.614 E0.07977
G1 X108.116 Y79.066 E0.10757
G1 X108.734 Y78.585 E0.13362
G1 X109.443 Y78.093 E0.16232
G1 X110.096 Y77.692 E0.18781
G1 X110.872 Y77.274 E0.21712
G1 X111.573 Y76.946 E0.24286
G1 X112.358 Y76.63 E0.27101
G1 X113.087 Y76.381 E0.29663
G1 X113.908 Y76.149 E0.32501
G1 X114.647 Y75.984 E0.35019
G1 X115.486 Y75.845 E0.37848
G1 X116.269 Y75.758 E0.40468
G1 X117.14 Y75.71 E0.43369
G1 X117.907 Y75.711 E0.4592
G1 X118.77 Y75.76 E0.48795
G1 X119.542 Y75.847 E0.51379
G1 X120.386 Y75.989 E0.54226
G1 X121.135 Y76.158 E0.5678
G1 X121.96 Y76.393 E0.59633
G1 X122.688 Y76.644 E0.62194
G1 X123.484 Y76.968 E0.65053
G1 X124.183 Y77.299 E0.67625
G1 X124.943 Y77.712 E0.70502
G1 X125.594 Y78.114 E0.73047
G1 X126.299 Y78.605 E0.75904
G1 X126.917 Y79.088 E0.78513
G1 X127.557 Y79.647 E0.81339
G1 X128.102 Y80.178 E0.8387
G1 X128.686 Y80.814 E0.86742
G1 X129.178 Y81.413 E0.8932
G1 X129.68 Y82.097 E0.92142
G1 X130.093 Y82.729 E0.94653
G1 X130.32 Y83.097 E0.96091
G1 X132.576 Y87.006 E1.11102
G1 X132.779 Y87.403 E1.12585
G1 X132.805 Y87.438 E1.1273
G1 X133.1 Y87.911 E1.14584
G1 X135.121 Y91.416 E1.28041
G1 X135.481 Y92.119 E1.30668
G1 X135.767 Y92.855 E1.33294
G1 X135.977 Y93.616 E1.3592
G1 X136.11 Y94.395 E1.38549
G1 X136.163 Y95.182 E1.41172
G1 X136.136 Y95.972 E1.43801
G1 X136.03 Y96.754 E1.46426
G1 X135.896 Y97.34 E1.48425
G1 X135.854 Y97.496 E1.48963
G1 X135.61 Y98.247 E1.51589
G1 X135.292 Y98.97 E1.54216
G1 X134.902 Y99.656 E1.56841
G1 X134.445 Y100.3 E1.59467
G1 X133.925 Y100.895 E1.62095
G1 X133.347 Y101.433 E1.64722
G1 X132.719 Y101.911 E1.67347
G1 X132.223 Y102.222 E1.69294
G1 X129.737 Y103.658 E1.78843
G1 X128.924 Y104.067 E1.8187
G1 X128.583 Y104.214 E1.83105
G1 X127.86 Y104.484 E1.85672
G1 X127.816 Y104.498 E1.85825
G1 X126.864 Y104.736 E1.89089
G1 X126.484 Y104.806 E1.90374
G1 X125.724 Y104.908 E1.92924
G1 X124.935 Y104.936 E1.9555
G1 X124.536 Y104.92 E1.96879
G1 X124.156 Y104.895 E1.98145
G1 X123.372 Y104.804 E2.0077
G1 X122.601 Y104.633 E2.03397
G1 X121.851 Y104.385 E2.06024
G1 X121.13 Y104.063 E2.08651
G1 X120.445 Y103.67 E2.11277
G1 X120.203 Y103.496 E2.12269
G1 X119.887 Y103.308 E2.13492
G1 X119.253 Y102.838 E2.16116
G1 X118.521 Y102.151 E2.19455
G1 X118.452 Y102.077 E2.19792
G1 X118.451 Y127.838 E3.05473
G1 X118.467 Y128.092 E3.0632
G1 X118.607 Y128.418 E3.075
G1 X124.68 Y138.944 E3.47919
G1 X124.807 Y139.097 E3.4858
G1 X125.247 Y139.753 E3.51207
G1 X125.561 Y140.351 E3.53454
G1 X125.682 Y140.526 E3.54161
G1 X126.056 Y141.2 E3.56725
G1 X126.433 Y141.894 E3.59352
G1 X126.676 Y142.476 E3.61449
G1 X126.74 Y142.593 E3.61893
G1 X126.85 Y142.852 E3.62829
G1 X126.883 Y142.918 E3.63074
G1 X127.202 Y143.64 E3.657
G1 X127.447 Y144.391 E3.68327
G1 X127.547 Y144.854 E3.69903
G1 X127.768 Y145.583 E3.72436
G1 X127.919 Y146.358 E3.75062
G1 X127.992 Y147.144 E3.77688
G1 X127.989 Y147.417 E3.78596
G1 X128.008 Y147.597 E3.79198
G1 X128.01 Y148.387 E3.81825
G1 X127.933 Y149.172 E3.84449
G1 X127.776 Y149.946 E3.87076
G1 X127.542 Y150.701 E3.89705
G1 X127.199 Y151.496 E3.92584
G1 X127.017 Y151.861 E3.93941
G1 X126.63 Y152.549 E3.96566
G1 X126.026 Y153.378 E3.99978
G1 X125.799 Y153.65 E4.01156
G1 X125.305 Y154.187 E4.03583
G1 X124.435 Y154.938 E4.07406
G1 X124.118 Y155.173 E4.08718
G1 X123.379 Y155.658 E4.11658
G1 X120.878 Y157.105 E4.21268
G1 X120.175 Y157.466 E4.23897
G1 X119.44 Y157.753 E4.26521
G1 X118.679 Y157.965 E4.29149
G1 X117.901 Y158.098 E4.31774
G1 X117.113 Y158.153 E4.34401
G1 X116.324 Y158.127 E4.37027
G1 X115.541 Y158.022 E4.39654
G1 X114.932 Y157.883 E4.41732
G1 X114.777 Y157.841 E4.42266
G1 X114.026 Y157.596 E4.44894
G1 X113.304 Y157.276 E4.4752
G1 X112.618 Y156.885 E4.50147
G1 X111.975 Y156.427 E4.52772
G1 X111.381 Y155.906 E4.554
G1 X110.844 Y155.328 E4.58024
G1 X110.367 Y154.698 E4.60652
G1 X110.062 Y154.212 E4.62561
G1 X108.059 Y150.743 E4.75884
G1 X107.84 Y150.316 E4.7748
G1 X107.515 Y149.801 E4.79506
G1 X100.265 Y137.241 E5.2774
G1 X100.068 Y136.879 E5.29111
G1 X99.69 Y136.136 E5.31884
G1 X99.353 Y135.377 E5.34646
G1 X99.055 Y134.595 E5.37429
G1 X98.806 Y133.823 E5.40127
G1 X98.592 Y133.019 E5.42894
G1 X98.424 Y132.217 E5.4562
G1 X98.294 Y131.385 E5.48421
G1 X98.211 Y130.595 E5.51063
G1 X98.167 Y129.768 E5.53817
G1 X98.156 Y129.354 E5.55195
G1 X98.156 Y98.641 E6.57346
G1 X98.168 Y98.216 E6.58761
G1 X98.214 Y97.374 E6.61565
G1 X98.298 Y96.581 E6.64217
G1 X98.43 Y95.746 E6.67029
G1 X98.603 Y94.935 E6.69787
G1 X98.818 Y94.137 E6.72536
G1 X99.07 Y93.364 E6.7524
G1 X99.371 Y92.582 E6.78027
G1 X99.702 Y91.839 E6.80733
G1 X100.079 Y91.1 E6.83492
G1 X100.272 Y90.745 E6.84836
G1 X104.693 Y83.088 E7.14243
G1 X104.918 Y82.722 E7.15672
G1 X105.338 Y82.079 E7.18227
G1 X105.858 Y81.373 E7.21143
G0 F6000 X106.166 Y81.628
G1 F1200 X106.659 Y81.032 E7.23716
G1 X107.217 Y80.429 E7.26448
G1 X107.763 Y79.901 E7.28974
G1 X108.362 Y79.381 E7.31613
G1 X108.98 Y78.9 E7.34217
G1 X109.653 Y78.434 E7.3694
G1 X110.306 Y78.033 E7.39489
G1 X111.042 Y77.636 E7.4227
G1 X111.743 Y77.308 E7.44844
G1 X112.487 Y77.008 E7.47512
G1 X113.216 Y76.759 E7.50075
G1 X113.995 Y76.54 E7.52766
G1 X114.734 Y76.375 E7.55284
G1 X115.53 Y76.242 E7.57969
G1 X116.313 Y76.155 E7.60589
G1 X117.14 Y76.11 E7.63344
G1 X117.907 Y76.111 E7.65895
G1 X118.726 Y76.158 E7.68623
G1 X119.498 Y76.245 E7.71207
G1 X120.298 Y76.379 E7.73905
G1 X121.047 Y76.548 E7.76459
G1 X121.83 Y76.771 E7.79167
G1 X122.558 Y77.022 E7.81728
G1 X123.313 Y77.33 E7.8444
G1 X124.012 Y77.661 E7.87012
G1 X124.733 Y78.053 E7.89742
G1 X125.384 Y78.455 E7.92287
G1 X126.053 Y78.92 E7.94996
G1 X126.671 Y79.403 E7.97605
G1 X127.278 Y79.934 E8.00288
G1 X127.823 Y80.465 E8.02818
G1 X128.377 Y81.068 E8.05542
G1 X128.869 Y81.667 E8.0812
G1 X129.346 Y82.316 E8.10799
G1 X129.759 Y82.948 E8.1331
G1 X129.973 Y83.297 E8.14672
G1 X132.229 Y87.206 E8.29683
G1 X132.466 Y87.671 E8.31419
G1 X132.754 Y88.111 E8.33168
G1 X134.775 Y91.616 E8.46625
G1 X135.124 Y92.301 E8.49182
G1 X135.4 Y93.019 E8.5174
G1 X135.6 Y93.762 E8.54299
G1 X135.722 Y94.521 E8.56856
G1 X135.764 Y95.289 E8.59414
G1 X135.726 Y96.057 E8.61972
G1 X135.609 Y96.817 E8.64529
G1 X135.51 Y97.236 E8.65961
G1 X135.468 Y97.392 E8.66499
G1 X135.229 Y98.123 E8.69057
G1 X134.916 Y98.826 E8.71616
G1 X134.532 Y99.492 E8.74173
G1 X134.081 Y100.115 E8.76731
G1 X133.567 Y100.688 E8.79291
G1 X132.997 Y101.204 E8.81849
G1 X132.377 Y101.658 E8.84404
G1 X132.023 Y101.876 E8.85787
G1 X129.537 Y103.312 E8.95336
G1 X128.765 Y103.699 E8.98208
G1 X128.424 Y103.846 E8.99443
G1 X127.739 Y104.103 E9.01877
G1 X127.695 Y104.117 E9.0203
G1 X126.792 Y104.343 E9.05126
G1 X126.412 Y104.413 E9.06411
G1 X125.689 Y104.509 E9.08837
G1 X124.562 Y104.521 E9.12586
G1 X124.182 Y104.496 E9.13853
G1 X123.418 Y104.406 E9.16411
G1 X122.668 Y104.237 E9.18968
G1 X121.939 Y103.991 E9.21527
G1 X121.24 Y103.67 E9.24086
G1 X120.578 Y103.279 E9.26643
G1 X120.392 Y103.144 E9.27407
G1 X120.059 Y102.942 E9.28703
G1 X119.446 Y102.478 E9.3126
G1 X118.813 Y101.878 E9.3416
G1 X118.528 Y101.573 E9.35549
G1 X118.288 Y101.364 E9.36607
G1 X118.052 Y101.11 E9.37761
G1 X118.051 Y127.851 E10.26701
G1 X118.072 Y128.162 E10.27738
G1 X118.14 Y128.388 E10.28523
G1 X118.249 Y128.597 E10.29307
G1 X124.354 Y139.179 E10.6994
G1 X124.498 Y139.353 E10.70692
G1 X124.925 Y139.993 E10.7325
G1 X125.227 Y140.573 E10.75425
G1 X125.352 Y140.754 E10.76157
G1 X125.701 Y141.389 E10.78567
G1 X125.725 Y141.425 E10.78711
G1 X126.089 Y142.103 E10.8127
G1 X126.309 Y142.639 E10.83197
G1 X126.389 Y142.785 E10.83751
G1 X126.49 Y143.027 E10.84623
G1 X126.526 Y143.098 E10.84888
G1 X126.836 Y143.802 E10.87447
G1 X127.071 Y144.534 E10.90004
G1 X127.158 Y144.947 E10.91407
G1 X127.385 Y145.698 E10.94017
G1 X127.529 Y146.454 E10.96577
G1 X127.594 Y147.22 E10.99133
G1 X127.609 Y147.638 E11.00525
G1 X127.609 Y148.407 E11.03082
G1 X127.528 Y149.172 E11.05641
G1 X127.368 Y149.925 E11.08201
G1 X127.131 Y150.657 E11.1076
G1 X126.841 Y151.317 E11.13158
G1 X126.659 Y151.682 E11.14515
G1 X126.281 Y152.352 E11.17073
G1 X125.718 Y153.121 E11.20243
G1 X125.491 Y153.393 E11.21422
G1 X125.023 Y153.905 E11.23729
G1 X124.197 Y154.617 E11.27356
G1 X123.88 Y154.852 E11.28668
G1 X123.179 Y155.312 E11.31457
G1 X120.678 Y156.759 E11.41067
G1 X119.993 Y157.109 E11.43626
G1 X119.275 Y157.386 E11.46185
G1 X118.533 Y157.587 E11.48742
G1 X117.774 Y157.71 E11.513
G1 X117.006 Y157.754 E11.53858
G1 X116.238 Y157.717 E11.56415
G1 X115.477 Y157.601 E11.58976
G1 X115.037 Y157.496 E11.6048
G1 X114.882 Y157.454 E11.61014
G1 X114.151 Y157.215 E11.63572
G1 X113.449 Y156.901 E11.6613
G1 X112.783 Y156.516 E11.68689
G1 X112.161 Y156.063 E11.71248
G1 X111.589 Y155.549 E11.73806
G1 X111.074 Y154.978 E11.76363
G1 X110.62 Y154.357 E11.78922
G1 X110.409 Y154.012 E11.80267
G1 X108.406 Y150.543 E11.9359
G1 X108.167 Y150.075 E11.95338
G1 X108.082 Y149.959 E11.95816
G1 X107.861 Y149.601 E11.97216
G1 X100.611 Y137.041 E12.4545
G1 X100.424 Y136.697 E12.46753
G1 X100.046 Y135.954 E12.49525
G1 X99.727 Y135.234 E12.52144
G1 X99.429 Y134.452 E12.54928
G1 X99.193 Y133.72 E12.57486
G1 X98.979 Y132.916 E12.60253
G1 X98.819 Y132.155 E12.6284
G1 X98.689 Y131.323 E12.6564
G1 X98.61 Y130.574 E12.68145
G1 X98.566 Y129.747 E12.709
G1 X98.556 Y129.354 E12.72207
G1 X98.556 Y98.641 E13.74359
G1 X98.567 Y98.237 E13.75704
G1 X98.613 Y97.395 E13.78508
G1 X98.693 Y96.644 E13.8102
G1 X98.825 Y95.809 E13.83832
G1 X98.989 Y95.039 E13.8645
G1 X99.204 Y94.241 E13.89199
G1 X99.443 Y93.508 E13.91763
G1 X99.744 Y92.726 E13.9455
G1 X100.058 Y92.021 E13.97117
G1 X100.435 Y91.282 E13.99877
G1 X100.618 Y90.945 E14.01152
G1 X105.039 Y83.288 E14.3056
G1 X105.253 Y82.941 E14.31915
G1 X105.673 Y82.298 E14.3447
G1 X106.166 Y81.628 E14.37237
G0 F6000 X106.474 Y81.883
G1 F1200 X106.967 Y81.287 E14.39809
G1 X107.495 Y80.717 E14.42393
G1 X108.041 Y80.189 E14.4492
G1 X108.608 Y79.697 E14.47417
G1 X109.226 Y79.216 E14.50021
G1 X109.862 Y78.775 E14.52595
G1 X110.515 Y78.374 E14.55144
G1 X111.211 Y77.999 E14.57774
G1 X111.912 Y77.671 E14.60348
G1 X112.616 Y77.387 E14.62873
G1 X113.345 Y77.138 E14.65435
G1 X114.083 Y76.93 E14.67985
G1 X114.822 Y76.765 E14.70503
G1 X115.574 Y76.64 E14.73039
G1 X116.357 Y76.553 E14.75659
G1 X117.139 Y76.51 E14.78264
G1 X117.906 Y76.511 E14.80815
G1 X118.681 Y76.555 E14.83397
G1 X119.453 Y76.642 E14.85981
G1 X120.21 Y76.77 E14.88534
G1 X120.959 Y76.939 E14.91088
G1 X121.7 Y77.149 E14.9365
G1 X122.428 Y77.4 E14.96211
G1 X123.142 Y77.691 E14.98776
G1 X123.841 Y78.022 E15.01348
G1 X124.523 Y78.393 E15.0393
G1 X125.174 Y78.795 E15.06475
G1 X125.807 Y79.236 E15.09041
G1 X126.425 Y79.719 E15.1165
G1 X126.999 Y80.22 E15.14184
G1 X127.544 Y80.751 E15.16714
G1 X128.068 Y81.322 E15.19292
G1 X128.56 Y81.921 E15.2187
G1 X129.011 Y82.535 E15.24404
G1 X129.424 Y83.167 E15.26915
G1 X129.627 Y83.497 E15.28204
G1 X131.883 Y87.406 E15.43215
G1 X132.153 Y87.938 E15.45199
G1 X132.407 Y88.31 E15.46698
G1 X134.428 Y91.815 E15.60154
G1 X134.767 Y92.482 E15.62643
G1 X135.032 Y93.182 E15.65132
G1 X135.221 Y93.906 E15.67621
G1 X135.332 Y94.645 E15.70107
G1 X135.364 Y95.393 E15.72597
G1 X135.315 Y96.139 E15.75083
G1 X135.123 Y97.132 E15.78447
G1 X135.081 Y97.288 E15.78985
G1 X134.849 Y97.999 E15.81472
G1 X134.541 Y98.681 E15.83961
G1 X134.163 Y99.326 E15.86448
G1 X133.718 Y99.927 E15.88935
G1 X133.211 Y100.478 E15.91425
G1 X132.649 Y100.971 E15.93912
G1 X131.823 Y101.529 E15.97227
G1 X129.337 Y102.965 E16.06776
G1 X128.607 Y103.332 E16.09493
G1 X128.266 Y103.479 E16.10728
G1 X127.617 Y103.721 E16.13032
G1 X127.573 Y103.735 E16.13186
G1 X126.719 Y103.949 E16.16114
G1 X126.339 Y104.019 E16.17399
G1 X125.654 Y104.111 E16.19698
G1 X124.588 Y104.122 E16.23244
G1 X124.208 Y104.097 E16.2451
G1 X123.466 Y104.008 E16.26996
G1 X122.737 Y103.84 E16.29484
G1 X122.03 Y103.596 E16.31972
G1 X121.353 Y103.277 E16.34461
G1 X120.714 Y102.888 E16.36949
G1 X120.585 Y102.793 E16.37482
G1 X120.233 Y102.576 E16.38857
G1 X119.641 Y102.119 E16.41345
G1 X119.105 Y101.604 E16.43817
G1 X118.809 Y101.288 E16.45257
G1 X118.537 Y101.048 E16.46464
G1 X118.032 Y100.497 E16.48949
G1 X117.659 Y99.984 E16.51059
G1 X117.652 Y100.136 E16.51565
G1 X117.651 Y127.852 E17.43749
G1 X117.663 Y128.117 E17.44631
G1 X117.739 Y128.465 E17.45816
G1 X117.778 Y128.557 E17.46148
G1 X117.911 Y128.812 E17.47105
G1 X124.022 Y139.404 E17.87777
G1 X124.19 Y139.608 E17.88656
G1 X124.601 Y140.232 E17.91141
G1 X124.888 Y140.785 E17.93213
G1 X125.023 Y140.981 E17.94005
G1 X125.349 Y141.584 E17.96285
G1 X125.394 Y141.65 E17.9655
G1 X125.745 Y142.311 E17.9904
G1 X125.898 Y142.723 E18.00501
G1 X126.037 Y142.977 E18.01464
G1 X126.168 Y143.278 E18.02556
G1 X126.469 Y143.963 E18.05045
G1 X126.695 Y144.677 E18.07536
G1 X126.771 Y145.055 E18.08818
G1 X126.786 Y145.097 E18.08966
G1 X127.001 Y145.814 E18.11456
G1 X127.138 Y146.549 E18.13943
G1 X127.196 Y147.295 E18.16432
G1 X127.211 Y147.679 E18.1771
G1 X127.207 Y148.427 E18.20198
G1 X127.123 Y149.171 E18.22688
G1 X126.96 Y149.901 E18.25176
G1 X126.721 Y150.609 E18.27661
G1 X126.483 Y151.139 E18.29593
G1 X126.301 Y151.504 E18.3095
G1 X125.932 Y152.154 E18.33436
G1 X125.411 Y152.865 E18.36368
G1 X125.184 Y153.137 E18.37546
G1 X124.74 Y153.622 E18.39733
G1 X123.959 Y154.295 E18.43162
G1 X123.642 Y154.53 E18.44474
G1 X122.979 Y154.966 E18.47114
G1 X120.478 Y156.413 E18.56724
G1 X119.811 Y156.752 E18.59213
G1 X119.112 Y157.019 E18.61701
G1 X118.388 Y157.209 E18.64191
G1 X117.649 Y157.321 E18.66677
G1 X116.901 Y157.354 E18.69167
G1 X116.155 Y157.306 E18.71653
G1 X115.141 Y157.11 E18.75088
G1 X114.986 Y157.068 E18.75623
G1 X114.276 Y156.834 E18.78109
G1 X113.594 Y156.526 E18.80598
G1 X112.949 Y156.147 E18.83086
G1 X112.349 Y155.701 E18.85573
G1 X111.799 Y155.193 E18.88063
G1 X111.307 Y154.63 E18.9055
G1 X110.755 Y153.812 E18.93832
G1 X108.752 Y150.343 E19.07155
G1 X108.471 Y149.79 E19.09218
G1 X108.208 Y149.401 E19.1078
G1 X100.958 Y136.841 E19.59015
G1 X100.781 Y136.516 E19.60246
G1 X100.403 Y135.773 E19.63018
G1 X100.101 Y135.092 E19.65496
G1 X99.803 Y134.31 E19.68279
G1 X99.58 Y133.617 E19.70701
G1 X99.366 Y132.813 E19.73468
G1 X99.214 Y132.094 E19.75912
G1 X99.084 Y131.262 E19.78713
G1 X99.01 Y130.553 E19.81084
G1 X98.966 Y129.726 E19.83838
G1 X98.956 Y129.354 E19.85076
G1 X98.956 Y98.641 E20.87228
G1 X98.966 Y98.259 E20.88499
G1 X99.012 Y97.417 E20.91304
G1 X99.088 Y96.706 E20.93682
G1 X99.22 Y95.871 E20.96494
G1 X99.375 Y95.143 E20.98969
G1 X99.59 Y94.345 E21.01718
G1 X99.816 Y93.651 E21.04146
G1 X100.117 Y92.869 E21.06933
G1 X100.415 Y92.203 E21.09359
G1 X100.792 Y91.464 E21.12119
G1 X100.965 Y91.145 E21.13326
G1 X105.386 Y83.488 E21.42733
G1 X105.587 Y83.16 E21.44013
G1 X106.007 Y82.517 E21.46567
G1 X106.474 Y81.883 E21.49186
G0 F6000 X106.782 Y82.138
G1 F1200 X107.275 Y81.542 E21.51759
G1 X107.773 Y81.005 E21.54194
G1 X108.319 Y80.477 E21.56721
G1 X108.853 Y80.013 E21.59074
G1 X109.471 Y79.532 E21.61678
G1 X110.071 Y79.116 E21.64107
G1 X110.724 Y78.715 E21.66655
G1 X111.381 Y78.361 E21.69138
G1 X112.082 Y78.033 E21.71712
G1 X112.746 Y77.765 E21.74093
G1 X113.475 Y77.516 E21.76655
G1 X114.17 Y77.321 E21.79056
G1 X114.909 Y77.156 E21.81575
G1 X115.618 Y77.037 E21.83966
G1 X116.401 Y76.95 E21.86586
