;FLAVOR:Marlin
;TIME:15069
;Filament used: 14.8399m
;Layer height: 0.3
;MINX:38.958
;MINY:14.996
;MINZ:0.2
;MAXX:180.378
;MAXY:214.259
;MAXZ:21.2
;Generated with Cura_SteamEngine 4.10.0
M140 S60
M105
M190 S60
M104 S205
M105
M109 S205
M82 ;absolute extrusion mode
; Ender 3 Custom Start G-code
G92 E0 ; Reset Extruder
G28 ; Home all axes
G1 Z2.0 F3000 ; Move Z Axis up little to prevent scratching of Heat Bed
G1 X0.1 Y20 Z0.3 F5000.0 ; Move to start position
G1 X0.1 Y200.0 Z0.3 F1500.0 E15 ; Draw the first line
G1 X0.4 Y200.0 Z0.3 F5000.0 ; Move to side a little
G1 X0.4 Y20 Z0.3 F1500.0 E30 ; Draw the second line
G92 E0 ; Reset Extruder
G1 Z2.0 F3000 ; Move Z Axis up little to prevent scratching of Heat Bed
G1 X5 Y20 Z0.3 F5000.0 ; Move over to prevent blob squish
G92 E0
G92 E0
G1 F2700 E-5
;LAYER_COUNT:71
;LAYER:0
M107
G0 F6000 X41.078 Y24.243 Z0.2
;TYPE:SKIRT
G1 F2700 E0
G1 F1200 X41.586 Y23.363 E0.0338
G1 X42.299 Y22.296 E0.07648
G1 X42.921 Y21.486 E0.11045
G1 X43.765 Y20.524 E0.15301
G1 X44.483 Y19.805 E0.18681
G1 X45.446 Y18.96 E0.22942
G1 X46.256 Y18.339 E0.26337
G1 X47.324 Y17.625 E0.30609
G1 X48.205 Y17.116 E0.33994
G1 X49.355 Y16.548 E0.3826
G1 X50.31 Y16.152 E0.41698
G1 X51.522 Y15.742 E0.45954
G1 X52.496 Y15.482 E0.49307
G1 X53.755 Y15.231 E0.53577
G1 X54.768 Y15.097 E0.56975
G1 X56.046 Y15.013 E0.61235
G1 X56.558 Y14.996 E0.62939
G1 X156.558 Y14.996 E3.9554
G1 X157.069 Y15.013 E3.97241
G1 X158.348 Y15.097 E4.01504
G1 X159.362 Y15.231 E4.04906
G1 X160.621 Y15.482 E4.09176
G1 X161.595 Y15.742 E4.12529
G1 X162.807 Y16.152 E4.16784
G1 X163.765 Y16.549 E4.20233
G1 X164.914 Y17.117 E4.24496
G1 X165.792 Y17.625 E4.2787
G1 X166.86 Y18.339 E4.32143
G1 X167.666 Y18.957 E4.35521
G1 X168.628 Y19.8 E4.39775
G1 X169.353 Y20.524 E4.43183
G1 X170.198 Y21.488 E4.47447
G1 X170.816 Y22.295 E4.50828
G1 X171.528 Y23.36 E4.55088
G1 X172.036 Y24.238 E4.58462
G1 X172.604 Y25.387 E4.62725
G1 X173.001 Y26.345 E4.66174
G1 X173.412 Y27.56 E4.7044
G1 X173.671 Y28.528 E4.73773
G1 X173.923 Y29.787 E4.78044
G1 X174.059 Y30.812 E4.81483
G1 X174.142 Y32.089 E4.85739
G1 X174.158 Y32.595 E4.87423
G1 X174.158 Y92.596 E6.86987
G1 X174.142 Y93.101 E6.88668
G1 X174.059 Y94.38 E6.9293
G1 X173.923 Y95.406 E6.96373
G1 X173.671 Y96.665 E7.00643
G1 X173.412 Y97.633 E7.03976
G1 X173.002 Y98.845 E7.08232
G1 X172.605 Y99.803 E7.11681
G1 X172.037 Y100.952 E7.15944
G1 X171.532 Y101.826 E7.19301
G1 X170.819 Y102.894 E7.23572
G1 X170.198 Y103.704 E7.26967
G1 X169.355 Y104.666 E7.31221
G1 X168.631 Y105.391 E7.34629
G1 X167.667 Y106.236 E7.38893
G1 X166.856 Y106.857 E7.4229
G1 X165.788 Y107.57 E7.46561
G1 X164.914 Y108.075 E7.49918
G1 X163.765 Y108.643 E7.54181
G1 X162.807 Y109.04 E7.5763
G1 X161.595 Y109.45 E7.61886
G1 X160.627 Y109.709 E7.65219
G1 X159.368 Y109.961 E7.69489
G1 X158.342 Y110.097 E7.72932
G1 X157.063 Y110.18 E7.77195
G1 X156.558 Y110.196 E7.78875
G1 X56.558 Y110.196 E11.11476
G1 X56.052 Y110.18 E11.1316
G1 X54.774 Y110.097 E11.1742
G1 X53.749 Y109.961 E11.20859
G1 X52.49 Y109.709 E11.25129
G1 X51.522 Y109.45 E11.28462
G1 X50.31 Y109.04 E11.32718
G1 X49.355 Y108.644 E11.36156
G1 X48.205 Y108.076 E11.40422
G1 X47.328 Y107.57 E11.4379
G1 X46.26 Y106.857 E11.48061
G1 X45.446 Y106.233 E11.51472
G1 X44.483 Y105.388 E11.55734
G1 X43.765 Y104.669 E11.59113
G1 X42.921 Y103.707 E11.6337
G1 X42.297 Y102.894 E11.66778
G1 X41.584 Y101.826 E11.71049
G1 X41.079 Y100.952 E11.74407
G1 X40.511 Y99.803 E11.7867
G1 X40.114 Y98.845 E11.82119
G1 X39.704 Y97.633 E11.86374
G1 X39.444 Y96.659 E11.89727
G1 X39.193 Y95.4 E11.93997
G1 X39.059 Y94.387 E11.97396
G1 X38.975 Y93.109 E12.01656
G1 X38.958 Y92.597 E12.03359
G1 X38.958 Y32.596 E14.02924
G1 X38.975 Y32.084 E14.04627
G1 X39.059 Y30.806 E14.08887
G1 X39.193 Y29.793 E14.12286
G1 X39.444 Y28.534 E14.16556
G1 X39.704 Y27.56 E14.19909
G1 X40.114 Y26.348 E14.24164
G1 X40.51 Y25.393 E14.27603
G1 X41.078 Y24.243 E14.31869
G0 F6000 X41.436 Y24.42
G1 F1200 X41.918 Y23.586 E14.35073
G1 X42.631 Y22.519 E14.39341
G1 X43.221 Y21.75 E14.42565
G1 X44.065 Y20.788 E14.46821
G1 X44.747 Y20.106 E14.50029
G1 X45.71 Y19.261 E14.5429
G1 X46.478 Y18.671 E14.57511
G1 X47.546 Y17.957 E14.61784
G1 X48.382 Y17.474 E14.64996
G1 X49.532 Y16.906 E14.69262
G1 X50.438 Y16.531 E14.72523
G1 X51.65 Y16.121 E14.76778
G1 X52.574 Y15.874 E14.7996
G1 X53.833 Y15.623 E14.84229
G1 X54.795 Y15.496 E14.87457
G1 X56.073 Y15.412 E14.91717
G1 X56.558 Y15.396 E14.93331
G1 X156.558 Y15.396 E18.25932
G1 X157.043 Y15.412 E18.27546
G1 X158.322 Y15.496 E18.31809
G1 X159.284 Y15.623 E18.35037
G1 X160.543 Y15.874 E18.39306
G1 X161.467 Y16.121 E18.42488
G1 X162.679 Y16.531 E18.46743
G1 X163.587 Y16.907 E18.50012
G1 X164.736 Y17.475 E18.54275
G1 X165.57 Y17.957 E18.57479
G1 X166.638 Y18.671 E18.61752
G1 X167.402 Y19.258 E18.64956
G1 X168.364 Y20.101 E18.6921
G1 X169.052 Y20.788 E18.72444
G1 X169.897 Y21.752 E18.76708
G1 X170.484 Y22.517 E18.79915
G1 X171.196 Y23.582 E18.84176
G1 X171.678 Y24.416 E18.8738
G1 X172.246 Y25.565 E18.91643
G1 X172.622 Y26.473 E18.94911
G1 X173.033 Y27.688 E18.99177
G1 X173.279 Y28.607 E19.02342
G1 X173.531 Y29.866 E19.06612
G1 X173.659 Y30.838 E19.09873
G1 X173.742 Y32.115 E19.14129
G1 X173.758 Y32.595 E19.15727
G1 X173.758 Y92.596 E21.15291
G1 X173.742 Y93.075 E21.16885
G1 X173.659 Y94.354 E21.21148
G1 X173.531 Y95.327 E21.24412
G1 X173.279 Y96.586 E21.28682
G1 X173.033 Y97.505 E21.31847
G1 X172.623 Y98.717 E21.36102
G1 X172.247 Y99.625 E21.39371
G1 X171.679 Y100.774 E21.43634
G1 X171.2 Y101.604 E21.46821
G1 X170.487 Y102.672 E21.51092
G1 X169.897 Y103.44 E21.54313
G1 X169.054 Y104.402 E21.58568
G1 X168.367 Y105.09 E21.61801
G1 X167.403 Y105.935 E21.66065
G1 X166.634 Y106.525 E21.69289
G1 X165.566 Y107.238 E21.7356
G1 X164.736 Y107.717 E21.76747
G1 X163.587 Y108.285 E21.8101
G1 X162.679 Y108.661 E21.84279
G1 X161.467 Y109.071 E21.88535
G1 X160.548 Y109.317 E21.91699
G1 X159.289 Y109.569 E21.95969
G1 X158.316 Y109.697 E21.99233
G1 X157.037 Y109.78 E22.03496
G1 X156.558 Y109.796 E22.0509
G1 X56.558 Y109.796 E25.37692
G1 X56.078 Y109.78 E25.39289
G1 X54.8 Y109.697 E25.43549
G1 X53.828 Y109.569 E25.46809
G1 X52.569 Y109.317 E25.5108
G1 X51.65 Y109.071 E25.54244
G1 X50.438 Y108.661 E25.585
G1 X49.532 Y108.286 E25.61761
G1 X48.382 Y107.718 E25.66027
G1 X47.55 Y107.238 E25.69222
G1 X46.482 Y106.525 E25.73493
G1 X45.71 Y105.932 E25.76731
G1 X44.747 Y105.087 E25.80992
G1 X44.065 Y104.405 E25.842
G1 X43.221 Y103.443 E25.88456
G1 X42.629 Y102.672 E25.91689
G1 X41.916 Y101.604 E25.9596
G1 X41.437 Y100.774 E25.99148
G1 X40.869 Y99.625 E26.03411
G1 X40.493 Y98.717 E26.06679
G1 X40.083 Y97.505 E26.10935
G1 X39.836 Y96.581 E26.14116
G1 X39.585 Y95.322 E26.18386
G1 X39.458 Y94.36 E26.21613
G1 X39.374 Y93.082 E26.25873
G1 X39.358 Y92.597 E26.27487
G1 X39.358 Y32.596 E28.27051
G1 X39.374 Y32.111 E28.28665
G1 X39.458 Y30.833 E28.32925
G1 X39.585 Y29.871 E28.36152
G1 X39.836 Y28.612 E28.40422
G1 X40.083 Y27.688 E28.43603
G1 X40.493 Y26.476 E28.47859
G1 X40.868 Y25.57 E28.5112
G1 X41.436 Y24.42 E28.55386
G0 F6000 X41.795 Y24.597
G1 F1200 X42.251 Y23.808 E28.58417
G1 X42.964 Y22.741 E28.62686
G1 X43.522 Y22.014 E28.65734
G1 X44.366 Y21.052 E28.6999
G1 X45.011 Y20.406 E28.73026
G1 X45.974 Y19.561 E28.77288
G1 X46.701 Y19.004 E28.80334
G1 X47.769 Y18.29 E28.84607
G1 X48.559 Y17.833 E28.87642
G1 X49.709 Y17.265 E28.91908
G1 X50.566 Y16.91 E28.94993
G1 X51.778 Y16.5 E28.99249
G1 X52.652 Y16.266 E29.02258
G1 X53.911 Y16.015 E29.06528
G1 X54.821 Y15.895 E29.09581
G1 X56.099 Y15.811 E29.13841
G1 X56.558 Y15.796 E29.15368
G1 X156.558 Y15.796 E32.4797
G1 X157.017 Y15.811 E32.49497
G1 X158.296 Y15.895 E32.5376
G1 X159.206 Y16.015 E32.56813
G1 X160.465 Y16.266 E32.61083
G1 X161.339 Y16.5 E32.64092
G1 X162.551 Y16.91 E32.68348
G1 X163.41 Y17.266 E32.71441
G1 X164.559 Y17.834 E32.75704
G1 X165.347 Y18.29 E32.78732
G1 X166.415 Y19.004 E32.83005
G1 X167.138 Y19.558 E32.86034
G1 X168.1 Y20.401 E32.90288
G1 X168.751 Y21.052 E32.9335
G1 X169.596 Y22.016 E32.97614
G1 X170.151 Y22.74 E33.00648
G1 X170.863 Y23.805 E33.04909
G1 X171.319 Y24.593 E33.07937
G1 X171.887 Y25.742 E33.122
G1 X172.243 Y26.601 E33.15293
G1 X172.654 Y27.816 E33.19559
G1 X172.887 Y28.685 E33.22551
G1 X173.139 Y29.944 E33.26822
G1 X173.26 Y30.864 E33.29908
G1 X173.343 Y32.141 E33.34165
G1 X173.358 Y32.595 E33.35675
G1 X173.358 Y92.596 E35.3524
G1 X173.343 Y93.049 E35.36747
G1 X173.26 Y94.328 E35.4101
G1 X173.139 Y95.249 E35.441
G1 X172.887 Y96.508 E35.4837
G1 X172.654 Y97.377 E35.51362
G1 X172.244 Y98.589 E35.55618
G1 X171.888 Y99.448 E35.58711
G1 X171.32 Y100.597 E35.62974
G1 X170.867 Y101.382 E35.65988
G1 X170.154 Y102.45 E35.70259
G1 X169.597 Y103.176 E35.73303
G1 X168.754 Y104.138 E35.77557
G1 X168.103 Y104.789 E35.80619
G1 X167.139 Y105.634 E35.84883
G1 X166.412 Y106.192 E35.87931
G1 X165.344 Y106.905 E35.92202
G1 X164.559 Y107.358 E35.95216
G1 X163.41 Y107.926 E35.99479
G1 X162.551 Y108.282 E36.02572
G1 X161.339 Y108.692 E36.06828
G1 X160.47 Y108.925 E36.0982
G1 X159.211 Y109.177 E36.14091
G1 X158.29 Y109.298 E36.1718
G1 X157.011 Y109.381 E36.21443
G1 X156.558 Y109.396 E36.22951
G1 X56.558 Y109.396 E39.55552
G1 X56.104 Y109.381 E39.57063
G1 X54.826 Y109.298 E39.61322
G1 X53.906 Y109.177 E39.64409
G1 X52.647 Y108.925 E39.68679
G1 X51.778 Y108.692 E39.71672
G1 X50.566 Y108.282 E39.75927
G1 X49.709 Y107.927 E39.79012
G1 X48.559 Y107.359 E39.83278
G1 X47.772 Y106.905 E39.863
G1 X46.704 Y106.192 E39.90571
G1 X45.974 Y105.632 E39.93631
G1 X45.011 Y104.787 E39.97893
G1 X44.366 Y104.141 E40.00929
G1 X43.522 Y103.179 E40.05185
G1 X42.962 Y102.45 E40.08243
G1 X42.249 Y101.382 E40.12514
G1 X41.796 Y100.597 E40.15528
G1 X41.228 Y99.448 E40.19791
G1 X40.872 Y98.589 E40.22884
G1 X40.462 Y97.377 E40.2714
G1 X40.228 Y96.503 E40.30149
G1 X39.977 Y95.244 E40.34419
G1 X39.857 Y94.334 E40.37472
G1 X39.773 Y93.056 E40.41731
G1 X39.758 Y92.597 E40.43259
G1 X39.758 Y32.596 E42.42823
G1 X39.773 Y32.137 E42.44351
G1 X39.857 Y30.859 E42.4861
G1 X39.977 Y29.949 E42.51663
G1 X40.228 Y28.69 E42.55933
G1 X40.462 Y27.816 E42.58942
G1 X40.872 Y26.604 E42.63198
G1 X41.227 Y25.747 E42.66283
G1 X41.795 Y24.597 E42.70549
G0 F6000 X42.153 Y24.774
G1 F1200 X42.583 Y24.03 E42.73407
G1 X43.296 Y22.963 E42.77676
G1 X43.823 Y22.277 E42.80553
G1 X44.667 Y21.315 E42.84809
G1 X45.275 Y20.707 E42.87669
G1 X46.238 Y19.862 E42.9193
G1 X46.923 Y19.336 E42.94803
G1 X47.991 Y18.622 E42.99076
G1 X48.736 Y18.191 E43.01938
G1 X49.886 Y17.623 E43.06204
G1 X50.694 Y17.289 E43.09112
G1 X51.906 Y16.879 E43.13368
G1 X52.731 Y16.658 E43.16209
G1 X53.99 Y16.407 E43.20478
G1 X54.847 Y16.294 E43.23354
G1 X56.125 Y16.21 E43.27613
G1 X56.558 Y16.196 E43.29054
G1 X156.558 Y16.196 E46.61656
G1 X156.991 Y16.21 E46.63097
G1 X158.27 Y16.294 E46.6736
G1 X159.127 Y16.407 E46.70235
G1 X160.386 Y16.658 E46.74505
G1 X161.211 Y16.879 E46.77345
G1 X162.423 Y17.289 E46.81601
G1 X163.233 Y17.624 E46.84516
G1 X164.382 Y18.192 E46.88779
G1 X165.125 Y18.622 E46.91635
G1 X166.193 Y19.336 E46.95907
G1 X166.875 Y19.859 E46.98766
G1 X167.837 Y20.702 E47.0302
G1 X168.45 Y21.315 E47.05904
G1 X169.295 Y22.279 E47.10167
G1 X169.819 Y22.962 E47.13031
G1 X170.531 Y24.027 E47.17291
G1 X170.961 Y24.77 E47.20147
G1 X171.529 Y25.919 E47.2441
G1 X171.864 Y26.729 E47.27325
G1 X172.275 Y27.944 E47.31591
G1 X172.495 Y28.764 E47.34415
G1 X172.747 Y30.023 E47.38685
G1 X172.861 Y30.89 E47.41594
G1 X172.944 Y32.167 E47.4585
G1 X172.958 Y32.595 E47.47274
G1 X172.958 Y92.596 E49.46839
G1 X172.944 Y93.023 E49.4826
G1 X172.861 Y94.302 E49.52522
G1 X172.747 Y95.17 E49.55434
G1 X172.495 Y96.429 E49.59705
G1 X172.275 Y97.249 E49.62529
G1 X171.865 Y98.461 E49.66784
G1 X171.53 Y99.271 E49.69699
G1 X170.962 Y100.42 E49.73963
G1 X170.534 Y101.16 E49.76806
G1 X169.821 Y102.228 E49.81077
G1 X169.296 Y102.913 E49.83947
G1 X168.453 Y103.875 E49.88202
G1 X167.84 Y104.488 E49.91085
G1 X166.876 Y105.333 E49.95349
G1 X166.19 Y105.859 E49.98224
G1 X165.122 Y106.572 E50.02495
G1 X164.382 Y107 E50.05338
G1 X163.233 Y107.568 E50.09601
G1 X162.423 Y107.903 E50.12517
G1 X161.211 Y108.313 E50.16772
G1 X160.391 Y108.533 E50.19596
G1 X159.132 Y108.785 E50.23866
G1 X158.264 Y108.899 E50.26778
G1 X156.985 Y108.982 E50.31041
G1 X156.558 Y108.996 E50.32462
G1 X56.558 Y108.996 E53.65063
G1 X56.13 Y108.982 E53.66488
G1 X54.852 Y108.899 E53.70747
G1 X53.985 Y108.785 E53.73656
G1 X52.726 Y108.533 E53.77926
G1 X51.906 Y108.313 E53.8075
G1 X50.694 Y107.903 E53.85006
G1 X49.886 Y107.569 E53.87914
G1 X48.736 Y107.001 E53.9218
G1 X47.994 Y106.572 E53.9503
G1 X46.926 Y105.859 E53.99301
G1 X46.238 Y105.331 E54.02186
G1 X45.275 Y104.486 E54.06447
G1 X44.667 Y103.878 E54.09307
G1 X43.823 Y102.916 E54.13563
G1 X43.295 Y102.228 E54.16448
G1 X42.582 Y101.16 E54.20719
G1 X42.154 Y100.42 E54.23562
G1 X41.586 Y99.271 E54.27825
G1 X41.251 Y98.461 E54.30741
G1 X40.841 Y97.249 E54.34996
G1 X40.62 Y96.424 E54.37837
G1 X40.369 Y95.165 E54.42107
G1 X40.256 Y94.308 E54.44982
G1 X40.172 Y93.03 E54.49242
G1 X40.158 Y92.597 E54.50683
G1 X40.158 Y32.596 E56.50247
G1 X40.172 Y32.163 E56.51688
G1 X40.256 Y30.885 E56.55947
G1 X40.369 Y30.028 E56.58822
G1 X40.62 Y28.769 E56.63092
G1 X40.841 Y27.944 E56.65933
G1 X41.251 Y26.732 E56.70189
G1 X41.585 Y25.924 E56.73097
G1 X42.153 Y24.774 E56.77363
G0 F6000 X42.512 Y24.951
G1 F1200 X42.916 Y24.252 E56.80048
G1 X43.629 Y23.185 E56.84316
G1 X44.123 Y22.541 E56.87016
G1 X44.967 Y21.579 E56.91272
G1 X45.539 Y21.008 E56.9396
G1 X46.502 Y20.163 E56.98221
G1 X47.145 Y19.669 E57.00918
G1 X48.213 Y18.955 E57.05191
G1 X48.913 Y18.55 E57.07881
G1 X50.063 Y17.982 E57.12147
G1 X50.822 Y17.668 E57.14879
G1 X52.034 Y17.258 E57.19135
G1 X52.809 Y17.051 E57.21803
G1 X54.068 Y16.8 E57.26072
G1 X54.873 Y16.693 E57.28773
G1 X56.151 Y16.609 E57.33033
G1 X56.558 Y16.596 E57.34388
G1 X156.558 Y16.596 E60.66989
G1 X156.964 Y16.609 E60.6834
G1 X158.243 Y16.693 E60.72603
G1 X159.049 Y16.8 E60.75307
G1 X160.308 Y17.051 E60.79577
G1 X161.083 Y17.258 E60.82245
G1 X162.295 Y17.668 E60.86501
G1 X163.056 Y17.983 E60.8924
G1 X164.205 Y18.551 E60.93503
G1 X164.903 Y18.955 E60.96186
G1 X165.971 Y19.669 E61.00459
G1 X166.611 Y20.16 E61.03141
G1 X167.573 Y21.003 E61.07396
G1 X168.149 Y21.579 E61.10105
G1 X168.994 Y22.543 E61.14369
G1 X169.486 Y23.184 E61.17056
G1 X170.198 Y24.249 E61.21317
G1 X170.602 Y24.947 E61.24
G1 X171.17 Y26.096 E61.28263
G1 X171.485 Y26.857 E61.31002
G1 X171.896 Y28.072 E61.35268
G1 X172.102 Y28.842 E61.37919
G1 X172.354 Y30.101 E61.4219
G1 X172.462 Y30.916 E61.44924
G1 X172.545 Y32.193 E61.4918
G1 X172.558 Y32.595 E61.50518
G1 X172.558 Y92.596 E63.50082
G1 X172.545 Y92.998 E63.5142
G1 X172.462 Y94.277 E63.55683
G1 X172.354 Y95.092 E63.58417
G1 X172.102 Y96.351 E63.62688
G1 X171.896 Y97.121 E63.65339
G1 X171.486 Y98.333 E63.69595
G1 X171.171 Y99.094 E63.72334
G1 X170.603 Y100.243 E63.76597
G1 X170.201 Y100.937 E63.79264
G1 X169.488 Y102.005 E63.83536
G1 X168.995 Y102.649 E63.86233
G1 X168.152 Y103.611 E63.90487
G1 X167.576 Y104.187 E63.93197
G1 X166.612 Y105.032 E63.9746
G1 X165.967 Y105.526 E64.00163
G1 X164.899 Y106.239 E64.04434
G1 X164.205 Y106.641 E64.07101
G1 X163.056 Y107.209 E64.11364
G1 X162.295 Y107.524 E64.14104
G1 X161.083 Y107.934 E64.18359
G1 X160.313 Y108.14 E64.2101
G1 X159.054 Y108.392 E64.25281
G1 X158.239 Y108.5 E64.28015
G1 X156.96 Y108.583 E64.32278
G1 X156.558 Y108.596 E64.33616
G1 X56.558 Y108.596 E67.66217
G1 X56.156 Y108.583 E67.67555
G1 X54.878 Y108.5 E67.71814
G1 X54.063 Y108.392 E67.74549
G1 X52.804 Y108.14 E67.78819
G1 X52.034 Y107.934 E67.8147
G1 X50.822 Y107.524 E67.85726
G1 X50.063 Y107.21 E67.88458
G1 X48.913 Y106.642 E67.92724
G1 X48.217 Y106.239 E67.95399
G1 X47.149 Y105.526 E67.9967
G1 X46.502 Y105.03 E68.02381
G1 X45.539 Y104.185 E68.06643
G1 X44.967 Y103.614 E68.09331
G1 X44.123 Y102.652 E68.13587
G1 X43.628 Y102.005 E68.16297
G1 X42.915 Y100.937 E68.20568
G1 X42.513 Y100.243 E68.23235
G1 X41.945 Y99.094 E68.27498
G1 X41.63 Y98.333 E68.30238
G1 X41.22 Y97.121 E68.34493
G1 X41.013 Y96.346 E68.37161
G1 X40.762 Y95.087 E68.41431
G1 X40.655 Y94.282 E68.44132
