;FLAVOR:Marlin
;TIME:2996
;Filament used: 1.23562m
;Layer height: 0.2
;MINX:83.399
;MINY:83.101
;MINZ:0.2
;MAXX:151.602
;MAXY:151.899
;MAXZ:6.2
;Generated with Cura_SteamEngine 4.10.0
M140 S60
M105
M190 S60
M104 S220
M105
M109 S220
M82 ;absolute extrusion mode
; Ender 3 Custom Start G-code
G92 E0 ; Reset Extruder
G28 ; Home all axes
G1 Z2.0 F3000 ; Move Z Axis up little to prevent scratching of Heat Bed
G1 X0.1 Y20 Z0.3 F5000.0 ; Move to start position
G1 X0.1 Y200.0 Z0.3 F1500.0 E15 ; Draw the first line
G1 X0.4 Y200.0 Z0.3 F5000.0 ; Move to side a little
G1 X0.4 Y20 Z0.3 F1500.0 E30 ; Draw the second line
G92 E0 ; Reset Extruder
G1 Z2.0 F3000 ; Move Z Axis up little to prevent scratching of Heat Bed
G1 X5 Y20 Z0.3 F5000.0 ; Move over to prevent blob squish
G92 E0
G92 E0
;LAYER_COUNT:32
;LAYER:0
M107
G0 F6000 X93.218 Y93.333 Z0.2
;TYPE:SKIRT
G1 F1200 X94.229 Y92.344 E0.04704
G1 X94.311 Y92.268 E0.05076
G1 X95.554 Y91.17 E0.10592
G1 X95.64 Y91.098 E0.10965
G1 X96.906 Y90.09 E0.16348
G1 X96.994 Y90.023 E0.16715
G1 X98.141 Y89.201 E0.21409
G1 X98.504 Y88.99 E0.22805
G1 X98.899 Y88.852 E0.24197
G1 X99.314 Y88.792 E0.25592
G1 X99.733 Y88.811 E0.26987
G1 X100.14 Y88.909 E0.28379
G1 X100.568 Y89.096 E0.29932
G1 X100.929 Y89.31 E0.31328
G1 X101.246 Y89.59 E0.32735
G1 X101.54 Y89.413 E0.33876
G1 X101.752 Y89.299 E0.34677
G1 X101.693 Y89.111 E0.35332
G1 X101.646 Y88.694 E0.36728
G1 X101.674 Y88.236 E0.38254
G1 X101.749 Y87.824 E0.39647
G1 X101.902 Y87.433 E0.41044
G1 X102.125 Y87.079 E0.42435
G1 X102.412 Y86.773 E0.43831
G1 X102.751 Y86.527 E0.45224
G1 X102.961 Y86.419 E0.46009
G1 X104.264 Y85.831 E0.50764
G1 X104.363 Y85.789 E0.51121
G1 X105.869 Y85.196 E0.56505
G1 X105.976 Y85.157 E0.56883
G1 X107.542 Y84.632 E0.62377
G1 X107.651 Y84.599 E0.62756
G1 X109.001 Y84.223 E0.67417
G1 X109.413 Y84.149 E0.68809
G1 X109.832 Y84.155 E0.70203
G1 X110.243 Y84.241 E0.71599
G1 X110.629 Y84.402 E0.7299
G1 X110.978 Y84.634 E0.74384
G1 X111.312 Y84.951 E0.75916
G1 X111.578 Y85.275 E0.7731
G1 X111.782 Y85.65 E0.7873
G1 X112.126 Y85.583 E0.79896
G1 X112.358 Y85.549 E0.80675
G1 X112.367 Y85.35 E0.81338
G1 X112.465 Y84.943 E0.8273
G1 X112.652 Y84.516 E0.84281
G1 X112.866 Y84.155 E0.85677
G1 X113.143 Y83.841 E0.87069
G1 X113.476 Y83.586 E0.88464
G1 X113.85 Y83.398 E0.89856
G1 X114.254 Y83.285 E0.91252
G1 X114.475 Y83.257 E0.91993
G1 X115.875 Y83.149 E0.96663
G1 X115.988 Y83.143 E0.97039
G1 X117.638 Y83.101 E1.02529
G1 X117.75 Y83.101 E1.02902
G1 X119.398 Y83.143 E1.08385
G1 X119.512 Y83.149 E1.08764
G1 X120.908 Y83.257 E1.13421
G1 X121.321 Y83.329 E1.14816
G1 X121.712 Y83.477 E1.16206
G1 X122.069 Y83.698 E1.17603
G1 X122.377 Y83.982 E1.18996
G1 X122.625 Y84.319 E1.20388
G1 X122.829 Y84.727 E1.21905
G1 X122.97 Y85.121 E1.23297
G1 X123.033 Y85.535 E1.2469
G1 X123.38 Y85.605 E1.25867
G1 X123.61 Y85.652 E1.26648
G1 X123.686 Y85.469 E1.27307
G1 X123.918 Y85.12 E1.28701
G1 X124.235 Y84.786 E1.30232
G1 X124.559 Y84.52 E1.31627
G1 X124.926 Y84.319 E1.33018
G1 X125.326 Y84.192 E1.34414
G1 X125.742 Y84.143 E1.35807
G1 X126.16 Y84.173 E1.37201
G1 X126.382 Y84.223 E1.37958
G1 X127.738 Y84.601 E1.4264
G1 X127.847 Y84.634 E1.43019
G1 X129.411 Y85.159 E1.48506
G1 X129.517 Y85.198 E1.48882
G1 X131.039 Y85.797 E1.54322
G1 X131.142 Y85.841 E1.54694
G1 X132.424 Y86.423 E1.59377
G1 X132.788 Y86.632 E1.60773
G1 X133.105 Y86.905 E1.62165
G1 X133.364 Y87.234 E1.63557
G1 X133.557 Y87.607 E1.64954
G1 X133.675 Y88.009 E1.66347
G1 X133.727 Y88.469 E1.67887
G1 X133.723 Y88.888 E1.69281
G1 X133.638 Y89.303 E1.7069
G1 X133.95 Y89.476 E1.71876
G1 X134.144 Y89.595 E1.72633
G1 X134.275 Y89.452 E1.73278
G1 X134.612 Y89.203 E1.74672
G1 X135.032 Y88.994 E1.76232
G1 X135.427 Y88.854 E1.77626
G1 X135.841 Y88.792 E1.79019
G1 X136.26 Y88.81 E1.80413
G1 X136.668 Y88.906 E1.81807
G1 X137.05 Y89.078 E1.83201
G1 X137.242 Y89.202 E1.83961
G1 X138.383 Y90.021 E1.88632
G1 X138.471 Y90.087 E1.88998
G1 X139.764 Y91.117 E1.94497
G1 X139.849 Y91.188 E1.94865
G1 X141.074 Y92.269 E2.00299
G1 X141.158 Y92.348 E2.00682
G1 X142.165 Y93.335 E2.05372
G1 X142.435 Y93.655 E2.06765
G1 X142.639 Y94.021 E2.08158
G1 X142.77 Y94.419 E2.09552
G1 X142.824 Y94.835 E2.10947
G1 X142.797 Y95.253 E2.1234
G1 X142.691 Y95.697 E2.13859
G1 X142.546 Y96.089 E2.15249
G1 X142.328 Y96.448 E2.16646
G1 X142.553 Y96.727 E2.17838
G1 X142.695 Y96.906 E2.18598
G1 X142.871 Y96.815 E2.19257
G1 X143.273 Y96.697 E2.2065
G1 X143.736 Y96.645 E2.222
G1 X144.155 Y96.649 E2.23594
G1 X144.566 Y96.733 E2.24989
G1 X144.953 Y96.892 E2.2638
G1 X145.303 Y97.123 E2.27775
G1 X145.603 Y97.415 E2.29168
G1 X145.739 Y97.594 E2.29915
G1 X146.531 Y98.751 E2.34579
G1 X146.592 Y98.845 E2.34951
G1 X147.456 Y100.256 E2.40454
G1 X147.514 Y100.357 E2.40842
G1 X148.31 Y101.826 E2.46399
G1 X148.359 Y101.922 E2.46757
G1 X148.954 Y103.161 E2.51329
G1 X149.099 Y103.554 E2.52722
G1 X149.166 Y103.968 E2.54117
G1 X149.154 Y104.386 E2.55508
G1 X149.063 Y104.795 E2.56901
G1 X148.895 Y105.18 E2.58299
G1 X148.643 Y105.561 E2.59818
G1 X148.372 Y105.881 E2.61213
G1 X148.046 Y106.143 E2.62604
G1 X148.157 Y106.474 E2.63765
G1 X148.231 Y106.699 E2.64553
G1 X148.428 Y106.673 E2.65213
G1 X148.846 Y106.699 E2.66606
G1 X149.283 Y106.802 E2.681
G1 X149.676 Y106.946 E2.69492
G1 X150.035 Y107.162 E2.70885
G1 X150.347 Y107.442 E2.7228
G1 X150.6 Y107.777 E2.73676
G1 X150.785 Y108.153 E2.7507
G1 X150.854 Y108.369 E2.75824
G1 X151.085 Y109.243 E2.78831
G1 X151.356 Y110.433 E2.8289
G1 X151.563 Y111.513 E2.86547
G1 X151.602 Y111.93 E2.8794
G1 X151.561 Y112.347 E2.89334
G1 X151.442 Y112.749 E2.90728
G1 X151.22 Y113.163 E2.92291
G1 X151.126 Y113.301 E2.92846
G1 X150.858 Y113.623 E2.9424
G1 X150.534 Y113.888 E2.95632
G1 X150.166 Y114.088 E2.97025
G1 X149.681 Y114.23 E2.98706
G1 X146.36 Y114.802 E3.09914
G1 X145.943 Y114.834 E3.11305
G1 X145.526 Y114.785 E3.12702
G1 X145.127 Y114.659 E3.14093
G1 X144.738 Y114.445 E3.1557
G1 X144.606 Y114.354 E3.16103
G1 X144.286 Y114.085 E3.17494
G1 X144.022 Y113.759 E3.18889
G1 X143.824 Y113.389 E3.20285
G1 X143.7 Y112.985 E3.2169
G1 X143.379 Y111.418 E3.2701
G1 X142.93 Y109.762 E3.32717
G1 X142.4 Y108.206 E3.38184
G1 X141.765 Y106.668 E3.43718
G1 X141.025 Y105.154 E3.49323
G1 X140.201 Y103.709 E3.54856
G1 X139.284 Y102.313 E3.60411
G1 X138.289 Y100.988 E3.65922
G1 X137.195 Y99.71 E3.71518
G1 X136.035 Y98.515 E3.77057
G1 X134.809 Y97.403 E3.82562
G1 X133.497 Y96.357 E3.88143
G1 X132.126 Y95.397 E3.9371
G1 X130.701 Y94.531 E3.99256
G1 X129.227 Y93.756 E4.04795
G1 X127.703 Y93.074 E4.10348
G1 X126.134 Y92.487 E4.1592
G1 X124.54 Y92.006 E4.21458
G1 X122.899 Y91.619 E4.27065
G1 X121.277 Y91.347 E4.32535
G1 X119.609 Y91.171 E4.38114
G1 X117.937 Y91.102 E4.4368
G1 X116.281 Y91.138 E4.49189
G1 X114.626 Y91.28 E4.54714
G1 X112.971 Y91.527 E4.60279
G1 X111.359 Y91.874 E4.65764
G1 X109.71 Y92.336 E4.71459
G1 X108.144 Y92.888 E4.76982
G1 X106.621 Y93.534 E4.82484
G1 X105.131 Y94.28 E4.88027
G1 X103.678 Y95.128 E4.93622
G1 X102.304 Y96.049 E4.99124
G1 X100.964 Y97.077 E5.04741
G1 X99.717 Y98.163 E5.10241
G1 X98.529 Y99.339 E5.15801
G1 X97.424 Y100.584 E5.21337
G1 X96.393 Y101.902 E5.26903
G1 X95.445 Y103.284 E5.32477
G1 X94.593 Y104.715 E5.38016
G1 X93.834 Y106.196 E5.43551
G1 X93.172 Y107.716 E5.49066
G1 X92.594 Y109.313 E5.54714
G1 X92.13 Y110.899 E5.60211
G1 X91.769 Y112.504 E5.65682
G1 X91.5 Y114.189 E5.71357
G1 X91.345 Y115.822 E5.76813
G1 X91.292 Y117.506 E5.82417
G1 X91.345 Y119.174 E5.87968
G1 X91.5 Y120.811 E5.93437
G1 X91.769 Y122.496 E5.99112
G1 X92.129 Y124.096 E6.04567
G1 X92.594 Y125.687 E6.1008
G1 X93.173 Y127.287 E6.15739
G1 X93.832 Y128.799 E6.21225
G1 X94.593 Y130.285 E6.26778
G1 X95.445 Y131.716 E6.32317
G1 X96.393 Y133.098 E6.37891
G1 X97.424 Y134.416 E6.43457
G1 X98.529 Y135.66 E6.48991
G1 X99.715 Y136.835 E6.54544
G1 X100.964 Y137.923 E6.60053
G1 X102.304 Y138.951 E6.6567
G1 X103.678 Y139.872 E6.71172
G1 X105.131 Y140.72 E6.76767
G1 X106.621 Y141.466 E6.82309
G1 X108.144 Y142.112 E6.87812
G1 X109.723 Y142.667 E6.93379
G1 X111.353 Y143.127 E6.99012
G1 X112.963 Y143.472 E7.04488
G1 X114.626 Y143.72 E7.10081
G1 X116.281 Y143.862 E7.15605
G1 X117.937 Y143.898 E7.21114
G1 X119.609 Y143.829 E7.2668
G1 X121.286 Y143.652 E7.32289
G1 X122.881 Y143.383 E7.37669
G1 X124.549 Y142.992 E7.43367
G1 X126.134 Y142.513 E7.48874
G1 X127.703 Y141.926 E7.54446
G1 X129.227 Y141.244 E7.59999
G1 X130.704 Y140.468 E7.65549
G1 X132.129 Y139.601 E7.71096
G1 X133.497 Y138.643 E7.76651
G1 X134.813 Y137.594 E7.82249
G1 X136.036 Y136.484 E7.87742
G1 X137.196 Y135.289 E7.93281
G1 X138.29 Y134.011 E7.98876
G1 X139.285 Y132.686 E8.04388
G1 X140.203 Y131.288 E8.0995
G1 X141.031 Y129.837 E8.15507
G1 X141.759 Y128.343 E8.21034
G1 X142.404 Y126.783 E8.26649
G1 X142.936 Y125.219 E8.32144
G1 X143.379 Y123.59 E8.37758
G1 X143.699 Y122.018 E8.43094
G1 X143.822 Y121.617 E8.44489
G1 X144.018 Y121.247 E8.45882
G1 X144.281 Y120.92 E8.47278
G1 X144.606 Y120.646 E8.48691
G1 X144.738 Y120.555 E8.49225
G1 X145.104 Y120.351 E8.50618
G1 X145.503 Y120.22 E8.52015
G1 X145.918 Y120.167 E8.53407
G1 X146.36 Y120.198 E8.5488
G1 X149.681 Y120.77 E8.66089
G1 X150.086 Y120.88 E8.67485
G1 X150.462 Y121.065 E8.68878
G1 X150.796 Y121.318 E8.70272
G1 X151.126 Y121.699 E8.71948
G1 X151.22 Y121.837 E8.72504
G1 X151.422 Y122.205 E8.739
G1 X151.551 Y122.604 E8.75295
G1 X151.601 Y123.02 E8.76688
G1 X151.563 Y123.488 E8.7825
G1 X151.372 Y124.489 E8.81639
G1 X151.099 Y125.697 E8.85759
G1 X150.852 Y126.633 E8.88978
G1 X150.707 Y127.026 E8.90371
G1 X150.489 Y127.385 E8.91768
G1 X150.208 Y127.695 E8.9316
G1 X149.873 Y127.947 E8.94554
G1 X149.496 Y128.13 E8.95948
G1 X149.059 Y128.256 E8.97461
G1 X148.645 Y128.323 E8.98856
G1 X148.228 Y128.311 E9.00243
G1 X148.116 Y128.636 E9.01387
G1 X148.028 Y128.858 E9.02181
G1 X148.196 Y128.965 E9.02843
G1 X148.5 Y129.254 E9.04238
G1 X148.773 Y129.624 E9.05768
G1 X148.98 Y129.989 E9.07163
G1 X149.113 Y130.386 E9.08556
G1 X149.169 Y130.801 E9.09949
G1 X149.146 Y131.22 E9.11344
G1 X149.043 Y131.626 E9.12738
G1 X148.954 Y131.838 E9.13502
G1 X148.346 Y133.105 E9.18176
G1 X148.296 Y133.204 E9.18545
G1 X147.51 Y134.65 E9.24019
G1 X147.453 Y134.747 E9.24394
G1 X146.595 Y136.149 E9.29861
G1 X146.534 Y136.244 E9.30236
G1 X145.738 Y137.406 E9.34921
G1 X145.469 Y137.728 E9.36316
G1 X145.145 Y137.993 E9.37708
G1 X144.775 Y138.191 E9.39104
G1 X144.375 Y138.316 E9.40498
G1 X143.959 Y138.363 E9.4189
G1 X143.502 Y138.335 E9.43413
G1 X143.09 Y138.259 E9.44807
G1 X142.7 Y138.107 E9.46199
G1 X142.472 Y138.37 E9.47357
G1 X142.313 Y138.549 E9.48153
G1 X142.433 Y138.706 E9.4881
G1 X142.62 Y139.082 E9.50207
G1 X142.751 Y139.529 E9.51756
G1 X142.82 Y139.943 E9.53152
G1 X142.809 Y140.362 E9.54546
G1 X142.718 Y140.771 E9.5594
G1 X142.552 Y141.156 E9.57334
G1 X142.316 Y141.502 E9.58727
G1 X142.164 Y141.666 E9.59471
G1 X141.154 Y142.655 E9.64173
G1 X141.072 Y142.731 E9.64544
G1 X139.849 Y143.812 E9.69973
G1 X139.762 Y143.886 E9.70353
G1 X138.466 Y144.917 E9.75861
G1 X138.379 Y144.982 E9.76223
G1 X137.243 Y145.798 E9.80875
G1 X136.881 Y146.009 E9.82268
G1 X136.486 Y146.147 E9.8366
G1 X136.071 Y146.208 E9.85055
G1 X135.653 Y146.189 E9.86447
G1 X135.245 Y146.092 E9.87842
G1 X134.822 Y145.909 E9.89374
G1 X134.46 Y145.697 E9.9077
G1 X134.145 Y145.421 E9.92163
G1 X133.841 Y145.587 E9.93315
G1 X133.629 Y145.702 E9.94117
G1 X133.687 Y145.887 E9.94762
G1 X133.735 Y146.304 E9.96158
G1 X133.707 Y146.763 E9.97687
G1 X133.632 Y147.175 E9.9908
G1 X133.479 Y147.566 E10.00477
G1 X133.256 Y147.92 E10.01868
G1 X132.969 Y148.226 E10.03264
G1 X132.63 Y148.472 E10.04657
G1 X132.423 Y148.579 E10.05432
G1 X131.137 Y149.162 E10.10128
G1 X131.034 Y149.205 E10.10499
G1 X129.511 Y149.804 E10.15942
G1 X129.406 Y149.843 E10.16315
G1 X127.841 Y150.368 E10.21805
G1 X127.731 Y150.401 E10.22187
G1 X126.381 Y150.777 E10.26848
G1 X125.969 Y150.851 E10.28241
G1 X125.55 Y150.845 E10.29634
G1 X125.139 Y150.759 E10.31031
G1 X124.753 Y150.598 E10.32422
G1 X124.404 Y150.366 E10.33816
G1 X124.07 Y150.049 E10.35347
G1 X123.804 Y149.725 E10.36742
G1 X123.6 Y149.35 E10.38161
G1 X123.256 Y149.417 E10.39327
G1 X123.024 Y149.451 E10.40107
G1 X123.015 Y149.65 E10.4077
G1 X122.917 Y150.057 E10.42162
G1 X122.73 Y150.484 E10.43712
G1 X122.516 Y150.845 E10.45108
G1 X122.239 Y151.159 E10.46501
G1 X121.906 Y151.414 E10.47896
G1 X121.532 Y151.602 E10.49288
G1 X121.128 Y151.715 E10.50683
G1 X120.907 Y151.743 E10.51424
G1 X119.507 Y151.851 E10.56095
G1 X119.394 Y151.857 E10.56471
G1 X117.744 Y151.899 E10.61961
G1 X117.632 Y151.899 E10.62333
G1 X115.984 Y151.857 E10.67816
G1 X115.87 Y151.851 E10.68196
G1 X114.474 Y151.743 E10.72853
G1 X114.061 Y151.671 E10.74247
G1 X113.67 Y151.523 E10.75638
G1 X113.313 Y151.302 E10.77034
G1 X113.005 Y151.018 E10.78428
G1 X112.757 Y150.681 E10.79819
G1 X112.553 Y150.273 E10.81337
G1 X112.412 Y149.879 E10.82728
G1 X112.349 Y149.465 E10.84121
G1 X112.002 Y149.395 E10.85299
G1 X111.772 Y149.348 E10.86079
G1 X111.696 Y149.53 E10.86735
G1 X111.465 Y149.879 E10.88127
G1 X111.147 Y150.214 E10.89664
G1 X110.823 Y150.48 E10.91058
G1 X110.456 Y150.681 E10.9245
G1 X110.056 Y150.808 E10.93845
G1 X109.64 Y150.857 E10.95239
G1 X109.222 Y150.827 E10.96633
G1 X109 Y150.777 E10.97389
G1 X107.644 Y150.399 E11.02071
G1 X107.535 Y150.366 E11.0245
G1 X105.971 Y149.841 E11.07937
G1 X105.865 Y149.802 E11.08313
G1 X104.341 Y149.202 E11.13761
G1 X104.238 Y149.159 E11.14132
G1 X102.957 Y148.578 E11.1881
G1 X102.594 Y148.369 E11.20203
G1 X102.277 Y148.095 E11.21597
G1 X102.017 Y147.766 E11.22992
G1 X101.825 Y147.394 E11.24384
G1 X101.706 Y146.992 E11.25778
G1 X101.654 Y146.531 E11.27321
G1 X101.658 Y146.112 E11.28715
G1 X101.743 Y145.696 E11.30127
G1 X101.432 Y145.524 E11.31309
G1 X101.237 Y145.404 E11.32071
G1 X101.103 Y145.549 E11.32728
G1 X100.766 Y145.798 E11.34121
G1 X100.357 Y146.003 E11.35643
G1 X99.963 Y146.144 E11.37035
G1 X99.549 Y146.207 E11.38427
G1 X99.13 Y146.191 E11.39822
G1 X98.722 Y146.096 E11.41215
G1 X98.339 Y145.926 E11.42609
G1 X98.141 Y145.799 E11.43392
G1 X96.99 Y144.974 E11.48102
G1 X96.902 Y144.907 E11.48469
G1 X95.616 Y143.883 E11.53937
G1 X95.528 Y143.81 E11.54317
G1 X94.304 Y142.727 E11.59753
G1 X94.223 Y142.651 E11.60123
G1 X93.217 Y141.666 E11.64805
G1 X92.947 Y141.346 E11.66198
G1 X92.742 Y140.98 E11.67593
G1 X92.611 Y140.582 E11.68987
G1 X92.557 Y140.166 E11.70382
G1 X92.583 Y139.748 E11.71775
G1 X92.69 Y139.303 E11.73297
G1 X92.835 Y138.911 E11.74687
G1 X93.053 Y138.552 E11.76084
G1 X92.826 Y138.271 E11.77286
G1 X92.685 Y138.094 E11.78038
G1 X92.509 Y138.185 E11.78697
G1 X92.107 Y138.303 E11.80091
G1 X91.645 Y138.355 E11.81637
G1 X91.226 Y138.351 E11.83031
G1 X90.815 Y138.267 E11.84426
G1 X90.428 Y138.108 E11.85818
G1 X90.078 Y137.877 E11.87213
G1 X89.778 Y137.585 E11.88605
G1 X89.641 Y137.404 E11.8936
G1 X88.842 Y136.235 E11.9407
G1 X88.781 Y136.142 E11.94439
G1 X87.93 Y134.75 E11.99866
G1 X87.875 Y134.654 E12.00234
G1 X87.083 Y133.199 E12.05744
G1 X87.031 Y133.099 E12.06119
G1 X86.426 Y131.838 E12.1077
G1 X86.282 Y131.444 E12.12166
G1 X86.215 Y131.031 E12.13557
G1 X86.227 Y130.612 E12.14951
G1 X86.319 Y130.203 E12.16346
G1 X86.486 Y129.819 E12.17739
G1 X86.741 Y129.434 E12.19274
G1 X87.013 Y129.116 E12.20666
G1 X87.34 Y128.854 E12.2206
G1 X87.222 Y128.516 E12.23251
G1 X87.15 Y128.299 E12.24011
G1 X86.955 Y128.324 E12.24665
G1 X86.537 Y128.298 E12.26058
G1 X86.092 Y128.191 E12.2758
G1 X85.7 Y128.046 E12.2897
G1 X85.341 Y127.828 E12.30367
G1 X85.031 Y127.547 E12.31759
G1 X84.779 Y127.212 E12.33153
G1 X84.596 Y126.835 E12.34547
G1 X84.526 Y126.611 E12.35327
G1 X84.175 Y125.241 E12.40031
G1 X84.15 Y125.132 E12.40403
G1 X83.823 Y123.519 E12.45877
G1 X83.803 Y123.408 E12.46252
G1 X83.559 Y121.782 E12.51721
G1 X83.545 Y121.67 E12.52096
G1 X83.409 Y120.277 E12.56752
G1 X83.409 Y119.858 E12.58145
G1 X83.487 Y119.446 E12.5954
G1 X83.643 Y119.057 E12.60934
G1 X83.869 Y118.704 E12.62328
G1 X84.158 Y118.401 E12.63721
G1 X84.527 Y118.128 E12.65247
G1 X84.892 Y117.921 E12.66643
G1 X85.298 Y117.784 E12.68068
G1 X85.292 Y117.537 E12.6889
G1 X85.298 Y117.204 E12.69998
G1 X85.106 Y117.161 E12.70652
