;FLAVOR:Marlin
;TIME:9063
;Filament used: 7.58458m
;Layer height: 0.3
;MINX:72.204
;MINY:72.204
;MINZ:0.2
;MAXX:162.796
;MAXY:162.796
;MAXZ:20.9
;Generated with Cura_SteamEngine 4.11.0
M140 S60
M105
M190 S60
M104 S205
M105
M109 S205
M82 ;absolute extrusion mode
; Ender 3 Custom Start G-code
G92 E0 ; Reset Extruder
G28 ; Home all axes
G1 Z2.0 F3000 ; Move Z Axis up little to prevent scratching of Heat Bed
G1 X0.1 Y20 Z0.3 F5000.0 ; Move to start position
G1 X0.1 Y200.0 Z0.3 F1500.0 E15 ; Draw the first line
G1 X0.4 Y200.0 Z0.3 F5000.0 ; Move to side a little
G1 X0.4 Y20 Z0.3 F1500.0 E30 ; Draw the second line
G92 E0 ; Reset Extruder
G1 Z2.0 F3000 ; Move Z Axis up little to prevent scratching of Heat Bed
G1 X5 Y20 Z0.3 F5000.0 ; Move over to prevent blob squish
G92 E0
G92 E0
G1 F2700 E-5
;LAYER_COUNT:70
;LAYER:0
M107
G0 F6000 X85.301 Y85.64 Z0.2
;TYPE:SKIRT
G1 F2700 E0
G1 F1200 X85.639 Y85.303 E0.01587
G1 X87.29 Y83.75 E0.09126
G1 X87.639 Y83.44 E0.10679
G1 X89.378 Y81.99 E0.1821
G1 X89.752 Y81.697 E0.1979
G1 X91.577 Y80.355 E0.27324
G1 X91.961 Y80.09 E0.28876
G1 X93.864 Y78.859 E0.36414
G1 X94.267 Y78.615 E0.37981
G1 X96.239 Y77.502 E0.45513
G1 X96.662 Y77.28 E0.47102
G1 X98.7 Y76.289 E0.54639
G1 X99.123 Y76.099 E0.56181
G1 X101.214 Y75.232 E0.6371
G1 X101.656 Y75.064 E0.65283
G1 X103.799 Y74.324 E0.72823
G1 X104.256 Y74.182 E0.74415
G1 X106.436 Y73.576 E0.81941
G1 X106.883 Y73.466 E0.83472
G1 X109.098 Y72.989 E0.91008
G1 X109.567 Y72.903 E0.92594
G1 X111.808 Y72.562 E1.00133
G1 X112.275 Y72.505 E1.01698
G1 X114.531 Y72.3 E1.09232
G1 X115.003 Y72.272 E1.10805
G1 X117.266 Y72.204 E1.18335
G1 X117.734 Y72.204 E1.19892
G1 X119.997 Y72.272 E1.27422
G1 X120.469 Y72.3 E1.28994
G1 X122.725 Y72.505 E1.36529
G1 X123.192 Y72.562 E1.38094
G1 X125.433 Y72.903 E1.45633
G1 X125.899 Y72.988 E1.47209
G1 X128.114 Y73.464 E1.54744
G1 X128.57 Y73.577 E1.56306
G1 X130.75 Y74.185 E1.63834
G1 X131.195 Y74.323 E1.65383
G1 X133.338 Y75.061 E1.72922
G1 X133.788 Y75.232 E1.74523
G1 X135.879 Y76.1 E1.82053
G1 X136.3 Y76.289 E1.83588
G1 X138.338 Y77.28 E1.91125
G1 X138.761 Y77.502 E1.92714
G1 X140.733 Y78.615 E2.00246
G1 X141.136 Y78.859 E2.01813
G1 X143.039 Y80.09 E2.09351
G1 X143.422 Y80.355 E2.109
G1 X145.246 Y81.696 E2.1843
G1 X145.621 Y81.99 E2.20015
G1 X147.361 Y83.441 E2.2755
G1 X147.71 Y83.749 E2.29098
G1 X149.36 Y85.301 E2.36632
G1 X149.697 Y85.639 E2.3822
G1 X151.25 Y87.29 E2.45759
G1 X151.56 Y87.639 E2.47311
G1 X153.01 Y89.378 E2.54842
G1 X153.303 Y89.752 E2.56422
G1 X154.645 Y91.577 E2.63957
G1 X154.91 Y91.961 E2.65508
G1 X156.141 Y93.864 E2.73047
G1 X156.385 Y94.267 E2.74614
G1 X157.498 Y96.239 E2.82145
G1 X157.719 Y96.661 E2.83729
G1 X158.71 Y98.698 E2.91264
G1 X158.902 Y99.124 E2.92818
G1 X159.769 Y101.216 E3.0035
G1 X159.936 Y101.656 E3.01915
G1 X160.676 Y103.799 E3.09456
G1 X160.818 Y104.256 E3.11047
G1 X161.424 Y106.436 E3.18573
G1 X161.534 Y106.882 E3.20101
G1 X162.011 Y109.096 E3.27634
G1 X162.097 Y109.566 E3.29223
G1 X162.438 Y111.807 E3.36762
G1 X162.495 Y112.274 E3.38327
G1 X162.7 Y114.53 E3.45861
G1 X162.728 Y115.002 E3.47434
G1 X162.796 Y117.265 E3.54964
G1 X162.796 Y117.733 E3.56521
G1 X162.728 Y119.997 E3.64054
G1 X162.7 Y120.469 E3.65627
G1 X162.495 Y122.725 E3.73161
G1 X162.438 Y123.192 E3.74726
G1 X162.097 Y125.433 E3.82265
G1 X162.012 Y125.899 E3.83841
G1 X161.536 Y128.114 E3.91376
G1 X161.423 Y128.57 E3.92939
G1 X160.815 Y130.75 E4.00466
G1 X160.677 Y131.195 E4.02016
G1 X159.939 Y133.338 E4.09554
G1 X159.768 Y133.788 E4.11155
G1 X158.9 Y135.879 E4.18686
G1 X158.711 Y136.3 E4.2022
G1 X157.72 Y138.338 E4.27758
G1 X157.498 Y138.761 E4.29347
G1 X156.385 Y140.733 E4.36878
G1 X156.142 Y141.135 E4.3844
G1 X154.912 Y143.037 E4.45974
G1 X154.646 Y143.422 E4.4753
G1 X153.304 Y145.247 E4.55065
G1 X153.01 Y145.621 E4.56647
G1 X151.559 Y147.361 E4.64183
G1 X151.251 Y147.71 E4.65731
G1 X149.699 Y149.36 E4.73265
G1 X149.361 Y149.697 E4.74852
G1 X147.71 Y151.25 E4.82391
G1 X147.361 Y151.56 E4.83944
G1 X145.622 Y153.01 E4.91475
G1 X145.248 Y153.303 E4.93055
G1 X143.423 Y154.645 E5.00589
G1 X143.039 Y154.91 E5.02141
G1 X141.136 Y156.141 E5.09679
G1 X140.733 Y156.385 E5.11246
G1 X138.761 Y157.498 E5.18778
G1 X138.338 Y157.72 E5.20367
G1 X136.3 Y158.711 E5.27904
G1 X135.877 Y158.901 E5.29446
G1 X133.786 Y159.768 E5.36975
G1 X133.344 Y159.936 E5.38548
G1 X131.201 Y160.676 E5.46088
G1 X130.744 Y160.818 E5.4768
G1 X128.564 Y161.424 E5.55206
G1 X128.117 Y161.534 E5.56737
G1 X125.902 Y162.011 E5.64273
G1 X125.433 Y162.097 E5.65859
G1 X123.192 Y162.438 E5.73398
G1 X122.725 Y162.495 E5.74963
G1 X120.469 Y162.7 E5.82497
G1 X119.997 Y162.728 E5.8407
G1 X117.734 Y162.796 E5.916
G1 X117.266 Y162.796 E5.93157
G1 X115.003 Y162.728 E6.00687
G1 X114.531 Y162.7 E6.02259
G1 X112.275 Y162.495 E6.09794
G1 X111.808 Y162.438 E6.11359
G1 X109.567 Y162.097 E6.18898
G1 X109.101 Y162.012 E6.20473
G1 X106.886 Y161.536 E6.28009
G1 X106.43 Y161.423 E6.29571
G1 X104.25 Y160.815 E6.37099
G1 X103.805 Y160.677 E6.38648
G1 X101.662 Y159.939 E6.46187
G1 X101.212 Y159.768 E6.47788
G1 X99.121 Y158.9 E6.55318
G1 X98.7 Y158.711 E6.56853
G1 X96.662 Y157.72 E6.6439
G1 X96.239 Y157.498 E6.65979
G1 X94.267 Y156.385 E6.73511
G1 X93.864 Y156.141 E6.75077
G1 X91.961 Y154.91 E6.82616
G1 X91.577 Y154.645 E6.84167
G1 X89.752 Y153.303 E6.91702
G1 X89.378 Y153.01 E6.93282
G1 X87.639 Y151.56 E7.00813
G1 X87.29 Y151.25 E7.02365
G1 X85.639 Y149.697 E7.09904
G1 X85.301 Y149.36 E7.11492
G1 X83.749 Y147.71 E7.19026
G1 X83.441 Y147.361 E7.20574
G1 X81.99 Y145.621 E7.2811
G1 X81.696 Y145.247 E7.29692
G1 X80.354 Y143.422 E7.37226
G1 X80.088 Y143.037 E7.38783
G1 X78.858 Y141.135 E7.46316
G1 X78.615 Y140.733 E7.47879
G1 X77.502 Y138.761 E7.5541
G1 X77.28 Y138.338 E7.56999
G1 X76.289 Y136.3 E7.64536
G1 X76.099 Y135.877 E7.66079
G1 X75.232 Y133.786 E7.73607
G1 X75.064 Y133.344 E7.7518
G1 X74.324 Y131.201 E7.82721
G1 X74.182 Y130.744 E7.84312
G1 X73.576 Y128.564 E7.91838
G1 X73.466 Y128.117 E7.93369
G1 X72.989 Y125.902 E8.00905
G1 X72.903 Y125.433 E8.02491
G1 X72.562 Y123.192 E8.10031
G1 X72.505 Y122.725 E8.11595
G1 X72.3 Y120.469 E8.1913
G1 X72.272 Y119.997 E8.20702
G1 X72.204 Y117.735 E8.28229
G1 X72.204 Y117.267 E8.29786
G1 X72.272 Y115.003 E8.37319
G1 X72.3 Y114.531 E8.38892
G1 X72.505 Y112.275 E8.46426
G1 X72.562 Y111.808 E8.47991
G1 X72.903 Y109.567 E8.5553
G1 X72.988 Y109.101 E8.57106
G1 X73.464 Y106.886 E8.64641
G1 X73.577 Y106.43 E8.66204
G1 X74.185 Y104.25 E8.73731
G1 X74.323 Y103.805 E8.75281
G1 X75.061 Y101.662 E8.82819
G1 X75.232 Y101.212 E8.8442
G1 X76.1 Y99.121 E8.91951
G1 X76.289 Y98.7 E8.93485
G1 X77.28 Y96.662 E9.01023
G1 X77.502 Y96.239 E9.02612
G1 X78.615 Y94.267 E9.10143
G1 X78.858 Y93.865 E9.11705
G1 X80.088 Y91.963 E9.19239
G1 X80.354 Y91.578 E9.20795
G1 X81.696 Y89.753 E9.2833
G1 X81.99 Y89.379 E9.29912
G1 X83.441 Y87.639 E9.37448
G1 X83.749 Y87.29 E9.38996
G1 X85.301 Y85.64 E9.4653
G0 F6000 X85.593 Y85.914
G1 F1200 X85.913 Y85.594 E9.48035
G1 X87.564 Y84.041 E9.55574
G1 X87.895 Y83.748 E9.57044
G1 X89.634 Y82.298 E9.64575
G1 X89.989 Y82.019 E9.66077
G1 X91.814 Y80.677 E9.73611
G1 X92.179 Y80.426 E9.75084
G1 X94.082 Y79.195 E9.82623
G1 X94.464 Y78.964 E9.84107
G1 X96.436 Y77.851 E9.91639
G1 X96.837 Y77.64 E9.93146
G1 X98.875 Y76.649 E10.00683
G1 X99.277 Y76.468 E10.0215
G1 X101.368 Y75.601 E10.09679
G1 X101.787 Y75.442 E10.11169
G1 X103.93 Y74.702 E10.1871
G1 X104.363 Y74.567 E10.20218
G1 X106.543 Y73.961 E10.27744
G1 X106.967 Y73.857 E10.29196
G1 X109.182 Y73.38 E10.36732
G1 X109.627 Y73.298 E10.38237
G1 X111.868 Y72.957 E10.45776
G1 X112.311 Y72.903 E10.47261
G1 X114.567 Y72.698 E10.54795
G1 X115.015 Y72.671 E10.56288
G1 X117.278 Y72.603 E10.63818
G1 X117.722 Y72.603 E10.65295
G1 X119.985 Y72.671 E10.72825
G1 X120.433 Y72.698 E10.74318
G1 X122.689 Y72.903 E10.81852
G1 X123.132 Y72.957 E10.83336
G1 X125.373 Y73.298 E10.90876
G1 X125.815 Y73.379 E10.9237
G1 X128.03 Y73.855 E10.99906
G1 X128.463 Y73.962 E11.01389
G1 X130.643 Y74.57 E11.08917
G1 X131.065 Y74.701 E11.10386
G1 X133.208 Y75.439 E11.17925
G1 X133.635 Y75.601 E11.19444
G1 X135.726 Y76.469 E11.26974
G1 X136.125 Y76.649 E11.2843
G1 X138.163 Y77.64 E11.35967
G1 X138.564 Y77.851 E11.37474
G1 X140.536 Y78.964 E11.45005
G1 X140.918 Y79.195 E11.4649
G1 X142.821 Y80.426 E11.54029
G1 X143.185 Y80.677 E11.55499
G1 X145.009 Y82.018 E11.63029
G1 X145.365 Y82.297 E11.64533
G1 X147.105 Y83.748 E11.72069
G1 X147.436 Y84.041 E11.73539
G1 X149.086 Y85.593 E11.81073
G1 X149.406 Y85.913 E11.82578
G1 X150.959 Y87.564 E11.90117
G1 X151.252 Y87.895 E11.91587
G1 X152.702 Y89.634 E11.99118
G1 X152.981 Y89.989 E12.0062
G1 X154.323 Y91.814 E12.08154
G1 X154.574 Y92.179 E12.09628
G1 X155.805 Y94.082 E12.17166
G1 X156.036 Y94.464 E12.18651
G1 X157.149 Y96.436 E12.26182
G1 X157.359 Y96.836 E12.27685
G1 X158.35 Y98.873 E12.35219
G1 X158.532 Y99.277 E12.36693
G1 X159.399 Y101.369 E12.44225
G1 X159.558 Y101.787 E12.45712
G1 X160.298 Y103.93 E12.53253
G1 X160.433 Y104.363 E12.54761
G1 X161.039 Y106.543 E12.62287
G1 X161.143 Y106.966 E12.63736
G1 X161.62 Y109.18 E12.71269
G1 X161.702 Y109.626 E12.72777
G1 X162.043 Y111.867 E12.80316
G1 X162.097 Y112.31 E12.81801
G1 X162.302 Y114.566 E12.89335
G1 X162.329 Y115.014 E12.90828
G1 X162.397 Y117.277 E12.98358
G1 X162.397 Y117.721 E12.99835
G1 X162.329 Y119.985 E13.07368
G1 X162.302 Y120.433 E13.08861
G1 X162.097 Y122.689 E13.16395
G1 X162.043 Y123.132 E13.1788
G1 X161.702 Y125.373 E13.25419
G1 X161.621 Y125.815 E13.26914
G1 X161.145 Y128.03 E13.34449
G1 X161.038 Y128.463 E13.35932
G1 X160.43 Y130.643 E13.4346
G1 X160.299 Y131.065 E13.44929
G1 X159.561 Y133.208 E13.52468
G1 X159.399 Y133.635 E13.53987
G1 X158.531 Y135.726 E13.61517
G1 X158.351 Y136.125 E13.62973
G1 X157.36 Y138.163 E13.7051
G1 X157.149 Y138.564 E13.72017
G1 X156.036 Y140.536 E13.79549
G1 X155.806 Y140.917 E13.81029
G1 X154.576 Y142.819 E13.88563
G1 X154.324 Y143.185 E13.90041
G1 X152.982 Y145.01 E13.97575
G1 X152.703 Y145.365 E13.99077
G1 X151.252 Y147.105 E14.06612
G1 X150.959 Y147.436 E14.08082
G1 X149.407 Y149.086 E14.15617
G1 X149.087 Y149.406 E14.17122
G1 X147.436 Y150.959 E14.24661
G1 X147.105 Y151.252 E14.26131
G1 X145.366 Y152.702 E14.33662
G1 X145.011 Y152.981 E14.35163
G1 X143.186 Y154.323 E14.42698
G1 X142.821 Y154.574 E14.44171
G1 X140.918 Y155.805 E14.51709
G1 X140.536 Y156.036 E14.53194
G1 X138.564 Y157.149 E14.60726
G1 X138.163 Y157.36 E14.62233
G1 X136.125 Y158.351 E14.6977
G1 X135.723 Y158.532 E14.71236
G1 X133.632 Y159.399 E14.78765
G1 X133.213 Y159.558 E14.80256
G1 X131.07 Y160.298 E14.87796
G1 X130.637 Y160.433 E14.89305
G1 X128.457 Y161.039 E14.96831
G1 X128.033 Y161.143 E14.98283
G1 X125.818 Y161.62 E15.05819
G1 X125.373 Y161.702 E15.07324
G1 X123.132 Y162.043 E15.14863
G1 X122.689 Y162.097 E15.16347
G1 X120.433 Y162.302 E15.23882
G1 X119.985 Y162.329 E15.25374
G1 X117.722 Y162.397 E15.32905
G1 X117.278 Y162.397 E15.34381
G1 X115.015 Y162.329 E15.41912
G1 X114.567 Y162.302 E15.43404
G1 X112.311 Y162.097 E15.50939
G1 X111.868 Y162.043 E15.52423
G1 X109.627 Y161.702 E15.59962
G1 X109.185 Y161.621 E15.61457
G1 X106.97 Y161.145 E15.68992
G1 X106.537 Y161.038 E15.70476
G1 X104.357 Y160.43 E15.78003
G1 X103.935 Y160.299 E15.79473
G1 X101.792 Y159.561 E15.87011
G1 X101.365 Y159.399 E15.8853
G1 X99.274 Y158.531 E15.9606
G1 X98.875 Y158.351 E15.97516
G1 X96.837 Y157.36 E16.05054
G1 X96.436 Y157.149 E16.06561
G1 X94.464 Y156.036 E16.14092
G1 X94.082 Y155.805 E16.15577
G1 X92.179 Y154.574 E16.23115
G1 X91.814 Y154.323 E16.24589
G1 X89.989 Y152.981 E16.32123
G1 X89.634 Y152.702 E16.33625
G1 X87.895 Y151.252 E16.41155
G1 X87.564 Y150.959 E16.42626
G1 X85.913 Y149.406 E16.50165
G1 X85.593 Y149.086 E16.5167
G1 X84.041 Y147.436 E16.59204
G1 X83.748 Y147.105 E16.60674
G1 X82.297 Y145.365 E16.6821
G1 X82.018 Y145.01 E16.69711
G1 X80.676 Y143.185 E16.77246
G1 X80.424 Y142.819 E16.78724
G1 X79.194 Y140.917 E16.86257
G1 X78.964 Y140.536 E16.87738
G1 X77.851 Y138.564 E16.95269
G1 X77.64 Y138.163 E16.96776
G1 X76.649 Y136.125 E17.04313
G1 X76.468 Y135.723 E17.0578
G1 X75.601 Y133.632 E17.13309
G1 X75.442 Y133.213 E17.14799
G1 X74.702 Y131.07 E17.2234
G1 X74.567 Y130.637 E17.23848
G1 X73.961 Y128.457 E17.31374
G1 X73.857 Y128.033 E17.32826
G1 X73.38 Y125.818 E17.40362
G1 X73.298 Y125.373 E17.41867
G1 X72.957 Y123.132 E17.49406
G1 X72.903 Y122.689 E17.50891
G1 X72.698 Y120.433 E17.58425
G1 X72.671 Y119.985 E17.59918
G1 X72.603 Y117.723 E17.67445
G1 X72.603 Y117.279 E17.68921
G1 X72.671 Y115.015 E17.76455
G1 X72.698 Y114.567 E17.77948
G1 X72.903 Y112.311 E17.85482
G1 X72.957 Y111.868 E17.86966
G1 X73.298 Y109.627 E17.94506
G1 X73.379 Y109.185 E17.96
G1 X73.855 Y106.97 E18.03536
G1 X73.962 Y106.537 E18.05019
G1 X74.57 Y104.357 E18.12547
G1 X74.701 Y103.935 E18.14016
G1 X75.439 Y101.792 E18.21555
G1 X75.601 Y101.365 E18.23074
G1 X76.469 Y99.274 E18.30604
G1 X76.649 Y98.875 E18.3206
G1 X77.64 Y96.837 E18.39597
G1 X77.851 Y96.436 E18.41104
G1 X78.964 Y94.464 E18.48636
G1 X79.194 Y94.083 E18.50116
G1 X80.424 Y92.181 E18.57649
G1 X80.676 Y91.815 E18.59127
G1 X82.018 Y89.99 E18.66662
G1 X82.297 Y89.635 E18.68164
G1 X83.748 Y87.895 E18.75699
G1 X84.041 Y87.564 E18.77169
G1 X85.593 Y85.914 E18.84703
G0 F6000 X85.884 Y86.188
G1 F1200 X86.187 Y85.885 E18.86129
G1 X87.838 Y84.332 E18.93667
G1 X88.151 Y84.055 E18.95058
G1 X89.89 Y82.605 E19.02588
G1 X90.226 Y82.342 E19.04008
G1 X92.051 Y81 E19.11542
G1 X92.396 Y80.762 E19.12936
G1 X94.299 Y79.531 E19.20474
G1 X94.66 Y79.312 E19.21879
G1 X96.632 Y78.199 E19.2941
G1 X97.012 Y78 E19.30837
G1 X99.05 Y77.009 E19.38374
G1 X99.43 Y76.838 E19.3976
G1 X101.521 Y75.971 E19.47289
G1 X101.917 Y75.82 E19.48699
G1 X104.06 Y75.08 E19.56239
G1 X104.47 Y74.953 E19.57667
G1 X106.65 Y74.347 E19.65192
G1 X107.051 Y74.248 E19.66566
G1 X109.266 Y73.771 E19.74102
G1 X109.687 Y73.694 E19.75526
G1 X111.928 Y73.353 E19.83065
G1 X112.348 Y73.302 E19.84472
G1 X114.604 Y73.097 E19.92007
G1 X115.027 Y73.071 E19.93416
G1 X117.29 Y73.003 E20.00946
G1 X117.71 Y73.003 E20.02343
G1 X119.973 Y73.071 E20.09873
G1 X120.396 Y73.097 E20.11283
G1 X122.652 Y73.302 E20.18817
G1 X123.072 Y73.353 E20.20225
G1 X125.313 Y73.694 E20.27764
G1 X125.731 Y73.77 E20.29177
G1 X127.946 Y74.246 E20.36712
G1 X128.356 Y74.347 E20.38117
G1 X130.536 Y74.955 E20.45644
G1 X130.934 Y75.079 E20.47031
G1 X133.077 Y75.817 E20.54569
G1 X133.482 Y75.971 E20.5601
G1 X135.573 Y76.839 E20.6354
G1 X135.95 Y77.009 E20.64916
G1 X137.988 Y78 E20.72453
G1 X138.368 Y78.199 E20.7388
G1 X140.34 Y79.312 E20.81411
G1 X140.701 Y79.531 E20.82816
G1 X142.604 Y80.762 E20.90354
G1 X142.948 Y80.999 E20.91743
G1 X144.772 Y82.34 E20.99273
G1 X145.109 Y82.604 E21.00697
G1 X146.849 Y84.055 E21.08232
G1 X147.162 Y84.332 E21.09623
G1 X148.812 Y85.884 E21.17157
G1 X149.115 Y86.187 E21.18582
G1 X150.668 Y87.838 E21.26121
G1 X150.945 Y88.151 E21.27511
G1 X152.395 Y89.89 E21.35042
G1 X152.658 Y90.226 E21.36461
G1 X154 Y92.051 E21.43995
G1 X154.238 Y92.396 E21.45389
G1 X155.469 Y94.299 E21.52928
G1 X155.688 Y94.66 E21.54332
G1 X156.801 Y96.632 E21.61863
G1 X157 Y97.011 E21.63287
G1 X157.991 Y99.048 E21.70822
G1 X158.163 Y99.43 E21.72215
G1 X159.03 Y101.522 E21.79747
G1 X159.18 Y101.917 E21.81152
G1 X159.92 Y104.06 E21.88693
G1 X160.047 Y104.47 E21.9012
G1 X160.653 Y106.65 E21.97646
G1 X160.752 Y107.051 E21.9902
G1 X161.229 Y109.265 E22.06553
G1 X161.306 Y109.686 E22.07976
G1 X161.647 Y111.927 E22.15515
G1 X161.698 Y112.347 E22.16923
G1 X161.903 Y114.603 E22.24457
G1 X161.929 Y115.026 E22.25867
G1 X161.997 Y117.289 E22.33397
G1 X161.997 Y117.709 E22.34794
G1 X161.929 Y119.973 E22.42327
G1 X161.903 Y120.396 E22.43737
G1 X161.698 Y122.652 E22.51271
G1 X161.647 Y123.072 E22.52678
G1 X161.306 Y125.313 E22.60218
G1 X161.23 Y125.731 E22.61631
G1 X160.754 Y127.946 E22.69166
G1 X160.653 Y128.356 E22.7057
G1 X160.045 Y130.536 E22.78098
G1 X159.921 Y130.934 E22.79484
G1 X159.183 Y133.077 E22.87023
G1 X159.029 Y133.482 E22.88464
G1 X158.161 Y135.573 E22.95994
G1 X157.991 Y135.95 E22.9737
G1 X157 Y137.988 E23.04907
G1 X156.801 Y138.368 E23.06334
G1 X155.688 Y140.34 E23.13865
