;FLAVOR:Marlin
;TIME:6366
;Filament used: 5.56291m
;Layer height: 0.3
;MINX:41.841
;MINY:81.845
;MINZ:0.2
;MAXX:193.159
;MAXY:152.975
;MAXZ:4.7
;Generated with Cura_SteamEngine 4.11.0
M140 S60
M105
M190 S60
M104 S205
M105
M109 S205
M82 ;absolute extrusion mode
; Ender 3 Custom Start G-code
G92 E0 ; Reset Extruder
G28 ; Home all axes
G1 Z2.0 F3000 ; Move Z Axis up little to prevent scratching of Heat Bed
G1 X0.1 Y20 Z0.3 F5000.0 ; Move to start position
G1 X0.1 Y200.0 Z0.3 F1500.0 E15 ; Draw the first line
G1 X0.4 Y200.0 Z0.3 F5000.0 ; Move to side a little
G1 X0.4 Y20 Z0.3 F1500.0 E30 ; Draw the second line
G92 E0 ; Reset Extruder
G1 Z2.0 F3000 ; Move Z Axis up little to prevent scratching of Heat Bed
G1 X5 Y20 Z0.3 F5000.0 ; Move over to prevent blob squish
G92 E0
G92 E0
G1 F2700 E-5
;LAYER_COUNT:16
;LAYER:0
M107
G0 F6000 X60.426 Y83.354 Z0.2
;TYPE:SKIRT
G1 F2700 E0
G1 F1200 X61.086 Y82.92 E0.02627
G1 X61.786 Y82.555 E0.05253
G1 X62.519 Y82.262 E0.07878
G1 X63.279 Y82.046 E0.10506
G1 X64.056 Y81.907 E0.13132
G1 X65.037 Y81.845 E0.16401
G1 X67.5 Y81.845 E0.24593
G1 X68.289 Y81.885 E0.27221
G1 X69.069 Y82.004 E0.29845
G1 X69.828 Y82.201 E0.32453
G1 X70.315 Y82.058 E0.34141
G1 X71.091 Y81.914 E0.36766
G1 X72.125 Y81.845 E0.40213
G1 X72.874 Y81.845 E0.42704
G1 X73.663 Y81.885 E0.45332
G1 X74.443 Y82.004 E0.47956
G1 X75.004 Y82.149 E0.49883
G1 X75.315 Y82.058 E0.50961
G1 X76.091 Y81.914 E0.53586
G1 X77.125 Y81.845 E0.57033
G1 X77.874 Y81.845 E0.59524
G1 X78.663 Y81.885 E0.62152
G1 X79.443 Y82.004 E0.64776
G1 X80.004 Y82.149 E0.66703
G1 X80.315 Y82.058 E0.67781
G1 X81.091 Y81.914 E0.70406
G1 X82.125 Y81.845 E0.73853
G1 X82.874 Y81.845 E0.76344
G1 X83.663 Y81.885 E0.78971
G1 X84.443 Y82.004 E0.81596
G1 X85.004 Y82.149 E0.83523
G1 X85.315 Y82.058 E0.84601
G1 X86.091 Y81.914 E0.87226
G1 X87.125 Y81.845 E0.90673
G1 X87.874 Y81.845 E0.93164
G1 X88.663 Y81.885 E0.95791
G1 X89.443 Y82.004 E0.98416
G1 X90.004 Y82.149 E1.00343
G1 X90.315 Y82.058 E1.01421
G1 X91.091 Y81.914 E1.04046
G1 X92.125 Y81.845 E1.07492
G1 X92.874 Y81.845 E1.09984
G1 X93.663 Y81.885 E1.12611
G1 X94.443 Y82.004 E1.15235
G1 X95.004 Y82.149 E1.17163
G1 X95.315 Y82.058 E1.1824
G1 X96.091 Y81.914 E1.20865
G1 X97.125 Y81.845 E1.24312
G1 X97.874 Y81.845 E1.26803
G1 X98.663 Y81.885 E1.29431
G1 X99.443 Y82.004 E1.32055
G1 X100.004 Y82.149 E1.33983
G1 X100.315 Y82.058 E1.3506
G1 X101.091 Y81.914 E1.37685
G1 X102.125 Y81.845 E1.41132
G1 X102.874 Y81.845 E1.43623
G1 X103.663 Y81.885 E1.46251
G1 X104.443 Y82.004 E1.48875
G1 X105.004 Y82.149 E1.50802
G1 X105.315 Y82.058 E1.5188
G1 X106.091 Y81.914 E1.54505
G1 X107.125 Y81.845 E1.57952
G1 X107.874 Y81.845 E1.60443
G1 X108.663 Y81.885 E1.63071
G1 X109.443 Y82.004 E1.65695
G1 X110.004 Y82.149 E1.67622
G1 X110.315 Y82.058 E1.687
G1 X111.091 Y81.914 E1.71325
G1 X112.125 Y81.845 E1.74772
G1 X112.874 Y81.845 E1.77263
G1 X113.663 Y81.885 E1.79891
G1 X114.443 Y82.004 E1.82515
G1 X115.004 Y82.149 E1.84442
G1 X115.315 Y82.058 E1.8552
G1 X116.091 Y81.914 E1.88145
G1 X117.125 Y81.845 E1.91592
G1 X117.874 Y81.845 E1.94083
G1 X118.663 Y81.885 E1.9671
G1 X119.443 Y82.004 E1.99335
G1 X120.004 Y82.149 E2.01262
G1 X120.315 Y82.058 E2.0234
G1 X121.091 Y81.914 E2.04965
G1 X122.125 Y81.845 E2.08412
G1 X122.874 Y81.845 E2.10903
G1 X123.663 Y81.885 E2.1353
G1 X124.443 Y82.004 E2.16155
G1 X125.004 Y82.149 E2.18082
G1 X125.315 Y82.058 E2.1916
G1 X126.091 Y81.914 E2.21785
G1 X127.125 Y81.845 E2.25231
G1 X127.874 Y81.845 E2.27723
G1 X128.663 Y81.885 E2.3035
G1 X129.443 Y82.004 E2.32974
G1 X130.004 Y82.149 E2.34902
G1 X130.315 Y82.058 E2.35979
G1 X131.091 Y81.914 E2.38604
G1 X132.125 Y81.845 E2.42051
G1 X132.874 Y81.845 E2.44542
G1 X133.663 Y81.885 E2.4717
G1 X134.443 Y82.004 E2.49794
G1 X135.004 Y82.149 E2.51722
G1 X135.315 Y82.058 E2.52799
G1 X136.091 Y81.914 E2.55424
G1 X137.125 Y81.845 E2.58871
G1 X137.874 Y81.845 E2.61362
G1 X138.663 Y81.885 E2.6399
G1 X139.443 Y82.004 E2.66614
G1 X140.004 Y82.149 E2.68541
G1 X140.315 Y82.058 E2.69619
G1 X141.091 Y81.914 E2.72244
G1 X142.125 Y81.845 E2.75691
G1 X142.874 Y81.845 E2.78182
G1 X143.663 Y81.885 E2.8081
G1 X144.443 Y82.004 E2.83434
G1 X145.004 Y82.149 E2.85361
G1 X145.315 Y82.058 E2.86439
G1 X146.091 Y81.914 E2.89064
G1 X147.125 Y81.845 E2.92511
G1 X147.874 Y81.845 E2.95002
G1 X148.663 Y81.885 E2.9763
G1 X149.443 Y82.004 E3.00254
G1 X150.004 Y82.149 E3.02181
G1 X150.315 Y82.058 E3.03259
G1 X151.091 Y81.914 E3.05884
G1 X152.125 Y81.845 E3.09331
G1 X152.874 Y81.845 E3.11822
G1 X153.663 Y81.885 E3.14449
G1 X154.443 Y82.004 E3.17074
G1 X155.004 Y82.149 E3.19001
G1 X155.315 Y82.058 E3.20079
G1 X156.091 Y81.914 E3.22704
G1 X157.125 Y81.845 E3.26151
G1 X157.874 Y81.845 E3.28642
G1 X158.663 Y81.885 E3.31269
G1 X159.443 Y82.004 E3.33894
G1 X160.004 Y82.149 E3.35821
G1 X160.315 Y82.058 E3.36899
G1 X161.091 Y81.914 E3.39524
G1 X162.125 Y81.845 E3.4297
G1 X162.874 Y81.845 E3.45462
G1 X163.663 Y81.885 E3.48089
G1 X164.443 Y82.004 E3.50713
G1 X165.203 Y82.201 E3.53325
G1 X165.539 Y82.095 E3.54497
G1 X166.313 Y81.936 E3.57125
G1 X167.098 Y81.855 E3.59749
G1 X167.5 Y81.845 E3.61087
G1 X169.963 Y81.845 E3.69279
G1 X170.752 Y81.885 E3.71907
G1 X171.532 Y82.004 E3.74531
G1 X172.297 Y82.202 E3.77159
G1 X173.037 Y82.476 E3.79784
G1 X173.746 Y82.824 E3.82411
G1 X174.557 Y83.341 E3.85609
G1 X174.734 Y83.47 E3.86338
G1 X175.348 Y83.967 E3.88965
G1 X175.908 Y84.524 E3.91592
G1 X176.41 Y85.134 E3.9422
G1 X176.799 Y85.713 E3.9654
G1 X177.271 Y86.487 E3.99555
G1 X177.374 Y86.66 E4.00225
G1 X178.671 Y88.916 E4.0888
G1 X178.727 Y89.021 E4.09276
G1 X180.161 Y91.586 E4.1905
G1 X180.261 Y91.77 E4.19746
G1 X180.672 Y92.554 E4.2269
G1 X181.003 Y93.199 E4.25102
G1 X182.239 Y95.504 E4.33801
G1 X182.35 Y95.718 E4.34603
G1 X182.893 Y96.81 E4.38659
G1 X183.289 Y97.569 E4.41506
G1 X183.408 Y97.807 E4.42391
G1 X184.001 Y99.043 E4.46951
G1 X184.307 Y99.645 E4.49197
G1 X184.432 Y99.902 E4.50147
G1 X185.049 Y101.233 E4.55027
G1 X185.289 Y101.719 E4.5683
G1 X185.42 Y101.997 E4.57852
G1 X186.05 Y103.41 E4.62997
G1 X186.23 Y103.787 E4.64387
G1 X186.363 Y104.079 E4.65454
G1 X186.977 Y105.517 E4.70655
G1 X187.124 Y105.837 E4.71826
G1 X187.253 Y106.136 E4.72909
G1 X187.828 Y107.544 E4.77967
G1 X187.967 Y107.86 E4.79116
G1 X188.098 Y108.179 E4.80263
G1 X188.66 Y109.63 E4.85438
G1 X188.742 Y109.829 E4.86154
G1 X188.864 Y110.143 E4.87274
G1 X189.391 Y111.588 E4.9239
G1 X189.473 Y111.801 E4.93149
G1 X189.58 Y112.094 E4.94187
G1 X190.172 Y113.828 E5.00281
G1 X190.731 Y115.589 E5.06426
G1 X190.788 Y115.776 E5.07076
G1 X191.267 Y117.432 E5.1281
G1 X191.325 Y117.644 E5.13541
G1 X191.716 Y119.154 E5.18729
G1 X191.768 Y119.367 E5.19458
G1 X192.127 Y120.934 E5.24805
G1 X192.201 Y121.283 E5.25991
G1 X192.469 Y122.661 E5.30661
G1 X192.536 Y123.047 E5.31964
G1 X192.586 Y123.396 E5.33136
G1 X192.769 Y124.548 E5.37016
G1 X192.827 Y124.997 E5.38522
G1 X192.846 Y125.187 E5.39157
G1 X192.972 Y126.247 E5.42707
G1 X193.015 Y126.733 E5.4433
G1 X193.023 Y126.874 E5.448
G1 X193.101 Y127.878 E5.48149
G1 X193.124 Y128.337 E5.49678
G1 X193.128 Y128.55 E5.50386
G1 X193.157 Y129.521 E5.53617
G1 X193.159 Y129.914 E5.54924
G1 X193.134 Y131.147 E5.59026
G1 X193.114 Y131.573 E5.60445
G1 X193.024 Y132.772 E5.64444
G1 X192.974 Y133.242 E5.66016
G1 X192.814 Y134.415 E5.69953
G1 X192.714 Y134.989 E5.71891
G1 X192.651 Y135.284 E5.72894
G1 X192.499 Y136.046 E5.75479
G1 X192.351 Y136.657 E5.7757
G1 X192.112 Y137.528 E5.80574
G1 X191.976 Y137.971 E5.82115
G1 X191.874 Y138.27 E5.83166
G1 X191.621 Y138.984 E5.85685
G1 X191.514 Y139.27 E5.86701
G1 X191.433 Y139.473 E5.87428
G1 X191.31 Y139.764 E5.88479
G1 X190.977 Y140.507 E5.91187
G1 X190.88 Y140.718 E5.91959
G1 X190.564 Y141.333 E5.94259
G1 X190.43 Y141.568 E5.95159
G1 X190.144 Y142.089 E5.97135
G1 X189.827 Y142.616 E5.99181
G1 X189.358 Y143.329 E6.02019
G1 X189.173 Y143.598 E6.03105
G1 X188.867 Y144.013 E6.0482
G1 X188.349 Y144.666 E6.07592
G1 X188.13 Y144.931 E6.08736
G1 X187.815 Y145.288 E6.10319
G1 X187.371 Y145.763 E6.12482
G1 X187.222 Y145.919 E6.13199
G1 X186.975 Y146.169 E6.14368
G1 X186.649 Y146.48 E6.15867
G1 X186.049 Y147.019 E6.18549
G1 X185.784 Y147.248 E6.19714
G1 X185.41 Y147.551 E6.21315
G1 X184.804 Y148.011 E6.23846
G1 X184.529 Y148.214 E6.24983
G1 X184.099 Y148.51 E6.26719
G1 X183.264 Y149.044 E6.30015
G1 X182.854 Y149.289 E6.31604
G1 X182.487 Y149.493 E6.33001
G1 X181.919 Y149.801 E6.3515
G1 X181.55 Y149.988 E6.36526
G1 X181.028 Y150.235 E6.38446
G1 X180.431 Y150.505 E6.40626
G1 X180.136 Y150.631 E6.41692
G1 X179.582 Y150.853 E6.43678
G1 X178.954 Y151.09 E6.4591
G1 X178.707 Y151.178 E6.46782
G1 X178.321 Y151.309 E6.48138
G1 X178.117 Y151.375 E6.48851
G1 X177.457 Y151.579 E6.51149
G1 X177.289 Y151.629 E6.51732
G1 X176.906 Y151.738 E6.53056
G1 X176.65 Y151.806 E6.53937
G1 X175.961 Y151.977 E6.56298
G1 X175.77 Y152.022 E6.56951
G1 X175.012 Y152.19 E6.59533
G1 X174.798 Y152.234 E6.6026
G1 X174.081 Y152.372 E6.62688
G1 X173.766 Y152.426 E6.63751
G1 X172.951 Y152.549 E6.66493
G1 X172.204 Y152.655 E6.69002
G1 X171.87 Y152.695 E6.70121
G1 X170.433 Y152.836 E6.74923
G1 X170.091 Y152.862 E6.76064
G1 X168.627 Y152.941 E6.80941
G1 X168.333 Y152.951 E6.81919
G1 X166.849 Y152.975 E6.86855
G1 X166.578 Y152.975 E6.87757
G1 X165.071 Y152.947 E6.9277
G1 X164.796 Y152.937 E6.93685
G1 X162.922 Y152.836 E6.99927
G1 X162.69 Y152.82 E7.00701
G1 X161.662 Y152.733 E7.04132
G1 X160.579 Y152.629 E7.07751
G1 X159.482 Y152.504 E7.11423
G1 X158.46 Y152.372 E7.1485
G1 X157.317 Y152.209 E7.1869
G1 X156.347 Y152.056 E7.21957
G1 X155.284 Y151.878 E7.25541
G1 X155.107 Y151.846 E7.2614
G1 X152.889 Y151.422 E7.3365
G1 X152.705 Y151.385 E7.34275
G1 X151.529 Y151.13 E7.38277
G1 X150.327 Y150.864 E7.42371
G1 X149.054 Y150.56 E7.46724
G1 X147.948 Y150.284 E7.50516
G1 X146.693 Y149.957 E7.54829
G1 X145.311 Y149.573 E7.596
G1 X144.313 Y149.299 E7.63042
G1 X144.14 Y149.249 E7.63641
G1 X142.766 Y148.837 E7.68412
G1 X141.178 Y148.355 E7.73932
G1 X139.627 Y147.857 E7.7935
G1 X138.167 Y147.366 E7.84473
G1 X136.821 Y146.916 E7.89193
G1 X135.099 Y146.304 E7.95272
G1 X133.392 Y145.672 E8.01326
G1 X132.218 Y145.247 E8.05479
G1 X132.048 Y145.183 E8.06083
G1 X130.322 Y144.512 E8.12242
G1 X129.675 Y144.263 E8.14548
G1 X127.901 Y143.546 E8.20912
G1 X127.693 Y143.464 E8.21656
G1 X125.973 Y142.95 E8.27626
G1 X125.807 Y142.898 E8.28205
G1 X123.783 Y142.431 E8.35114
G1 X121.71 Y142.095 E8.42098
G1 X119.604 Y141.89 E8.49136
G1 X117.529 Y141.822 E8.56041
G1 X115.363 Y141.893 E8.63249
G1 X113.329 Y142.09 E8.70046
G1 X111.195 Y142.437 E8.77237
G1 X109.195 Y142.898 E8.84063
G1 X108.942 Y142.976 E8.84944
G1 X107.307 Y143.464 E8.90619
G1 X106.965 Y143.597 E8.9184
G1 X105.199 Y144.31 E8.98174
G1 X104.393 Y144.617 E9.01043
G1 X102.686 Y145.28 E9.07133
G1 X101.81 Y145.6 E9.10235
G1 X100.187 Y146.203 E9.15994
G1 X98.43 Y146.828 E9.22196
G1 X97.597 Y147.115 E9.25127
G1 X95.999 Y147.653 E9.30735
G1 X94.832 Y148.03 E9.34814
G1 X93.279 Y148.524 E9.40234
G1 X91.867 Y148.948 E9.45138
G1 X90.537 Y149.341 E9.4975
G1 X89.133 Y149.733 E9.54599
G1 X87.761 Y150.098 E9.59321
G1 X86.521 Y150.42 E9.63582
G1 X85.111 Y150.756 E9.68403
G1 X83.59 Y151.107 E9.73595
G1 X82.275 Y151.388 E9.78067
G1 X79.796 Y151.863 E9.86462
G1 X79.608 Y151.896 E9.87097
G1 X78.417 Y152.093 E9.91112
G1 X76.906 Y152.317 E9.96193
G1 X75.894 Y152.458 E9.99591
G1 X75.69 Y152.484 E10.00275
G1 X74.635 Y152.602 E10.03806
G1 X73.256 Y152.742 E10.08416
G1 X72.315 Y152.819 E10.11556
G1 X72.079 Y152.835 E10.12343
G1 X69.915 Y152.946 E10.1955
G1 X69.649 Y152.955 E10.20435
G1 X68.691 Y152.971 E10.23622
G1 X68.031 Y152.975 E10.25817
G1 X67.835 Y152.974 E10.26469
G1 X66.911 Y152.955 E10.29543
G1 X66.244 Y152.935 E10.31762
G1 X66.036 Y152.926 E10.32455
G1 X65.114 Y152.873 E10.35527
G1 X64.44 Y152.825 E10.37774
G1 X64.227 Y152.807 E10.38485
G1 X63.283 Y152.712 E10.41641
G1 X62.602 Y152.63 E10.43922
G1 X62.418 Y152.606 E10.44539
G1 X61.671 Y152.498 E10.4705
G1 X61.392 Y152.452 E10.4799
G1 X60.528 Y152.295 E10.50911
G1 X59.808 Y152.155 E10.5335
G1 X59.483 Y152.084 E10.54457
G1 X59.024 Y151.974 E10.56027
G1 X58.333 Y151.802 E10.58395
G1 X58.062 Y151.729 E10.59329
G1 X57.503 Y151.567 E10.61264
G1 X56.842 Y151.361 E10.63567
G1 X56.284 Y151.175 E10.65523
G1 X55.99 Y151.07 E10.66562
G1 X55.221 Y150.776 E10.693
G1 X54.824 Y150.616 E10.70724
G1 X54.505 Y150.479 E10.71878
G1 X53.906 Y150.206 E10.74068
G1 X53.353 Y149.94 E10.76109
G1 X53.021 Y149.77 E10.77349
G1 X52.451 Y149.46 E10.79507
G1 X52.267 Y149.357 E10.80209
G1 X51.877 Y149.131 E10.81708
G1 X51.563 Y148.938 E10.82934
G1 X51.023 Y148.59 E10.8507
G1 X50.843 Y148.471 E10.85788
G1 X50.539 Y148.263 E10.87013
G1 X50.211 Y148.026 E10.88359
G1 X49.704 Y147.639 E10.90481
G1 X49.534 Y147.505 E10.91201
G1 X49.242 Y147.269 E10.92449
G1 X48.924 Y146.998 E10.93839
G1 X48.45 Y146.571 E10.95961
G1 X48.261 Y146.394 E10.96822
G1 X47.991 Y146.134 E10.98069
G1 X47.714 Y145.854 E10.99379
G1 X47.271 Y145.382 E11.01532
G1 X47.064 Y145.153 E11.02559
G1 X46.823 Y144.875 E11.03782
G1 X46.599 Y144.604 E11.04952
G1 X46.191 Y144.088 E11.0714
G1 X45.962 Y143.784 E11.08405
G1 X45.757 Y143.497 E11.09578
G1 X45.588 Y143.25 E11.10574
G1 X45.215 Y142.683 E11.12831
G1 X45.013 Y142.36 E11.14098
G1 X44.846 Y142.077 E11.15191
G1 X44.714 Y141.844 E11.16082
G1 X44.379 Y141.229 E11.18411
G1 X44.206 Y140.891 E11.19674
G1 X44.077 Y140.624 E11.2066
G1 X43.965 Y140.382 E11.21547
G1 X43.67 Y139.714 E11.23976
G1 X43.549 Y139.425 E11.25018
G1 X43.45 Y139.174 E11.25916
G1 X43.348 Y138.901 E11.26885
G1 X43.095 Y138.182 E11.2942
G1 X42.927 Y137.644 E11.31295
G1 X42.74 Y136.957 E11.33663
G1 X42.673 Y136.735 E11.34434
G1 X42.492 Y136.012 E11.36913
G1 X42.329 Y135.194 E11.39687
G1 X42.285 Y134.99 E11.40381
G1 X42.182 Y134.394 E11.42393
G1 X42.078 Y133.612 E11.45017
G1 X42.038 Y133.338 E11.45938
G1 X41.977 Y132.776 E11.47818
G1 X41.916 Y131.94 E11.50606
G1 X41.898 Y131.739 E11.51277
G1 X41.867 Y131.174 E11.53159
G1 X41.849 Y130.176 E11.56479
G1 X41.841 Y129.876 E11.57477
G1 X41.842 Y129.41 E11.59027
G1 X41.877 Y128.342 E11.62581
G1 X41.896 Y127.994 E11.6374
G1 X41.972 Y127.01 E11.67023
G1 X41.98 Y126.827 E11.67632
G1 X42.03 Y126.214 E11.69678
G1 X42.161 Y125.133 E11.73299
G1 X42.178 Y124.957 E11.73888
G1 X42.242 Y124.457 E11.75564
G1 X42.427 Y123.305 E11.79445
G1 X42.457 Y123.095 E11.8015
G1 X42.524 Y122.702 E11.81476
G1 X42.76 Y121.498 E11.85557
G1 X42.791 Y121.327 E11.86135
G1 X42.864 Y120.975 E11.87331
G1 X43.182 Y119.58 E11.9209
G1 X43.266 Y119.223 E11.93309
G1 X43.609 Y117.907 E11.97833
G1 X43.642 Y117.774 E11.98288
G1 X43.726 Y117.458 E11.99376
G1 X44.216 Y115.762 E12.05248
G1 X44.275 Y115.568 E12.05922
G1 X44.801 Y113.91 E12.11707
G1 X44.855 Y113.746 E12.12282
G1 X45.405 Y112.137 E12.17937
G1 X46.086 Y110.27 E12.24547
G1 X46.181 Y110.022 E12.2543
G1 X46.307 Y109.711 E12.26546
G1 X46.882 Y108.228 E12.31837
G1 X47.652 Y106.346 E12.386
G1 X47.761 Y106.093 E12.39516
G1 X47.917 Y105.748 E12.40775
G1 X48.545 Y104.279 E12.46089
G1 X48.653 Y104.037 E12.46971
G1 X48.847 Y103.622 E12.48494
G1 X49.491 Y102.181 E12.53744
G1 X49.607 Y101.933 E12.54654
G1 X49.845 Y101.446 E12.56457
G1 X50.533 Y99.968 E12.6188
G1 X51.244 Y98.489 E12.67338
G1 X51.337 Y98.301 E12.68035
G1 X51.914 Y97.179 E12.72232
G1 X52.491 Y96.018 E12.76544
G1 X52.596 Y95.812 E12.77313
G1 X53.561 Y94.006 E12.84123
G1 X53.999 Y93.152 E12.87316
G1 X54.462 Y92.268 E12.90635
G1 X54.561 Y92.085 E12.91327
G1 X56.074 Y89.372 E13.01658
G1 X56.373 Y88.847 E13.03668
G1 X57.122 Y87.549 E13.08652
G1 X57.47 Y86.964 E13.10916
G1 X58.123 Y85.845 E13.15225
G1 X58.555 Y85.183 E13.17855
G1 X59.051 Y84.569 E13.2048
G1 X59.607 Y84.009 E13.23105
G1 X60.25 Y83.483 E13.25868
G1 X60.426 Y83.354 E13.26593
G0 F6000 X60.662 Y83.677
G1 F1200 X61.306 Y83.255 E13.29154
G1 X61.989 Y82.902 E13.31711
G1 X62.705 Y82.622 E13.34268
G1 X63.447 Y82.418 E13.36828
G1 X64.206 Y82.292 E13.39387
G1 X65.037 Y82.245 E13.42155
G1 X67.5 Y82.245 E13.50347
G1 X68.268 Y82.285 E13.52905
G1 X69.028 Y82.404 E13.55464
G1 X69.771 Y82.602 E13.58021
G1 X69.897 Y82.588 E13.58443
G1 X70.642 Y82.395 E13.61002
