;FLAVOR:Marlin
;TIME:3808
;Filament used: 1.58114m
;Layer height: 0.2
;MINX:78.395
;MINY:78.051
;MINZ:0.2
;MAXX:156.62
;MAXY:156.949
;MAXZ:6.2
;Generated with Cura_SteamEngine 4.10.0
M140 S60
M105
M190 S60
M104 S220
M105
M109 S220
M82 ;absolute extrusion mode
; Ender 3 Custom Start G-code
G92 E0 ; Reset Extruder
G28 ; Home all axes
G1 Z2.0 F3000 ; Move Z Axis up little to prevent scratching of Heat Bed
G1 X0.1 Y20 Z0.3 F5000.0 ; Move to start position
G1 X0.1 Y200.0 Z0.3 F1500.0 E15 ; Draw the first line
G1 X0.4 Y200.0 Z0.3 F5000.0 ; Move to side a little
G1 X0.4 Y20 Z0.3 F1500.0 E30 ; Draw the second line
G92 E0 ; Reset Extruder
G1 Z2.0 F3000 ; Move Z Axis up little to prevent scratching of Heat Bed
G1 X5 Y20 Z0.3 F5000.0 ; Move over to prevent blob squish
G92 E0
G92 E0
;LAYER_COUNT:32
;LAYER:0
M107
G0 F6000 X89.468 Y89.987 Z0.2
;TYPE:SKIRT
G1 F1200 X90.706 Y88.76 E0.05797
G1 X90.796 Y88.676 E0.06207
G1 X92.335 Y87.313 E0.13044
G1 X92.426 Y87.237 E0.13439
G1 X94.028 Y85.965 E0.20242
G1 X94.126 Y85.892 E0.20649
G1 X95.543 Y84.89 E0.26421
G1 X95.906 Y84.681 E0.27814
G1 X96.303 Y84.546 E0.29209
G1 X96.718 Y84.488 E0.30603
G1 X97.136 Y84.51 E0.31995
G1 X97.543 Y84.611 E0.3339
G1 X97.912 Y84.78 E0.34739
G1 X98.134 Y84.908 E0.35592
G1 X98.475 Y85.151 E0.36984
G1 X98.621 Y85.303 E0.37685
G1 X98.95 Y85.101 E0.38969
G1 X99.055 Y85.04 E0.39373
G1 X99.404 Y84.851 E0.40693
G1 X99.343 Y84.641 E0.41421
G1 X99.305 Y84.235 E0.42777
G1 X99.305 Y83.977 E0.43635
G1 X99.345 Y83.56 E0.45028
G1 X99.463 Y83.158 E0.46422
G1 X99.656 Y82.786 E0.47816
G1 X99.915 Y82.457 E0.49208
G1 X100.232 Y82.183 E0.50602
G1 X100.586 Y81.978 E0.51963
G1 X102.175 Y81.247 E0.5778
G1 X102.285 Y81.2 E0.58178
G1 X104.184 Y80.449 E0.6497
G1 X104.299 Y80.407 E0.65377
G1 X106.244 Y79.76 E0.72195
G1 X106.357 Y79.726 E0.72587
G1 X108.033 Y79.267 E0.78367
G1 X108.446 Y79.195 E0.79761
G1 X108.865 Y79.203 E0.81155
G1 X109.275 Y79.291 E0.8255
G1 X109.661 Y79.454 E0.83944
G1 X110.008 Y79.687 E0.85334
G1 X110.304 Y79.981 E0.86721
G1 X110.469 Y80.179 E0.87579
G1 X110.705 Y80.525 E0.88972
G1 X110.785 Y80.71 E0.89642
G1 X111.17 Y80.631 E0.90949
G1 X111.29 Y80.61 E0.91354
G1 X111.674 Y80.553 E0.92646
G1 X111.689 Y80.332 E0.93382
G1 X111.796 Y79.928 E0.94772
G1 X111.885 Y79.687 E0.95627
G1 X112.067 Y79.309 E0.97022
G1 X112.317 Y78.973 E0.98415
G1 X112.627 Y78.691 E0.99809
G1 X112.984 Y78.472 E1.01202
G1 X113.377 Y78.325 E1.02598
G1 X113.768 Y78.256 E1.03918
G1 X115.5 Y78.113 E1.09698
G1 X115.621 Y78.107 E1.10101
G1 X117.674 Y78.051 E1.16932
G1 X117.794 Y78.051 E1.17331
G1 X119.846 Y78.107 E1.24159
G1 X119.968 Y78.114 E1.24565
G1 X121.694 Y78.257 E1.30326
G1 X122.106 Y78.331 E1.31718
G1 X122.497 Y78.482 E1.33112
G1 X122.852 Y78.704 E1.34505
G1 X123.159 Y78.99 E1.359
G1 X123.405 Y79.329 E1.37293
G1 X123.576 Y79.687 E1.38613
G1 X123.665 Y79.928 E1.39467
G1 X123.772 Y80.333 E1.4086
G1 X123.787 Y80.553 E1.41594
G1 X124.179 Y80.611 E1.42912
G1 X124.299 Y80.632 E1.43317
G1 X124.676 Y80.709 E1.44597
G1 X124.765 Y80.509 E1.45325
G1 X124.993 Y80.179 E1.46659
G1 X125.158 Y79.981 E1.47516
G1 X125.456 Y79.686 E1.48911
G1 X125.804 Y79.453 E1.50304
G1 X126.19 Y79.29 E1.51697
G1 X126.6 Y79.203 E1.53092
G1 X127.019 Y79.196 E1.54485
G1 X127.43 Y79.267 E1.55873
G1 X129.112 Y79.728 E1.61673
G1 X129.225 Y79.763 E1.62067
G1 X131.168 Y80.41 E1.68878
G1 X131.282 Y80.451 E1.69281
G1 X133.18 Y81.202 E1.7607
G1 X133.291 Y81.25 E1.76472
G1 X134.876 Y81.98 E1.82276
G1 X135.239 Y82.191 E1.83673
G1 X135.554 Y82.466 E1.85063
G1 X135.812 Y82.797 E1.86459
G1 X136.002 Y83.17 E1.87852
G1 X136.118 Y83.573 E1.89246
G1 X136.156 Y83.978 E1.90599
G1 X136.156 Y84.235 E1.91454
G1 X136.116 Y84.652 E1.92847
G1 X136.057 Y84.851 E1.93538
G1 X136.41 Y85.042 E1.94873
G1 X136.515 Y85.103 E1.95277
G1 X136.841 Y85.303 E1.96549
G1 X136.993 Y85.145 E1.97278
G1 X137.327 Y84.908 E1.9864
G1 X137.549 Y84.78 E1.99492
G1 X137.93 Y84.606 E2.00885
G1 X138.338 Y84.508 E2.02281
G1 X138.756 Y84.489 E2.03673
G1 X139.171 Y84.549 E2.05067
G1 X139.567 Y84.687 E2.06462
G1 X139.919 Y84.89 E2.07814
G1 X141.338 Y85.894 E2.13595
G1 X141.435 Y85.967 E2.13999
G1 X143.04 Y87.241 E2.20814
G1 X143.132 Y87.318 E2.21214
G1 X144.671 Y88.683 E2.28056
G1 X144.759 Y88.766 E2.28458
G1 X145.992 Y89.987 E2.34229
G1 X146.26 Y90.309 E2.35623
G1 X146.463 Y90.676 E2.37018
G1 X146.592 Y91.074 E2.38409
G1 X146.643 Y91.49 E2.39803
G1 X146.615 Y91.908 E2.41197
G1 X146.508 Y92.312 E2.42587
G1 X146.419 Y92.553 E2.43441
G1 X146.237 Y92.931 E2.44837
G1 X146.119 Y93.089 E2.45492
G1 X146.385 Y93.389 E2.46826
G1 X146.463 Y93.482 E2.4723
G1 X146.7 Y93.781 E2.48499
G1 X146.897 Y93.685 E2.49228
G1 X147.288 Y93.577 E2.50577
G1 X147.541 Y93.532 E2.51431
G1 X147.958 Y93.498 E2.52823
G1 X148.375 Y93.544 E2.54218
G1 X148.775 Y93.668 E2.55611
G1 X149.145 Y93.866 E2.57007
G1 X149.47 Y94.131 E2.58402
G1 X149.734 Y94.445 E2.59766
G1 X150.725 Y95.875 E2.65553
G1 X150.791 Y95.976 E2.65954
G1 X151.862 Y97.719 E2.72758
G1 X151.923 Y97.824 E2.73162
G1 X152.899 Y99.627 E2.79981
G1 X152.953 Y99.734 E2.8038
G1 X153.698 Y101.31 E2.86178
G1 X153.84 Y101.704 E2.87571
G1 X153.905 Y102.118 E2.88965
G1 X153.89 Y102.537 E2.90359
G1 X153.796 Y102.945 E2.91752
G1 X153.627 Y103.328 E2.93144
G1 X153.399 Y103.658 E2.94478
G1 X153.234 Y103.856 E2.95335
G1 X152.936 Y104.151 E2.9673
G1 X152.757 Y104.271 E2.97447
G1 X152.899 Y104.629 E2.98728
G1 X152.942 Y104.746 E2.99142
G1 X153.065 Y105.117 E3.00442
G1 X153.284 Y105.093 E3.01175
G1 X153.687 Y105.126 E3.0252
G1 X153.94 Y105.17 E3.03374
G1 X154.344 Y105.28 E3.04767
G1 X154.72 Y105.466 E3.06162
G1 X155.054 Y105.719 E3.07556
G1 X155.333 Y106.031 E3.08948
G1 X155.549 Y106.39 E3.10341
G1 X155.686 Y106.76 E3.11653
G1 X155.982 Y107.85 E3.1541
G1 X156.319 Y109.301 E3.20365
G1 X156.58 Y110.653 E3.24944
G1 X156.62 Y111.07 E3.26338
G1 X156.58 Y111.487 E3.27731
G1 X156.461 Y111.889 E3.29125
G1 X156.236 Y112.309 E3.3071
G1 X156.141 Y112.448 E3.3127
G1 X155.873 Y112.77 E3.32663
G1 X155.549 Y113.035 E3.34056
G1 X155.18 Y113.234 E3.3545
G1 X154.698 Y113.375 E3.3712
G1 X151.18 Y113.98 E3.48993
G1 X150.762 Y114.012 E3.50387
G1 X150.346 Y113.963 E3.51781
G1 X149.946 Y113.837 E3.53175
G1 X149.558 Y113.623 E3.54649
G1 X149.426 Y113.532 E3.55182
G1 X149.106 Y113.263 E3.56573
G1 X148.842 Y112.937 E3.57968
G1 X148.644 Y112.567 E3.59364
G1 X148.52 Y112.162 E3.60773
G1 X148.141 Y110.311 E3.67057
G1 X147.625 Y108.397 E3.7365
G1 X146.994 Y106.54 E3.80173
G1 X146.253 Y104.735 E3.86663
G1 X145.405 Y102.985 E3.93131
G1 X144.446 Y101.29 E3.99608
G1 X143.376 Y99.647 E4.0613
G1 X142.204 Y98.071 E4.12662
G1 X140.942 Y96.577 E4.19166
G1 X139.599 Y95.178 E4.25617
G1 X138.153 Y93.849 E4.32149
G1 X136.64 Y92.623 E4.38626
G1 X135.043 Y91.484 E4.4515
G1 X133.388 Y90.457 E4.51628
G1 X131.679 Y89.538 E4.58082
G1 X129.89 Y88.715 E4.64632
G1 X128.054 Y88.005 E4.71179
G1 X126.201 Y87.421 E4.77641
G1 X124.29 Y86.946 E4.8419
G1 X122.388 Y86.601 E4.9062
G1 X120.441 Y86.37 E4.97141
G1 X118.478 Y86.261 E5.0368
G1 X116.548 Y86.273 E5.10099
G1 X114.576 Y86.412 E5.16674
G1 X112.657 Y86.666 E5.23113
G1 X110.742 Y87.043 E5.29604
G1 X108.843 Y87.541 E5.36134
G1 X107.002 Y88.151 E5.42584
G1 X105.155 Y88.895 E5.49207
G1 X103.42 Y89.72 E5.55597
G1 X101.683 Y90.687 E5.62209
G1 X100.055 Y91.731 E5.68642
G1 X98.484 Y92.881 E5.75117
G1 X96.971 Y94.144 E5.81672
G1 X95.556 Y95.483 E5.88152
G1 X94.227 Y96.908 E5.94633
G1 X92.984 Y98.419 E6.0114
G1 X91.841 Y100 E6.07629
G1 X90.793 Y101.665 E6.14173
G1 X89.865 Y103.356 E6.20588
G1 X89.029 Y105.144 E6.27153
G1 X88.308 Y106.973 E6.33692
G1 X87.712 Y108.815 E6.40131
G1 X87.222 Y110.731 E6.46709
G1 X86.861 Y112.644 E6.53184
G1 X86.621 Y114.56 E6.59606
G1 X86.497 Y116.535 E6.66188
G1 X86.497 Y118.466 E6.72611
G1 X86.621 Y120.44 E6.79189
G1 X86.862 Y122.365 E6.85642
G1 X87.22 Y124.253 E6.92033
G1 X87.714 Y126.19 E6.98682
G1 X88.308 Y128.027 E7.05103
G1 X89.03 Y129.859 E7.11652
G1 X89.86 Y131.631 E7.18161
G1 X90.797 Y133.341 E7.24646
G1 X91.839 Y134.998 E7.31156
G1 X92.984 Y136.58 E7.37652
G1 X94.227 Y138.092 E7.44162
G1 X95.556 Y139.517 E7.50643
G1 X96.971 Y140.856 E7.57122
G1 X98.484 Y142.119 E7.63677
G1 X100.055 Y143.269 E7.70153
G1 X101.683 Y144.313 E7.76585
G1 X103.42 Y145.28 E7.83198
G1 X105.155 Y146.105 E7.89587
G1 X107.002 Y146.849 E7.9621
G1 X108.836 Y147.456 E8.02636
G1 X110.756 Y147.962 E8.09239
G1 X112.65 Y148.333 E8.15659
G1 X114.576 Y148.588 E8.2212
G1 X116.548 Y148.727 E8.28696
G1 X118.478 Y148.739 E8.35115
G1 X120.441 Y148.63 E8.41654
G1 X122.393 Y148.398 E8.48192
G1 X124.279 Y148.054 E8.54568
G1 X126.206 Y147.577 E8.61171
G1 X128.054 Y146.995 E8.67615
G1 X129.892 Y146.284 E8.7417
G1 X131.679 Y145.462 E8.80712
G1 X133.39 Y144.542 E8.87173
G1 X135.051 Y143.511 E8.93676
G1 X136.64 Y142.378 E9.00167
G1 X138.154 Y141.15 E9.0665
G1 X139.6 Y139.823 E9.13178
G1 X140.943 Y138.422 E9.19633
G1 X142.205 Y136.928 E9.26138
G1 X143.377 Y135.352 E9.3267
G1 X144.45 Y133.703 E9.39213
G1 X145.402 Y132.019 E9.45647
G1 X146.261 Y130.248 E9.52194
G1 X146.993 Y128.465 E9.58605
G1 X147.627 Y126.593 E9.65178
G1 X148.142 Y124.694 E9.71723
G1 X148.519 Y122.841 E9.78012
G1 X148.641 Y122.44 E9.79406
G1 X148.837 Y122.069 E9.80802
G1 X149.1 Y121.743 E9.82195
G1 X149.426 Y121.468 E9.83613
G1 X149.558 Y121.377 E9.84147
G1 X149.924 Y121.173 E9.8554
G1 X150.323 Y121.042 E9.86937
G1 X150.738 Y120.989 E9.88329
G1 X151.18 Y121.02 E9.89802
G1 X154.698 Y121.625 E10.01675
G1 X155.102 Y121.735 E10.03068
G1 X155.478 Y121.92 E10.04461
G1 X155.813 Y122.172 E10.05856
G1 X156.143 Y122.554 E10.07535
G1 X156.237 Y122.692 E10.0809
G1 X156.439 Y123.06 E10.09486
G1 X156.568 Y123.459 E10.10881
G1 X156.618 Y123.875 E10.12274
G1 X156.58 Y124.345 E10.13843
G1 X156.336 Y125.619 E10.18157
G1 X155.998 Y127.083 E10.23154
G1 X155.686 Y128.239 E10.27137
G1 X155.539 Y128.631 E10.28529
G1 X155.319 Y128.988 E10.29924
G1 X155.036 Y129.297 E10.31318
G1 X154.7 Y129.547 E10.32711
G1 X154.322 Y129.728 E10.34105
G1 X153.94 Y129.83 E10.3542
G1 X153.687 Y129.874 E10.36274
G1 X153.269 Y129.907 E10.37668
G1 X153.064 Y129.883 E10.38355
G1 X152.943 Y130.248 E10.39634
G1 X152.901 Y130.363 E10.40041
G1 X152.756 Y130.728 E10.41347
G1 X152.938 Y130.85 E10.42076
G1 X153.234 Y131.144 E10.43464
G1 X153.399 Y131.342 E10.44321
G1 X153.635 Y131.688 E10.45714
G1 X153.802 Y132.072 E10.47107
G1 X153.893 Y132.481 E10.485
G1 X153.904 Y132.9 E10.49894
G1 X153.836 Y133.314 E10.5129
G1 X153.698 Y133.69 E10.52622
G1 X152.955 Y135.262 E10.58405
G1 X152.901 Y135.37 E10.58807
G1 X151.922 Y137.178 E10.65645
G1 X151.862 Y137.281 E10.66042
G1 X150.794 Y139.021 E10.72832
G1 X150.727 Y139.124 E10.73241
G1 X149.734 Y140.556 E10.79037
G1 X149.463 Y140.876 E10.80431
G1 X149.137 Y141.139 E10.81824
G1 X148.767 Y141.335 E10.83217
G1 X148.366 Y141.458 E10.84612
G1 X147.949 Y141.502 E10.86007
G1 X147.541 Y141.468 E10.87368
G1 X147.288 Y141.423 E10.88223
G1 X146.884 Y141.311 E10.89618
G1 X146.699 Y141.219 E10.90305
G1 X146.459 Y141.522 E10.9159
G1 X146.38 Y141.617 E10.92001
G1 X146.119 Y141.911 E10.93309
G1 X146.248 Y142.087 E10.94035
G1 X146.419 Y142.447 E10.9536
G1 X146.508 Y142.688 E10.96215
G1 X146.615 Y143.093 E10.97608
G1 X146.643 Y143.511 E10.99001
G1 X146.592 Y143.927 E11.00395
G1 X146.462 Y144.326 E11.01791
G1 X146.26 Y144.692 E11.03182
G1 X145.993 Y145.013 E11.0457
G1 X144.758 Y146.237 E11.10353
G1 X144.668 Y146.321 E11.10763
G1 X143.126 Y147.687 E11.17615
G1 X143.035 Y147.763 E11.18009
G1 X141.433 Y149.035 E11.24813
G1 X141.335 Y149.108 E11.25219
G1 X139.918 Y150.11 E11.30991
G1 X139.555 Y150.319 E11.32384
G1 X139.158 Y150.454 E11.33779
G1 X138.743 Y150.512 E11.35173
G1 X138.325 Y150.49 E11.36565
G1 X137.918 Y150.389 E11.3796
G1 X137.549 Y150.22 E11.3931
G1 X137.327 Y150.092 E11.40162
G1 X136.986 Y149.849 E11.41555
G1 X136.841 Y149.697 E11.42253
G1 X136.512 Y149.899 E11.43537
G1 X136.406 Y149.96 E11.43944
G1 X136.057 Y150.149 E11.45264
G1 X136.118 Y150.359 E11.45992
G1 X136.156 Y150.765 E11.47348
G1 X136.156 Y151.023 E11.48206
G1 X136.116 Y151.44 E11.49599
G1 X135.998 Y151.842 E11.50993
G1 X135.805 Y152.214 E11.52387
G1 X135.546 Y152.543 E11.53779
G1 X135.229 Y152.817 E11.55173
G1 X134.876 Y153.021 E11.56529
G1 X133.288 Y153.752 E11.62343
G1 X133.177 Y153.8 E11.62746
G1 X131.277 Y154.551 E11.69541
G1 X131.162 Y154.593 E11.69948
G1 X129.217 Y155.24 E11.76766
G1 X129.104 Y155.274 E11.77158
G1 X127.429 Y155.733 E11.82935
G1 X127.017 Y155.805 E11.84326
G1 X126.598 Y155.797 E11.85719
G1 X126.188 Y155.71 E11.87113
G1 X125.802 Y155.546 E11.88508
G1 X125.454 Y155.313 E11.89901
G1 X125.158 Y155.019 E11.91289
G1 X124.993 Y154.821 E11.92146
G1 X124.757 Y154.475 E11.93539
G1 X124.677 Y154.29 E11.9421
G1 X124.292 Y154.369 E11.95517
G1 X124.172 Y154.39 E11.95922
G1 X123.787 Y154.447 E11.97216
G1 X123.772 Y154.669 E11.97956
G1 X123.665 Y155.072 E11.99343
G1 X123.576 Y155.313 E12.00198
G1 X123.394 Y155.691 E12.01593
G1 X123.144 Y156.027 E12.02986
G1 X122.834 Y156.309 E12.0438
G1 X122.477 Y156.528 E12.05773
G1 X122.084 Y156.675 E12.07169
G1 X121.693 Y156.744 E12.08489
G1 X119.962 Y156.887 E12.14266
G1 X119.841 Y156.893 E12.14669
G1 X117.788 Y156.949 E12.215
G1 X117.668 Y156.949 E12.21899
G1 X115.616 Y156.893 E12.28726
G1 X115.494 Y156.886 E12.29133
G1 X113.767 Y156.743 E12.34897
G1 X113.355 Y156.669 E12.36289
G1 X112.964 Y156.518 E12.37683
G1 X112.609 Y156.296 E12.39076
G1 X112.302 Y156.01 E12.40471
G1 X112.056 Y155.671 E12.41864
G1 X111.885 Y155.313 E12.43184
G1 X111.796 Y155.072 E12.44038
G1 X111.689 Y154.667 E12.45431
G1 X111.674 Y154.447 E12.46165
G1 X111.283 Y154.389 E12.4748
G1 X111.163 Y154.368 E12.47885
G1 X110.786 Y154.291 E12.49165
G1 X110.697 Y154.49 E12.4989
G1 X110.469 Y154.821 E12.51226
G1 X110.304 Y155.019 E12.52084
G1 X110.006 Y155.314 E12.53478
G1 X109.658 Y155.547 E12.54871
G1 X109.272 Y155.71 E12.56265
G1 X108.862 Y155.797 E12.57659
G1 X108.443 Y155.804 E12.59053
G1 X108.033 Y155.733 E12.60437
G1 X106.35 Y155.272 E12.66241
G1 X106.236 Y155.237 E12.66637
G1 X104.293 Y154.59 E12.73448
G1 X104.179 Y154.549 E12.73851
G1 X102.28 Y153.798 E12.80643
G1 X102.168 Y153.75 E12.81049
G1 X100.584 Y153.02 E12.8685
G1 X100.222 Y152.809 E12.88243
G1 X99.906 Y152.534 E12.89637
G1 X99.649 Y152.203 E12.9103
G1 X99.459 Y151.83 E12.92423
G1 X99.343 Y151.427 E12.93818
G1 X99.305 Y151.022 E12.9517
G1 X99.305 Y150.765 E12.96025
G1 X99.345 Y150.348 E12.97419
G1 X99.404 Y150.148 E12.98112
G1 X99.052 Y149.958 E12.99443
G1 X98.947 Y149.897 E12.99846
G1 X98.62 Y149.696 E13.01123
G1 X98.468 Y149.855 E13.01855
G1 X98.134 Y150.092 E13.03217
G1 X97.912 Y150.22 E13.04069
G1 X97.531 Y150.394 E13.05462
G1 X97.123 Y150.492 E13.06858
G1 X96.705 Y150.511 E13.0825
G1 X96.29 Y150.451 E13.09644
G1 X95.894 Y150.313 E13.11039
G1 X95.542 Y150.11 E13.1239
G1 X94.123 Y149.106 E13.18172
G1 X94.026 Y149.033 E13.18576
G1 X92.42 Y147.758 E13.25396
G1 X92.328 Y147.681 E13.25795
G1 X90.79 Y146.317 E13.32632
G1 X90.702 Y146.234 E13.33035
G1 X89.469 Y145.013 E13.38806
G1 X89.201 Y144.691 E13.402
G1 X88.998 Y144.324 E13.41595
G1 X88.869 Y143.926 E13.42986
G1 X88.818 Y143.51 E13.4438
G1 X88.846 Y143.092 E13.45773
G1 X88.953 Y142.688 E13.47163
G1 X89.042 Y142.447 E13.48018
G1 X89.224 Y142.069 E13.49413
G1 X89.342 Y141.91 E13.50072
G1 X89.075 Y141.609 E13.5141
G1 X88.999 Y141.517 E13.51807
G1 X88.762 Y141.218 E13.53076
G1 X88.564 Y141.315 E13.53809
G1 X88.173 Y141.423 E13.55159
G1 X87.92 Y141.468 E13.56013
G1 X87.503 Y141.502 E13.57405
G1 X87.086 Y141.456 E13.588
G1 X86.686 Y141.332 E13.60193
G1 X86.316 Y141.134 E13.61589
G1 X85.991 Y140.869 E13.62983
G1 X85.727 Y140.555 E13.64348
G1 X84.73 Y139.116 E13.70171
G1 X84.663 Y139.014 E13.70576
G1 X83.597 Y137.278 E13.77352
G1 X83.537 Y137.174 E13.77751
G1 X82.557 Y135.363 E13.846
G1 X82.503 Y135.256 E13.84999
G1 X81.763 Y133.69 E13.9076
G1 X81.621 Y133.296 E13.92153
G1 X81.556 Y132.882 E13.93546
G1 X81.571 Y132.463 E13.94941
G1 X81.665 Y132.055 E13.96334
G1 X81.835 Y131.671 E13.9773
G1 X82.062 Y131.342 E13.9906
G1 X82.227 Y131.144 E13.99917
G1 X82.525 Y130.849 E14.01312
G1 X82.705 Y130.729 E14.02031
G1 X82.558 Y130.358 E14.03358
