;FLAVOR:Marlin
;TIME:3548
;Filament used: 1.59732m
;Layer height: 0.2
;MINX:80.375
;MINY:80.051
;MINZ:0.2
;MAXX:154.632
;MAXY:154.949
;MAXZ:6.2
;Generated with Cura_SteamEngine 4.10.0
M140 S60
M105
M190 S60
M104 S220
M105
M109 S220
M82 ;absolute extrusion mode
; Ender 3 Custom Start G-code
G92 E0 ; Reset Extruder
G28 ; Home all axes
G1 Z2.0 F3000 ; Move Z Axis up little to prevent scratching of Heat Bed
G1 X0.1 Y20 Z0.3 F5000.0 ; Move to start position
G1 X0.1 Y200.0 Z0.3 F1500.0 E15 ; Draw the first line
G1 X0.4 Y200.0 Z0.3 F5000.0 ; Move to side a little
G1 X0.4 Y20 Z0.3 F1500.0 E30 ; Draw the second line
G92 E0 ; Reset Extruder
G1 Z2.0 F3000 ; Move Z Axis up little to prevent scratching of Heat Bed
G1 X5 Y20 Z0.3 F5000.0 ; Move over to prevent blob squish
G92 E0
G92 E0
;LAYER_COUNT:32
;LAYER:0
M107
G0 F6000 X90.951 Y91.313 Z0.2
;TYPE:SKIRT
G1 F1200 X92.097 Y90.182 E0.05355
G1 X92.185 Y90.099 E0.05758
G1 X93.619 Y88.832 E0.12122
G1 X93.708 Y88.758 E0.12507
G1 X95.165 Y87.601 E0.18695
G1 X95.258 Y87.531 E0.19082
G1 X96.572 Y86.596 E0.24446
G1 X96.935 Y86.387 E0.25839
G1 X97.331 Y86.25 E0.27233
G1 X97.745 Y86.191 E0.28624
G1 X98.164 Y86.212 E0.30019
G1 X98.571 Y86.312 E0.31413
G1 X98.88 Y86.447 E0.32535
G1 X99.1 Y86.564 E0.33364
G1 X99.45 Y86.795 E0.34758
G1 X99.662 Y87.002 E0.35744
G1 X99.962 Y86.818 E0.36914
G1 X100.065 Y86.758 E0.37311
G1 X100.326 Y86.617 E0.38297
G1 X100.246 Y86.255 E0.39531
G1 X100.231 Y85.916 E0.40659
G1 X100.239 Y85.669 E0.41481
G1 X100.293 Y85.253 E0.42876
G1 X100.424 Y84.855 E0.4427
G1 X100.628 Y84.489 E0.45664
G1 X100.898 Y84.169 E0.47056
G1 X101.224 Y83.905 E0.48451
G1 X101.522 Y83.74 E0.49584
G1 X102.992 Y83.067 E0.54962
G1 X103.1 Y83.021 E0.55352
G1 X104.848 Y82.331 E0.61602
G1 X104.959 Y82.29 E0.61996
G1 X106.744 Y81.694 E0.68255
G1 X106.855 Y81.661 E0.6864
G1 X108.417 Y81.229 E0.74031
G1 X108.829 Y81.156 E0.75422
G1 X109.248 Y81.163 E0.76816
G1 X109.658 Y81.249 E0.78209
G1 X110.045 Y81.411 E0.79605
G1 X110.393 Y81.644 E0.80998
G1 X110.644 Y81.884 E0.82153
G1 X110.81 Y82.07 E0.82982
G1 X111.058 Y82.408 E0.84376
G1 X111.18 Y82.666 E0.85325
G1 X111.5 Y82.6 E0.86412
G1 X111.62 Y82.579 E0.86817
G1 X111.937 Y82.532 E0.87883
G1 X111.986 Y82.166 E0.89111
G1 X112.09 Y81.835 E0.90265
G1 X112.183 Y81.605 E0.91091
G1 X112.377 Y81.234 E0.92483
G1 X112.637 Y80.905 E0.93878
G1 X112.955 Y80.632 E0.95272
G1 X113.319 Y80.424 E0.96666
G1 X113.716 Y80.289 E0.98061
G1 X114.046 Y80.237 E0.99172
G1 X115.647 Y80.108 E1.04514
G1 X115.765 Y80.102 E1.04907
G1 X117.659 Y80.051 E1.11209
G1 X117.777 Y80.051 E1.11601
G1 X119.669 Y80.102 E1.17896
G1 X119.787 Y80.108 E1.18289
G1 X121.384 Y80.237 E1.23618
G1 X121.797 Y80.311 E1.25014
G1 X122.188 Y80.461 E1.26407
G1 X122.543 Y80.682 E1.27798
G1 X122.851 Y80.968 E1.29196
G1 X123.098 Y81.306 E1.30588
G1 X123.247 Y81.605 E1.31699
G1 X123.34 Y81.835 E1.32524
G1 X123.459 Y82.237 E1.33919
G1 X123.488 Y82.532 E1.34905
G1 X123.816 Y82.58 E1.36007
G1 X123.937 Y82.601 E1.36416
G1 X124.245 Y82.664 E1.37461
G1 X124.416 Y82.337 E1.38688
G1 X124.62 Y82.07 E1.39806
G1 X124.786 Y81.884 E1.40635
G1 X125.093 Y81.599 E1.42029
G1 X125.449 Y81.378 E1.43422
G1 X125.84 Y81.229 E1.44814
G1 X126.253 Y81.156 E1.46209
G1 X126.672 Y81.163 E1.47603
G1 X127.013 Y81.229 E1.48758
G1 X128.575 Y81.661 E1.54148
G1 X128.686 Y81.694 E1.54533
G1 X130.476 Y82.292 E1.6081
G1 X130.586 Y82.332 E1.612
G1 X132.333 Y83.021 E1.67446
G1 X132.442 Y83.068 E1.6784
G1 X133.908 Y83.739 E1.73203
G1 X134.27 Y83.948 E1.74593
G1 X134.587 Y84.223 E1.75989
G1 X134.845 Y84.553 E1.77382
G1 X135.036 Y84.926 E1.78776
G1 X135.153 Y85.328 E1.80169
G1 X135.191 Y85.668 E1.81306
G1 X135.199 Y85.916 E1.82132
G1 X135.172 Y86.334 E1.83525
G1 X135.099 Y86.616 E1.84494
G1 X135.42 Y86.79 E1.85708
G1 X135.524 Y86.85 E1.86107
G1 X135.766 Y86.999 E1.87053
G1 X136.038 Y86.75 E1.88279
G1 X136.333 Y86.562 E1.89443
G1 X136.552 Y86.446 E1.90267
G1 X136.94 Y86.286 E1.91663
G1 X137.35 Y86.202 E1.93055
G1 X137.769 Y86.198 E1.94449
G1 X138.181 Y86.273 E1.95841
G1 X138.572 Y86.425 E1.97237
G1 X138.856 Y86.596 E1.98339
G1 X140.167 Y87.527 E2.03687
G1 X140.261 Y87.598 E2.04079
G1 X141.739 Y88.772 E2.10357
G1 X141.829 Y88.847 E2.10747
G1 X143.251 Y90.105 E2.17061
G1 X143.338 Y90.187 E2.17459
G1 X144.48 Y91.314 E2.22795
G1 X144.749 Y91.636 E2.24191
G1 X144.952 Y92.002 E2.25583
G1 X145.082 Y92.401 E2.26979
G1 X145.134 Y92.816 E2.2837
G1 X145.106 Y93.234 E2.29763
G1 X145.026 Y93.565 E2.30896
G1 X144.949 Y93.8 E2.31718
G1 X144.781 Y94.184 E2.33112
G1 X144.616 Y94.424 E2.34081
G1 X144.838 Y94.675 E2.35196
G1 X144.914 Y94.766 E2.3559
G1 X145.11 Y95.013 E2.36639
G1 X145.449 Y94.873 E2.37859
G1 X145.774 Y94.799 E2.38967
G1 X146.019 Y94.763 E2.39791
G1 X146.438 Y94.742 E2.41186
G1 X146.853 Y94.801 E2.4258
G1 X147.249 Y94.937 E2.43973
G1 X147.612 Y95.146 E2.45366
G1 X147.929 Y95.42 E2.4676
G1 X148.149 Y95.689 E2.47916
G1 X149.065 Y97.014 E2.53273
G1 X149.131 Y97.116 E2.53677
G1 X150.121 Y98.732 E2.5998
G1 X150.179 Y98.832 E2.60365
G1 X151.076 Y100.485 E2.6662
G1 X151.13 Y100.591 E2.67016
G1 X151.821 Y102.047 E2.72376
G1 X151.963 Y102.441 E2.73769
G1 X152.029 Y102.855 E2.75164
G1 X152.015 Y103.273 E2.76555
G1 X151.921 Y103.682 E2.7795
G1 X151.752 Y104.065 E2.79343
G1 X151.564 Y104.348 E2.80473
G1 X151.411 Y104.543 E2.81297
G1 X151.122 Y104.847 E2.82692
G1 X150.886 Y105.015 E2.83656
G1 X151.004 Y105.314 E2.84725
G1 X151.047 Y105.43 E2.85136
G1 X151.148 Y105.735 E2.86205
G1 X151.52 Y105.719 E2.87443
G1 X151.861 Y105.764 E2.88587
G1 X152.102 Y105.815 E2.89407
G1 X152.502 Y105.94 E2.90801
G1 X152.871 Y106.139 E2.92195
G1 X153.196 Y106.404 E2.9359
G1 X153.464 Y106.726 E2.94983
G1 X153.666 Y107.093 E2.96376
G1 X153.771 Y107.393 E2.97434
G1 X154.061 Y108.472 E3.0115
G1 X154.354 Y109.753 E3.0552
G1 X154.593 Y110.993 E3.09721
G1 X154.632 Y111.41 E3.11114
G1 X154.592 Y111.827 E3.12507
G1 X154.473 Y112.229 E3.13901
G1 X154.25 Y112.646 E3.15474
G1 X154.156 Y112.784 E3.16029
G1 X153.888 Y113.106 E3.17423
G1 X153.564 Y113.371 E3.18815
G1 X153.196 Y113.571 E3.20208
G1 X152.711 Y113.713 E3.21889
G1 X148.996 Y114.352 E3.34426
G1 X148.578 Y114.384 E3.35821
G1 X148.162 Y114.335 E3.37214
G1 X147.762 Y114.209 E3.38609
G1 X147.374 Y113.995 E3.40083
G1 X147.242 Y113.904 E3.40616
G1 X146.922 Y113.635 E3.42006
G1 X146.658 Y113.309 E3.43402
G1 X146.46 Y112.939 E3.44797
G1 X146.336 Y112.534 E3.46206
G1 X145.98 Y110.796 E3.52107
G1 X145.491 Y108.992 E3.58323
G1 X144.908 Y107.282 E3.64332
G1 X144.202 Y105.575 E3.70476
G1 X143.389 Y103.909 E3.76642
G1 X142.49 Y102.331 E3.82682
G1 X141.476 Y100.789 E3.88821
G1 X140.381 Y99.331 E3.94885
G1 X139.168 Y97.914 E4.01089
G1 X137.917 Y96.625 E4.07064
G1 X136.545 Y95.38 E4.13226
G1 X135.101 Y94.228 E4.19369
G1 X133.607 Y93.183 E4.25433
G1 X132.025 Y92.221 E4.31592
G1 X130.41 Y91.372 E4.3766
G1 X128.734 Y90.623 E4.43766
G1 X127.011 Y89.979 E4.49884
G1 X125.249 Y89.446 E4.56007
G1 X123.438 Y89.019 E4.62195
G1 X121.672 Y88.722 E4.68151
G1 X119.828 Y88.528 E4.74318
G1 X117.988 Y88.452 E4.80443
G1 X116.163 Y88.492 E4.86515
G1 X114.344 Y88.648 E4.92587
G1 X112.518 Y88.921 E4.98728
G1 X110.73 Y89.306 E5.04811
G1 X108.943 Y89.806 E5.10983
G1 X107.21 Y90.417 E5.17095
G1 X105.54 Y91.126 E5.23129
G1 X103.882 Y91.955 E5.29294
G1 X102.307 Y92.874 E5.35359
G1 X100.783 Y93.897 E5.41464
G1 X99.31 Y95.026 E5.47637
G1 X97.937 Y96.222 E5.53693
G1 X96.629 Y97.518 E5.59818
G1 X95.413 Y98.885 E5.65903
G1 X94.274 Y100.343 E5.72056
G1 X93.247 Y101.84 E5.78095
G1 X92.3 Y103.431 E5.84253
G1 X91.46 Y105.068 E5.90372
G1 X90.734 Y106.735 E5.9642
G1 X90.105 Y108.472 E6.02564
G1 X89.588 Y110.244 E6.08704
G1 X89.189 Y112.01 E6.14725
G1 X88.896 Y113.851 E6.20926
G1 X88.724 Y115.655 E6.26953
G1 X88.666 Y117.507 E6.33116
G1 X88.724 Y119.341 E6.39219
G1 X88.896 Y121.149 E6.45259
G1 X89.189 Y122.99 E6.5146
G1 X89.588 Y124.756 E6.57481
G1 X90.103 Y126.522 E6.636
G1 X90.735 Y128.268 E6.69776
G1 X91.457 Y129.926 E6.75791
G1 X92.3 Y131.569 E6.81932
G1 X93.244 Y133.155 E6.88071
G1 X94.274 Y134.657 E6.94129
G1 X95.413 Y136.115 E7.00282
G1 X96.629 Y137.482 E7.06368
G1 X97.937 Y138.777 E7.12489
G1 X99.309 Y139.974 E7.18545
G1 X100.783 Y141.103 E7.24721
G1 X102.307 Y142.126 E7.30826
G1 X103.882 Y143.045 E7.36891
G1 X105.54 Y143.874 E7.43056
G1 X107.205 Y144.581 E7.49073
G1 X108.947 Y145.193 E7.55214
G1 X110.739 Y145.699 E7.61407
G1 X112.511 Y146.078 E7.67434
G1 X114.344 Y146.352 E7.73598
G1 X116.163 Y146.508 E7.7967
G1 X117.988 Y146.548 E7.85742
G1 X119.828 Y146.472 E7.91867
G1 X121.666 Y146.279 E7.98014
G1 X123.435 Y145.979 E8.03981
G1 X125.258 Y145.552 E8.10209
G1 X127.011 Y145.021 E8.16301
G1 X128.734 Y144.377 E8.22419
G1 X130.41 Y143.628 E8.28525
G1 X132.028 Y142.777 E8.34605
G1 X133.61 Y141.815 E8.40763
G1 X135.101 Y140.772 E8.46815
G1 X136.546 Y139.619 E8.52964
G1 X137.918 Y138.374 E8.59126
G1 X139.169 Y137.085 E8.651
G1 X140.382 Y135.668 E8.71304
G1 X141.477 Y134.21 E8.77369
G1 X142.491 Y132.666 E8.83513
G1 X143.394 Y131.082 E8.89577
G1 X144.199 Y129.431 E8.95686
G1 X144.905 Y127.726 E9.01824
G1 X145.491 Y126.004 E9.07874
G1 X145.982 Y124.2 E9.14092
G1 X146.335 Y122.468 E9.19971
G1 X146.458 Y122.067 E9.21367
G1 X146.654 Y121.697 E9.22759
G1 X146.916 Y121.371 E9.2415
G1 X147.242 Y121.096 E9.25569
G1 X147.374 Y121.005 E9.26102
G1 X147.74 Y120.801 E9.27496
G1 X148.139 Y120.67 E9.28892
G1 X148.554 Y120.617 E9.30284
G1 X148.996 Y120.648 E9.31758
G1 X152.711 Y121.287 E9.44295
G1 X153.115 Y121.397 E9.45688
G1 X153.491 Y121.582 E9.47082
G1 X153.826 Y121.834 E9.48476
G1 X154.156 Y122.216 E9.50155
G1 X154.25 Y122.354 E9.5071
G1 X154.452 Y122.722 E9.52106
G1 X154.581 Y123.121 E9.53501
G1 X154.631 Y123.537 E9.54895
G1 X154.593 Y124.006 E9.5646
G1 X154.353 Y125.253 E9.60683
G1 X154.056 Y126.542 E9.65083
G1 X154.035 Y126.632 E9.6539
G1 X153.77 Y127.609 E9.68757
G1 X153.623 Y128.001 E9.7015
G1 X153.403 Y128.358 E9.71545
G1 X153.12 Y128.667 E9.72938
G1 X152.784 Y128.917 E9.74331
G1 X152.406 Y129.098 E9.75725
G1 X152.101 Y129.186 E9.76781
G1 X151.859 Y129.237 E9.77603
G1 X151.442 Y129.284 E9.78999
G1 X151.149 Y129.261 E9.79977
G1 X151.048 Y129.564 E9.81039
G1 X151.007 Y129.679 E9.81445
G1 X150.888 Y129.981 E9.82525
G1 X151.18 Y130.206 E9.83751
G1 X151.411 Y130.457 E9.84885
G1 X151.564 Y130.652 E9.8571
G1 X151.79 Y131.005 E9.87104
G1 X151.945 Y131.394 E9.88497
G1 X152.023 Y131.806 E9.89891
G1 X152.022 Y132.225 E9.91285
G1 X151.942 Y132.636 E9.92677
G1 X151.82 Y132.953 E9.93807
G1 X151.126 Y134.415 E9.9919
G1 X151.072 Y134.522 E9.99588
G1 X150.176 Y136.172 E10.05833
G1 X150.119 Y136.272 E10.06216
G1 X149.132 Y137.882 E10.12497
G1 X149.066 Y137.982 E10.12896
G1 X148.149 Y139.31 E10.18263
G1 X147.879 Y139.631 E10.19658
G1 X147.554 Y139.894 E10.21049
G1 X147.184 Y140.091 E10.22443
G1 X146.783 Y140.215 E10.23839
G1 X146.367 Y140.26 E10.25231
G1 X146.019 Y140.237 E10.26391
G1 X145.774 Y140.201 E10.27215
G1 X145.367 Y140.1 E10.28609
G1 X145.113 Y139.983 E10.29539
G1 X144.911 Y140.238 E10.30621
G1 X144.833 Y140.331 E10.31025
G1 X144.619 Y140.572 E10.32097
G1 X144.818 Y140.886 E10.33334
G1 X144.95 Y141.205 E10.34482
G1 X145.027 Y141.442 E10.35311
G1 X145.118 Y141.851 E10.36704
G1 X145.13 Y142.27 E10.38098
G1 X145.062 Y142.684 E10.39494
G1 X144.917 Y143.077 E10.40887
G1 X144.7 Y143.435 E10.42279
G1 X144.477 Y143.691 E10.43409
G1 X143.335 Y144.813 E10.48733
G1 X143.247 Y144.898 E10.4914
G1 X141.826 Y146.155 E10.5545
G1 X141.737 Y146.229 E10.55835
G1 X140.266 Y147.398 E10.62085
G1 X140.171 Y147.47 E10.62481
G1 X138.856 Y148.404 E10.67846
G1 X138.493 Y148.613 E10.69239
G1 X138.097 Y148.749 E10.70632
G1 X137.682 Y148.808 E10.72026
G1 X137.263 Y148.787 E10.73421
G1 X136.856 Y148.687 E10.74815
G1 X136.552 Y148.554 E10.75919
G1 X136.333 Y148.438 E10.76743
G1 X135.983 Y148.208 E10.78136
G1 X135.768 Y147.998 E10.79136
G1 X135.468 Y148.182 E10.80306
G1 X135.365 Y148.242 E10.80703
G1 X135.104 Y148.383 E10.81689
G1 X135.184 Y148.745 E10.82922
G1 X135.199 Y149.084 E10.84051
G1 X135.191 Y149.331 E10.84873
G1 X135.137 Y149.747 E10.86268
G1 X135.006 Y150.145 E10.87662
G1 X134.802 Y150.511 E10.89055
G1 X134.532 Y150.831 E10.90448
G1 X134.206 Y151.095 E10.91843
G1 X133.908 Y151.26 E10.92976
G1 X132.439 Y151.933 E10.9835
G1 X132.33 Y151.979 E10.98744
G1 X130.581 Y152.669 E11.04997
G1 X130.471 Y152.71 E11.05388
G1 X128.686 Y153.306 E11.11647
G1 X128.575 Y153.339 E11.12032
G1 X127.013 Y153.771 E11.17422
G1 X126.601 Y153.844 E11.18814
G1 X126.182 Y153.837 E11.20208
G1 X125.772 Y153.751 E11.21601
G1 X125.385 Y153.589 E11.22997
G1 X125.037 Y153.356 E11.2439
G1 X124.786 Y153.116 E11.25545
G1 X124.62 Y152.93 E11.26374
G1 X124.372 Y152.592 E11.27768
G1 X124.25 Y152.334 E11.28717
G1 X123.93 Y152.4 E11.29804
G1 X123.81 Y152.421 E11.30209
G1 X123.493 Y152.468 E11.31275
G1 X123.444 Y152.834 E11.32503
G1 X123.34 Y153.165 E11.33657
G1 X123.247 Y153.395 E11.34482
G1 X123.053 Y153.766 E11.35875
G1 X122.793 Y154.095 E11.3727
G1 X122.475 Y154.368 E11.38664
G1 X122.111 Y154.576 E11.40058
G1 X121.714 Y154.711 E11.41453
G1 X121.384 Y154.763 E11.42564
G1 X119.783 Y154.892 E11.47906
G1 X119.665 Y154.898 E11.48299
G1 X117.771 Y154.949 E11.54601
G1 X117.653 Y154.949 E11.54993
G1 X115.761 Y154.898 E11.61288
G1 X115.643 Y154.892 E11.61681
G1 X114.046 Y154.763 E11.6701
G1 X113.633 Y154.689 E11.68406
G1 X113.242 Y154.539 E11.69799
G1 X112.887 Y154.318 E11.71189
G1 X112.579 Y154.032 E11.72587
G1 X112.332 Y153.694 E11.7398
G1 X112.183 Y153.395 E11.75091
G1 X112.09 Y153.165 E11.75916
G1 X111.971 Y152.763 E11.7731
G1 X111.942 Y152.468 E11.78296
G1 X111.614 Y152.42 E11.79399
G1 X111.493 Y152.399 E11.79807
G1 X111.185 Y152.336 E11.80853
G1 X111.014 Y152.663 E11.8208
G1 X110.81 Y152.93 E11.83198
G1 X110.644 Y153.116 E11.84027
G1 X110.337 Y153.401 E11.8542
G1 X109.981 Y153.622 E11.86814
G1 X109.59 Y153.771 E11.88206
G1 X109.177 Y153.844 E11.89601
G1 X108.758 Y153.837 E11.90994
G1 X108.417 Y153.771 E11.9215
G1 X106.855 Y153.339 E11.9754
G1 X106.744 Y153.306 E11.97925
G1 X104.954 Y152.708 E12.04202
G1 X104.844 Y152.668 E12.04591
G1 X103.096 Y151.979 E12.10841
G1 X102.987 Y151.932 E12.11235
G1 X101.522 Y151.261 E12.16595
G1 X101.159 Y151.051 E12.1799
G1 X100.843 Y150.776 E12.19383
G1 X100.585 Y150.446 E12.20776
G1 X100.393 Y150.073 E12.22171
G1 X100.277 Y149.671 E12.23563
G1 X100.239 Y149.332 E12.24698
G1 X100.231 Y149.084 E12.25523
G1 X100.258 Y148.666 E12.26916
G1 X100.331 Y148.384 E12.27885
G1 X100.01 Y148.21 E12.29099
G1 X99.906 Y148.15 E12.29499
G1 X99.664 Y148.001 E12.30444
G1 X99.392 Y148.25 E12.3167
G1 X99.097 Y148.438 E12.32834
G1 X98.878 Y148.554 E12.33658
G1 X98.49 Y148.714 E12.35054
G1 X98.08 Y148.798 E12.36446
G1 X97.661 Y148.802 E12.3784
G1 X97.249 Y148.727 E12.39233
G1 X96.858 Y148.575 E12.40628
G1 X96.574 Y148.404 E12.4173
G1 X95.255 Y147.467 E12.47112
G1 X95.16 Y147.395 E12.47508
G1 X93.689 Y146.226 E12.53758
G1 X93.6 Y146.152 E12.54143
G1 X92.179 Y144.895 E12.60453
G1 X92.091 Y144.812 E12.60855
G1 X90.95 Y143.685 E12.66189
G1 X90.681 Y143.364 E12.67582
G1 X90.478 Y142.997 E12.68977
G1 X90.349 Y142.599 E12.70368
G1 X90.297 Y142.183 E12.71763
G1 X90.325 Y141.765 E12.73156
G1 X90.408 Y141.427 E12.74314
G1 X90.486 Y141.192 E12.75137
G1 X90.655 Y140.809 E12.7653
G1 X90.815 Y140.577 E12.77467
G1 X90.591 Y140.324 E12.78591
G1 X90.515 Y140.232 E12.78988
G1 X90.32 Y139.987 E12.80029
G1 X89.981 Y140.127 E12.81249
G1 X89.656 Y140.201 E12.82358
G1 X89.411 Y140.237 E12.83181
G1 X88.992 Y140.258 E12.84577
G1 X88.577 Y140.199 E12.85971
G1 X88.181 Y140.063 E12.87364
G1 X87.818 Y139.854 E12.88757
G1 X87.501 Y139.58 E12.9015
G1 X87.281 Y139.311 E12.91306
G1 X86.359 Y137.977 E12.967
G1 X86.293 Y137.875 E12.97104
G1 X85.309 Y136.268 E13.03371
G1 X85.251 Y136.167 E13.03758
G1 X84.355 Y134.514 E13.10012
G1 X84.302 Y134.41 E13.104
G1 X83.61 Y132.954 E13.15762
G1 X83.467 Y132.56 E13.17156
G1 X83.401 Y132.147 E13.18547
G1 X83.415 Y131.728 E13.19942
G1 X83.508 Y131.319 E13.21337
G1 X83.677 Y130.936 E13.22729
G1 X83.866 Y130.652 E13.23864
G1 X84.019 Y130.457 E13.24688
G1 X84.308 Y130.153 E13.26083
G1 X84.544 Y129.985 E13.27047
G1 X84.421 Y129.673 E13.28162
