;FLAVOR:Marlin
;TIME:5112
;Filament used: 2.33904m
;Layer height: 0.2
;MINX:68.731
;MINY:68.301
;MINZ:0.2
;MAXX:166.289
;MAXY:166.699
;MAXZ:6.8
;Generated with Cura_SteamEngine 4.10.0
M140 S60
M105
M190 S60
M104 S220
M105
M109 S220
M82 ;absolute extrusion mode
; Ender 3 Custom Start G-code
G92 E0 ; Reset Extruder
G28 ; Home all axes
G1 Z2.0 F3000 ; Move Z Axis up little to prevent scratching of Heat Bed
G1 X0.1 Y20 Z0.3 F5000.0 ; Move to start position
G1 X0.1 Y200.0 Z0.3 F1500.0 E15 ; Draw the first line
G1 X0.4 Y200.0 Z0.3 F5000.0 ; Move to side a little
G1 X0.4 Y20 Z0.3 F1500.0 E30 ; Draw the second line
G92 E0 ; Reset Extruder
G1 Z2.0 F3000 ; Move Z Axis up little to prevent scratching of Heat Bed
G1 X5 Y20 Z0.3 F5000.0 ; Move over to prevent blob squish
G92 E0
G92 E0
;LAYER_COUNT:34
;LAYER:0
M107
G0 F6000 X82.511 Y83.22 Z0.2
;TYPE:SKIRT
G1 F1200 X84.087 Y81.658 E0.0738
G1 X84.177 Y81.575 E0.07787
G1 X86.129 Y79.845 E0.16463
G1 X86.22 Y79.768 E0.16859
G1 X88.255 Y78.153 E0.255
G1 X88.354 Y78.079 E0.25911
G1 X90.163 Y76.802 E0.33276
G1 X90.527 Y76.594 E0.3467
G1 X90.924 Y76.459 E0.36065
G1 X91.339 Y76.401 E0.37459
G1 X91.757 Y76.423 E0.38851
G1 X92.164 Y76.524 E0.40246
G1 X92.647 Y76.765 E0.42041
G1 X92.875 Y76.916 E0.42951
G1 X93.201 Y77.179 E0.44344
G1 X93.23 Y77.214 E0.44495
G1 X94.135 Y76.657 E0.48029
G1 X94.241 Y76.596 E0.48436
G1 X95.191 Y76.082 E0.52029
G1 X95.106 Y75.631 E0.53555
G1 X95.089 Y75.357 E0.54468
G1 X95.103 Y74.938 E0.55863
G1 X95.196 Y74.53 E0.57254
G1 X95.365 Y74.146 E0.5865
G1 X95.604 Y73.802 E0.60043
G1 X95.903 Y73.509 E0.61435
G1 X96.363 Y73.223 E0.63237
G1 X98.385 Y72.29 E0.70644
G1 X98.497 Y72.242 E0.71049
G1 X100.91 Y71.287 E0.7968
G1 X101.026 Y71.245 E0.8009
G1 X103.495 Y70.424 E0.88745
G1 X103.61 Y70.39 E0.89143
G1 X105.747 Y69.807 E0.96511
G1 X106.16 Y69.735 E0.97905
G1 X106.579 Y69.744 E0.99299
G1 X106.989 Y69.831 E1.00693
G1 X107.374 Y69.995 E1.02085
G1 X107.722 Y70.229 E1.0348
G1 X108.1 Y70.628 E1.05308
G1 X108.262 Y70.849 E1.06219
G1 X108.477 Y71.209 E1.07614
G1 X108.49 Y71.244 E1.07738
G1 X109.538 Y71.029 E1.11296
G1 X109.658 Y71.008 E1.11701
G1 X110.718 Y70.851 E1.15266
G1 X110.794 Y70.389 E1.16823
G1 X110.872 Y70.127 E1.17732
G1 X111.03 Y69.739 E1.19125
G1 X111.258 Y69.387 E1.2052
G1 X111.548 Y69.085 E1.21913
G1 X111.891 Y68.844 E1.23307
G1 X112.273 Y68.672 E1.24701
G1 X112.799 Y68.563 E1.26487
G1 X115.009 Y68.38 E1.33863
G1 X115.13 Y68.373 E1.34266
G1 X117.734 Y68.301 E1.4293
G1 X117.856 Y68.301 E1.43336
G1 X120.459 Y68.373 E1.51997
G1 X120.58 Y68.38 E1.524
G1 X122.785 Y68.563 E1.59759
G1 X123.197 Y68.637 E1.61151
G1 X123.588 Y68.788 E1.62545
G1 X123.943 Y69.01 E1.63938
G1 X124.25 Y69.296 E1.65334
G1 X124.497 Y69.635 E1.66729
G1 X124.712 Y70.127 E1.68514
G1 X124.79 Y70.389 E1.69424
G1 X124.87 Y70.8 E1.70816
G1 X124.87 Y70.852 E1.70989
G1 X125.932 Y71.009 E1.7456
G1 X126.053 Y71.03 E1.74968
G1 X127.101 Y71.245 E1.78527
G1 X127.322 Y70.849 E1.80035
G1 X127.484 Y70.628 E1.80946
G1 X127.762 Y70.316 E1.82336
G1 X128.096 Y70.061 E1.83734
G1 X128.471 Y69.875 E1.85126
G1 X128.875 Y69.763 E1.8652
G1 X129.292 Y69.729 E1.87912
G1 X129.837 Y69.807 E1.89743
G1 X131.981 Y70.392 E1.97135
G1 X132.097 Y70.427 E1.97538
G1 X134.564 Y71.248 E2.06186
G1 X134.679 Y71.289 E2.06592
G1 X137.091 Y72.244 E2.1522
G1 X137.203 Y72.293 E2.15626
G1 X139.221 Y73.225 E2.2302
G1 X139.583 Y73.436 E2.24413
G1 X139.899 Y73.712 E2.25809
G1 X140.156 Y74.043 E2.27202
G1 X140.346 Y74.416 E2.28595
G1 X140.462 Y74.819 E2.2999
G1 X140.495 Y75.359 E2.31789
G1 X140.478 Y75.632 E2.32699
G1 X140.412 Y76.046 E2.34093
G1 X140.398 Y76.085 E2.34231
G1 X141.346 Y76.598 E2.37816
G1 X141.451 Y76.659 E2.3822
G1 X142.358 Y77.217 E2.41762
G1 X142.709 Y76.916 E2.433
G1 X142.937 Y76.765 E2.44209
G1 X143.307 Y76.568 E2.45603
G1 X143.708 Y76.444 E2.46999
G1 X144.124 Y76.399 E2.48391
G1 X144.542 Y76.434 E2.49786
G1 X144.945 Y76.547 E2.51178
G1 X145.421 Y76.802 E2.52974
G1 X147.232 Y78.081 E2.60349
G1 X147.33 Y78.155 E2.60757
G1 X149.368 Y79.772 E2.6941
G1 X149.461 Y79.849 E2.69811
G1 X151.413 Y81.581 E2.78491
G1 X151.502 Y81.664 E2.78896
G1 X153.073 Y83.221 E2.86252
G1 X153.341 Y83.543 E2.87646
G1 X153.543 Y83.91 E2.89039
G1 X153.672 Y84.309 E2.90434
G1 X153.723 Y84.725 E2.91828
G1 X153.694 Y85.143 E2.93222
G1 X153.539 Y85.667 E2.95039
G1 X153.429 Y85.918 E2.9595
G1 X153.225 Y86.284 E2.97344
G1 X153.199 Y86.315 E2.97479
G1 X153.915 Y87.123 E3.01069
G1 X153.992 Y87.215 E3.01468
G1 X154.655 Y88.05 E3.05015
G1 X155.074 Y87.89 E3.06506
G1 X155.341 Y87.824 E3.07421
G1 X155.756 Y87.763 E3.08816
G1 X156.174 Y87.781 E3.10208
G1 X156.582 Y87.879 E3.11603
G1 X156.964 Y88.052 E3.12998
G1 X157.306 Y88.294 E3.14392
G1 X157.677 Y88.707 E3.16238
G1 X158.94 Y90.53 E3.23615
G1 X159.006 Y90.631 E3.24016
G1 X160.367 Y92.844 E3.32657
G1 X160.428 Y92.949 E3.33061
G1 X161.667 Y95.238 E3.41718
G1 X161.722 Y95.347 E3.42124
G1 X162.669 Y97.357 E3.49514
G1 X162.811 Y97.752 E3.5091
G1 X162.875 Y98.166 E3.52303
G1 X162.86 Y98.585 E3.53698
G1 X162.765 Y98.993 E3.55091
G1 X162.595 Y99.376 E3.56485
G1 X162.274 Y99.81 E3.5828
G1 X162.085 Y100.009 E3.59193
G1 X161.769 Y100.284 E3.60586
G1 X161.73 Y100.306 E3.60735
G1 X162.122 Y101.295 E3.64274
G1 X162.165 Y101.411 E3.64685
G1 X162.503 Y102.429 E3.68253
G1 X162.964 Y102.422 E3.69786
G1 X163.235 Y102.452 E3.70693
G1 X163.645 Y102.538 E3.72086
G1 X164.032 Y102.7 E3.73482
G1 X164.381 Y102.932 E3.74876
G1 X164.679 Y103.226 E3.76268
G1 X164.917 Y103.571 E3.77662
G1 X165.116 Y104.063 E3.79427
G1 X165.495 Y105.461 E3.84245
G1 X165.916 Y107.274 E3.90435
G1 X165.934 Y107.355 E3.90711
G1 X166.25 Y109.001 E3.96286
G1 X166.289 Y109.418 E3.97679
G1 X166.249 Y109.836 E3.99076
G1 X166.13 Y110.237 E4.00467
G1 X165.907 Y110.655 E4.02043
G1 X165.813 Y110.793 E4.02598
G1 X165.545 Y111.115 E4.03991
G1 X165.221 Y111.38 E4.05383
G1 X164.853 Y111.58 E4.06777
G1 X164.368 Y111.722 E4.08457
G1 X160.653 Y112.361 E4.20995
G1 X160.235 Y112.393 E4.22389
G1 X159.819 Y112.344 E4.23782
G1 X159.419 Y112.218 E4.25177
G1 X159.031 Y112.004 E4.26651
G1 X158.899 Y111.913 E4.27184
G1 X158.579 Y111.644 E4.28575
G1 X158.315 Y111.318 E4.2997
G1 X158.117 Y110.948 E4.31366
G1 X157.992 Y110.542 E4.32779
G1 X157.499 Y108.127 E4.40977
G1 X156.838 Y105.668 E4.49446
G1 X156.03 Y103.273 E4.57853
G1 X155.075 Y100.933 E4.66259
G1 X153.981 Y98.661 E4.74646
G1 X152.745 Y96.458 E4.83047
G1 X151.385 Y94.348 E4.91397
G1 X149.879 Y92.301 E4.99849
G1 X148.268 Y90.376 E5.08198
G1 X146.528 Y88.539 E5.16614
G1 X144.673 Y86.809 E5.2505
G1 X142.749 Y85.224 E5.33341
G1 X140.688 Y83.731 E5.41806
G1 X138.547 Y82.375 E5.50235
G1 X136.341 Y81.163 E5.58606
G1 X134.067 Y80.088 E5.66972
G1 X131.699 Y79.145 E5.7545
G1 X129.329 Y78.367 E5.83746
G1 X126.828 Y77.713 E5.92344
G1 X124.395 Y77.239 E6.00589
G1 X121.898 Y76.909 E6.08966
G1 X119.358 Y76.731 E6.17435
G1 X116.853 Y76.713 E6.25767
G1 X114.313 Y76.851 E6.34227
G1 X111.809 Y77.142 E6.42612
G1 X109.35 Y77.584 E6.50921
G1 X106.886 Y78.185 E6.59357
G1 X104.462 Y78.94 E6.67801
G1 X102.099 Y79.841 E6.76213
G1 X99.809 Y80.877 E6.84572
G1 X97.572 Y82.064 E6.92995
G1 X95.433 Y83.373 E7.01336
G1 X93.333 Y84.845 E7.09866
G1 X91.386 Y86.399 E7.18151
G1 X89.503 Y88.102 E7.26595
G1 X87.738 Y89.908 E7.34994
G1 X86.082 Y91.827 E7.43425
G1 X84.562 Y93.828 E7.51783
G1 X83.171 Y95.914 E7.60122
G1 X81.892 Y98.117 E7.68595
G1 X80.758 Y100.381 E7.77016
G1 X79.778 Y102.685 E7.85344
G1 X78.936 Y105.06 E7.93725
G1 X78.228 Y107.532 E8.02277
G1 X77.696 Y109.956 E8.10532
G1 X77.302 Y112.482 E8.19035
G1 X77.071 Y114.962 E8.27319
G1 X76.993 Y117.506 E8.35784
G1 X77.071 Y120.019 E8.44147
G1 X77.305 Y122.534 E8.52548
G1 X77.697 Y125.051 E8.6102
G1 X78.229 Y127.463 E8.69235
G1 X78.935 Y129.945 E8.77818
G1 X79.771 Y132.298 E8.86123
G1 X80.758 Y134.619 E8.94512
G1 X81.891 Y136.883 E9.02932
G1 X83.169 Y139.082 E9.11392
G1 X84.563 Y141.172 E9.19747
G1 X86.082 Y143.173 E9.28103
G1 X87.738 Y145.092 E9.36534
G1 X89.503 Y146.898 E9.44933
G1 X91.386 Y148.601 E9.53377
G1 X93.333 Y150.155 E9.61663
G1 X95.431 Y151.625 E9.70183
G1 X97.572 Y152.936 E9.78533
G1 X99.809 Y154.123 E9.86956
G1 X102.099 Y155.159 E9.95316
G1 X104.462 Y156.06 E10.03727
G1 X106.88 Y156.813 E10.1215
G1 X109.348 Y157.417 E10.20601
G1 X111.819 Y157.859 E10.2895
G1 X114.313 Y158.149 E10.37301
G1 X116.853 Y158.287 E10.45762
G1 X119.358 Y158.269 E10.54093
G1 X121.898 Y158.091 E10.62562
G1 X124.388 Y157.762 E10.70916
G1 X126.842 Y157.281 E10.79233
G1 X129.322 Y156.636 E10.87756
G1 X131.7 Y155.855 E10.96081
G1 X134.067 Y154.912 E11.04556
G1 X136.334 Y153.841 E11.12895
G1 X138.553 Y152.62 E11.21319
G1 X140.688 Y151.269 E11.29722
G1 X142.75 Y149.775 E11.38191
G1 X144.673 Y148.191 E11.46478
G1 X146.529 Y146.46 E11.54919
G1 X148.268 Y144.624 E11.6333
G1 X149.88 Y142.698 E11.71683
G1 X151.391 Y140.644 E11.80164
G1 X152.746 Y138.54 E11.88488
G1 X153.981 Y136.337 E11.96888
G1 X155.077 Y134.063 E12.05284
G1 X156.027 Y131.736 E12.13644
G1 X156.843 Y129.315 E12.22141
G1 X157.502 Y126.87 E12.30563
G1 X157.992 Y124.46 E12.38743
G1 X158.114 Y124.059 E12.40137
G1 X158.31 Y123.689 E12.4153
G1 X158.573 Y123.362 E12.42925
G1 X158.899 Y123.087 E12.44344
G1 X159.031 Y122.996 E12.44877
G1 X159.397 Y122.792 E12.46271
G1 X159.796 Y122.661 E12.47668
G1 X160.211 Y122.608 E12.49059
G1 X160.653 Y122.639 E12.50533
G1 X164.368 Y123.278 E12.6307
G1 X164.772 Y123.388 E12.64463
G1 X165.148 Y123.573 E12.65857
G1 X165.483 Y123.825 E12.67251
G1 X165.813 Y124.207 E12.6893
G1 X165.907 Y124.345 E12.69485
G1 X166.109 Y124.713 E12.70882
G1 X166.238 Y125.112 E12.72276
G1 X166.288 Y125.528 E12.7367
G1 X166.25 Y125.998 E12.75238
G1 X165.934 Y127.647 E12.80823
G1 X165.51 Y129.482 E12.87087
G1 X165.49 Y129.562 E12.87361
G1 X165.116 Y130.938 E12.92104
G1 X164.968 Y131.33 E12.93497
G1 X164.748 Y131.687 E12.94892
G1 X164.465 Y131.996 E12.96286
G1 X164.129 Y132.245 E12.97677
G1 X163.751 Y132.426 E12.99071
G1 X163.235 Y132.548 E13.00834
G1 X162.964 Y132.578 E13.01741
G1 X162.545 Y132.584 E13.03135
G1 X162.501 Y132.576 E13.03283
G1 X162.166 Y133.583 E13.06813
G1 X162.124 Y133.698 E13.0722
G1 X161.728 Y134.698 E13.10798
G1 X162.085 Y134.991 E13.12334
G1 X162.274 Y135.19 E13.13247
G1 X162.533 Y135.52 E13.14642
G1 X162.724 Y135.893 E13.16036
G1 X162.841 Y136.295 E13.17428
G1 X162.879 Y136.713 E13.18824
G1 X162.838 Y137.13 E13.20218
G1 X162.669 Y137.643 E13.22014
G1 X161.724 Y139.649 E13.2939
G1 X161.669 Y139.758 E13.29796
G1 X160.427 Y142.052 E13.38472
G1 X160.366 Y142.157 E13.38876
G1 X159.008 Y144.367 E13.47503
G1 X158.942 Y144.468 E13.47904
G1 X157.677 Y146.293 E13.5529
G1 X157.407 Y146.613 E13.56683
G1 X157.08 Y146.876 E13.58078
G1 X156.71 Y147.073 E13.59473
G1 X156.31 Y147.195 E13.60863
G1 X155.893 Y147.24 E13.62258
G1 X155.341 Y147.176 E13.64107
G1 X155.074 Y147.11 E13.65021
G1 X154.679 Y146.971 E13.66414
G1 X154.651 Y146.955 E13.66521
G1 X153.989 Y147.79 E13.70066
G1 X153.911 Y147.883 E13.70469
G1 X153.195 Y148.69 E13.74058
G1 X153.426 Y149.078 E13.75559
G1 X153.537 Y149.33 E13.76475
G1 X153.669 Y149.728 E13.7787
G1 X153.723 Y150.144 E13.79265
G1 X153.697 Y150.562 E13.80658
G1 X153.592 Y150.968 E13.82053
G1 X153.412 Y151.346 E13.83445
G1 X153.073 Y151.78 E13.85277
G1 X151.5 Y153.339 E13.92643
G1 X151.41 Y153.422 E13.9305
G1 X149.455 Y155.155 E14.0174
G1 X149.364 Y155.232 E14.02136
G1 X147.329 Y156.847 E14.10777
G1 X147.23 Y156.921 E14.11188
G1 X145.421 Y158.198 E14.18553
G1 X145.057 Y158.406 E14.19947
G1 X144.66 Y158.541 E14.21342
G1 X144.245 Y158.599 E14.22736
G1 X143.827 Y158.577 E14.24128
G1 X143.42 Y158.476 E14.25523
G1 X142.937 Y158.235 E14.27318
G1 X142.709 Y158.084 E14.28228
G1 X142.383 Y157.821 E14.29621
G1 X142.354 Y157.786 E14.29772
G1 X141.448 Y158.343 E14.33309
G1 X141.343 Y158.404 E14.33713
G1 X140.393 Y158.918 E14.37306
G1 X140.478 Y159.369 E14.38832
G1 X140.495 Y159.643 E14.39745
G1 X140.481 Y160.062 E14.4114
G1 X140.388 Y160.47 E14.42531
G1 X140.219 Y160.854 E14.43927
G1 X139.98 Y161.198 E14.4532
G1 X139.681 Y161.491 E14.46712
G1 X139.221 Y161.776 E14.48512
G1 X137.2 Y162.709 E14.55916
G1 X137.087 Y162.758 E14.56325
G1 X134.673 Y163.713 E14.6496
G1 X134.558 Y163.755 E14.65367
G1 X132.089 Y164.576 E14.74021
G1 X131.974 Y164.61 E14.7442
G1 X129.837 Y165.193 E14.81787
G1 X129.424 Y165.265 E14.83182
G1 X129.005 Y165.256 E14.84576
G1 X128.595 Y165.169 E14.8597
G1 X128.21 Y165.005 E14.87362
G1 X127.862 Y164.771 E14.88756
G1 X127.484 Y164.372 E14.90584
G1 X127.322 Y164.151 E14.91496
G1 X127.107 Y163.791 E14.9289
G1 X127.094 Y163.756 E14.93015
G1 X126.046 Y163.971 E14.96573
G1 X125.926 Y163.992 E14.96978
G1 X124.866 Y164.149 E15.00542
G1 X124.79 Y164.611 E15.02099
G1 X124.712 Y164.873 E15.03009
G1 X124.554 Y165.261 E15.04402
G1 X124.326 Y165.613 E15.05797
G1 X124.036 Y165.915 E15.07189
G1 X123.693 Y166.156 E15.08584
G1 X123.311 Y166.328 E15.09977
G1 X122.785 Y166.437 E15.11764
G1 X120.575 Y166.62 E15.19139
G1 X120.454 Y166.627 E15.19543
G1 X117.85 Y166.699 E15.28207
G1 X117.728 Y166.699 E15.28613
G1 X115.125 Y166.627 E15.37274
G1 X115.004 Y166.62 E15.37677
G1 X112.799 Y166.437 E15.45036
G1 X112.387 Y166.363 E15.46428
G1 X111.996 Y166.212 E15.47822
G1 X111.641 Y165.99 E15.49215
G1 X111.334 Y165.704 E15.5061
G1 X111.087 Y165.365 E15.52005
G1 X110.872 Y164.873 E15.53791
G1 X110.794 Y164.611 E15.547
G1 X110.714 Y164.2 E15.56093
G1 X110.714 Y164.148 E15.56266
G1 X109.652 Y163.991 E15.59836
G1 X109.531 Y163.97 E15.60245
G1 X108.483 Y163.755 E15.63803
G1 X108.262 Y164.151 E15.65312
G1 X108.1 Y164.372 E15.66223
G1 X107.822 Y164.684 E15.67613
G1 X107.488 Y164.939 E15.6901
G1 X107.113 Y165.125 E15.70403
G1 X106.709 Y165.237 E15.71797
G1 X106.292 Y165.271 E15.73189
G1 X105.747 Y165.193 E15.7502
G1 X103.603 Y164.608 E15.82411
G1 X103.487 Y164.573 E15.82814
G1 X101.02 Y163.752 E15.91462
G1 X100.905 Y163.711 E15.91868
G1 X98.492 Y162.756 E16.005
G1 X98.379 Y162.707 E16.00909
G1 X96.362 Y161.775 E16.08299
G1 X96 Y161.564 E16.09693
G1 X95.685 Y161.288 E16.11086
G1 X95.428 Y160.957 E16.1248
G1 X95.238 Y160.584 E16.13872
G1 X95.122 Y160.181 E16.15267
G1 X95.089 Y159.641 E16.17066
G1 X95.106 Y159.368 E16.17976
G1 X95.172 Y158.954 E16.1937
G1 X95.186 Y158.915 E16.19508
G1 X94.238 Y158.402 E16.23093
G1 X94.133 Y158.341 E16.23497
G1 X93.226 Y157.783 E16.27039
G1 X92.875 Y158.084 E16.28577
G1 X92.647 Y158.235 E16.29487
G1 X92.277 Y158.432 E16.30881
G1 X91.876 Y158.556 E16.32277
G1 X91.46 Y158.601 E16.33668
G1 X91.042 Y158.566 E16.35064
G1 X90.639 Y158.453 E16.36456
G1 X90.163 Y158.198 E16.38252
G1 X88.352 Y156.919 E16.45626
G1 X88.253 Y156.845 E16.46037
G1 X86.214 Y155.227 E16.54694
G1 X86.122 Y155.15 E16.55093
G1 X84.171 Y153.419 E16.63768
G1 X84.082 Y153.336 E16.64173
G1 X82.511 Y151.779 E16.7153
G1 X82.243 Y151.457 E16.72923
G1 X82.041 Y151.09 E16.74317
G1 X81.912 Y150.691 E16.75711
G1 X81.861 Y150.275 E16.77105
G1 X81.89 Y149.857 E16.78499
G1 X82.045 Y149.333 E16.80316
G1 X82.155 Y149.082 E16.81228
G1 X82.359 Y148.716 E16.82621
G1 X82.385 Y148.685 E16.82756
G1 X81.668 Y147.876 E16.86351
G1 X81.59 Y147.784 E16.86753
G1 X80.93 Y146.952 E16.90285
G1 X80.511 Y147.111 E16.91775
G1 X80.244 Y147.177 E16.9269
G1 X79.829 Y147.238 E16.94085
G1 X79.411 Y147.22 E16.95477
G1 X79.003 Y147.122 E16.96872
G1 X78.621 Y146.949 E16.98267
G1 X78.279 Y146.707 E16.99661
G1 X77.908 Y146.294 E17.01507
G1 X76.638 Y144.461 E17.08924
G1 X76.572 Y144.36 E17.09325
G1 X75.216 Y142.154 E17.17938
G1 X75.155 Y142.048 E17.18345
G1 X73.913 Y139.751 E17.2703
G1 X73.858 Y139.642 E17.27436
G1 X72.916 Y137.642 E17.34789
G1 X72.774 Y137.248 E17.36182
G1 X72.71 Y136.834 E17.37575
G1 X72.725 Y136.415 E17.3897
G1 X72.82 Y136.007 E17.40363
G1 X72.99 Y135.624 E17.41757
G1 X73.311 Y135.19 E17.43552
G1 X73.5 Y134.991 E17.44465
G1 X73.816 Y134.716 E17.45858
G1 X73.853 Y134.694 E17.46001
G1 X73.457 Y133.693 E17.49582
G1 X73.415 Y133.577 E17.49992
G1 X73.079 Y132.567 E17.53532
G1 X72.618 Y132.573 E17.55066
G1 X72.345 Y132.542 E17.5598
G1 X71.935 Y132.455 E17.57374
G1 X71.549 Y132.292 E17.58767
G1 X71.201 Y132.059 E17.6016
G1 X70.903 Y131.764 E17.61555
G1 X70.666 Y131.418 E17.6295
