;FLAVOR:Marlin
;TIME:1579
;Filament used: 1.51108m
;Layer height: 0.3
;MINX:65.907
;MINY:102.2
;MINZ:0.2
;MAXX:169.08
;MAXY:132.8
;MAXZ:10.1
;Generated with Cura_SteamEngine 4.10.0
M140 S60
M105
M190 S60
M104 S205
M105
M109 S205
M82 ;absolute extrusion mode
; Ender 3 Custom Start G-code
G92 E0 ; Reset Extruder
G28 ; Home all axes
G1 Z2.0 F3000 ; Move Z Axis up little to prevent scratching of Heat Bed
G1 X0.1 Y20 Z0.3 F5000.0 ; Move to start position
G1 X0.1 Y200.0 Z0.3 F1500.0 E15 ; Draw the first line
G1 X0.4 Y200.0 Z0.3 F5000.0 ; Move to side a little
G1 X0.4 Y20 Z0.3 F1500.0 E30 ; Draw the second line
G92 E0 ; Reset Extruder
G1 Z2.0 F3000 ; Move Z Axis up little to prevent scratching of Heat Bed
G1 X5 Y20 Z0.3 F5000.0 ; Move over to prevent blob squish
G92 E0
G92 E0
G1 F2700 E-5
;LAYER_COUNT:34
;LAYER:0
M107
G0 F6000 X69.914 Y104.796 Z0.2
;TYPE:SKIRT
G1 F2700 E0
G1 F1200 X70.725 Y104.331 E0.03109
G1 X71.385 Y103.993 E0.05576
G1 X72.239 Y103.606 E0.08694
G1 X72.924 Y103.334 E0.11145
G1 X73.832 Y103.022 E0.14339
G1 X74.546 Y102.814 E0.16812
G1 X75.475 Y102.591 E0.1999
G1 X76.207 Y102.452 E0.22468
G1 X77.136 Y102.321 E0.25588
G1 X77.85 Y102.254 E0.27974
G1 X78.786 Y102.209 E0.3109
G1 X79.161 Y102.2 E0.32338
G1 X153.802 Y102.2 E2.80595
G1 X154.285 Y102.215 E2.82202
G1 X155.188 Y102.271 E2.85211
G1 X156.124 Y102.386 E2.88348
G1 X157.016 Y102.551 E2.91365
G1 X157.913 Y102.773 E2.94439
G1 X158.778 Y103.042 E2.97451
G1 X159.671 Y103.381 E3.00628
G1 X160.495 Y103.753 E3.03635
G1 X161.341 Y104.199 E3.06816
G1 X162.115 Y104.67 E3.0983
G1 X162.874 Y105.196 E3.12901
G1 X163.588 Y105.756 E3.15919
G1 X164.302 Y106.391 E3.19097
G1 X164.939 Y107.031 E3.22101
G1 X165.55 Y107.721 E3.25166
G1 X166.105 Y108.429 E3.28158
G1 X166.645 Y109.213 E3.31324
G1 X167.116 Y109.994 E3.34358
G1 X167.546 Y110.811 E3.37429
G1 X167.915 Y111.628 E3.4041
G1 X168.258 Y112.537 E3.43642
G1 X168.528 Y113.411 E3.46684
G1 X168.747 Y114.3 E3.49729
G1 X168.91 Y115.185 E3.52722
G1 X169.025 Y116.127 E3.55879
G1 X169.08 Y117.037 E3.58911
G1 X169.079 Y117.991 E3.62084
G1 X169.023 Y118.894 E3.65093
G1 X168.908 Y119.828 E3.68223
G1 X168.743 Y120.721 E3.71244
G1 X168.52 Y121.625 E3.7434
G1 X168.251 Y122.488 E3.77347
G1 X167.911 Y123.38 E3.80522
G1 X167.538 Y124.205 E3.83533
G1 X167.098 Y125.04 E3.86673
G1 X166.628 Y125.814 E3.89684
G1 X166.096 Y126.583 E3.92794
G1 X165.537 Y127.295 E3.95805
G1 X164.913 Y127.998 E3.98932
G1 X164.272 Y128.638 E4.01944
G1 X163.568 Y129.261 E4.05071
G1 X162.86 Y129.815 E4.08061
G1 X162.087 Y130.348 E4.11184
G1 X161.306 Y130.82 E4.14219
G1 X160.479 Y131.254 E4.17326
G1 X159.661 Y131.623 E4.2031
G1 X158.748 Y131.968 E4.23556
G1 X157.874 Y132.237 E4.26598
G1 X156.994 Y132.453 E4.29612
G1 X156.11 Y132.616 E4.32601
G1 X155.171 Y132.731 E4.35748
G1 X154.269 Y132.786 E4.38754
G1 X153.794 Y132.8 E4.40334
G1 X79.144 Y132.8 E6.88621
G1 X78.761 Y132.791 E6.89895
G1 X77.826 Y132.745 E6.93009
G1 X77.106 Y132.676 E6.95415
G1 X76.175 Y132.543 E6.98542
G1 X75.447 Y132.403 E7.01008
G1 X74.536 Y132.183 E7.04125
G1 X73.846 Y131.982 E7.06516
G1 X72.959 Y131.679 E7.09633
G1 X72.274 Y131.409 E7.12082
G1 X71.42 Y131.024 E7.15198
G1 X70.759 Y130.687 E7.17666
G1 X69.927 Y130.212 E7.20852
G1 X69.262 Y129.786 E7.23479
G1 X68.643 Y129.295 E7.26107
G1 X68.077 Y128.744 E7.28734
G1 X67.57 Y128.139 E7.31359
G1 X67.126 Y127.486 E7.33986
G1 X66.751 Y126.791 E7.36612
G1 X66.448 Y126.062 E7.39238
G1 X66.221 Y125.305 E7.41867
G1 X66.071 Y124.53 E7.44492
G1 X66.024 Y124.124 E7.45851
G1 X65.936 Y123.127 E7.4918
G1 X65.907 Y122.338 E7.51806
G1 X65.957 Y121.55 E7.54433
G1 X66.087 Y120.771 E7.57059
G1 X66.295 Y120.009 E7.59686
G1 X66.579 Y119.272 E7.62313
G1 X66.936 Y118.568 E7.64939
G1 X67.362 Y117.903 E7.67566
G1 X67.679 Y117.504 E7.6926
G1 X67.608 Y117.423 E7.69619
G1 X67.148 Y116.782 E7.72243
G1 X66.754 Y116.097 E7.74871
G1 X66.432 Y115.376 E7.77497
G1 X66.185 Y114.626 E7.80124
G1 X66.014 Y113.855 E7.8275
G1 X65.923 Y113.071 E7.85376
G1 X65.911 Y112.281 E7.88003
G1 X65.936 Y111.873 E7.89363
G1 X66.024 Y110.877 E7.92689
G1 X66.133 Y110.094 E7.95318
G1 X66.321 Y109.327 E7.97945
G1 X66.586 Y108.583 E8.00571
G1 X66.924 Y107.87 E8.03196
G1 X67.332 Y107.194 E8.05822
G1 X67.807 Y106.563 E8.08449
G1 X68.344 Y105.983 E8.11078
G1 X68.936 Y105.461 E8.13703
G1 X69.914 Y104.796 E8.17636
G0 F6000 X70.113 Y105.143
G1 F1200 X70.924 Y104.678 E8.20746
G1 X71.551 Y104.358 E8.23087
G1 X72.405 Y103.971 E8.26206
G1 X73.054 Y103.713 E8.28528
G1 X73.962 Y103.401 E8.31722
G1 X74.64 Y103.203 E8.34071
G1 X75.569 Y102.98 E8.37249
G1 X76.263 Y102.848 E8.39598
G1 X77.192 Y102.717 E8.42719
G1 X77.87 Y102.654 E8.44984
G1 X78.806 Y102.609 E8.481
G1 X79.161 Y102.6 E8.49281
G1 X153.802 Y102.6 E10.97538
G1 X154.26 Y102.614 E10.99062
G1 X155.163 Y102.67 E11.02072
G1 X156.051 Y102.779 E11.05047
G1 X156.943 Y102.944 E11.08064
G1 X157.794 Y103.155 E11.1098
G1 X158.659 Y103.424 E11.13993
G1 X159.507 Y103.745 E11.17009
G1 X160.331 Y104.117 E11.20016
G1 X161.133 Y104.54 E11.23032
G1 X161.907 Y105.011 E11.26045
G1 X162.627 Y105.51 E11.28959
G1 X163.341 Y106.07 E11.31977
G1 X164.019 Y106.673 E11.34995
G1 X164.656 Y107.313 E11.37998
G1 X165.235 Y107.968 E11.40906
G1 X165.79 Y108.676 E11.43898
G1 X166.303 Y109.419 E11.46901
G1 X166.774 Y110.2 E11.49935
G1 X167.181 Y110.976 E11.52849
G1 X167.55 Y111.793 E11.55831
G1 X167.876 Y112.655 E11.58896
G1 X168.146 Y113.529 E11.61938
G1 X168.354 Y114.373 E11.64829
G1 X168.517 Y115.258 E11.67822
G1 X168.626 Y116.152 E11.70818
G1 X168.681 Y117.062 E11.7385
G1 X168.68 Y117.966 E11.76857
G1 X168.624 Y118.869 E11.79866
G1 X168.515 Y119.756 E11.82838
G1 X168.35 Y120.649 E11.85859
G1 X168.138 Y121.506 E11.88795
G1 X167.869 Y122.369 E11.91802
G1 X167.547 Y123.216 E11.94816
G1 X167.174 Y124.041 E11.97827
G1 X166.756 Y124.833 E12.00805
G1 X166.286 Y125.607 E12.03817
G1 X165.781 Y126.336 E12.06767
G1 X165.222 Y127.048 E12.09778
G1 X164.631 Y127.715 E12.12742
G1 X163.99 Y128.355 E12.15754
G1 X163.321 Y128.946 E12.18723
G1 X162.613 Y129.5 E12.21713
G1 X161.881 Y130.005 E12.24671
G1 X161.1 Y130.477 E12.27706
G1 X160.315 Y130.889 E12.30655
G1 X159.497 Y131.258 E12.3364
G1 X158.631 Y131.586 E12.3672
G1 X157.757 Y131.855 E12.39761
G1 X156.922 Y132.059 E12.4262
G1 X156.038 Y132.222 E12.4561
G1 X155.146 Y132.331 E12.48599
G1 X154.244 Y132.386 E12.51604
G1 X153.794 Y132.4 E12.53102
G1 X79.144 Y132.4 E15.01389
G1 X78.78 Y132.391 E15.026
G1 X77.845 Y132.345 E15.05713
G1 X77.162 Y132.28 E15.07995
G1 X76.231 Y132.147 E15.11123
G1 X75.541 Y132.014 E15.1346
G1 X74.63 Y131.794 E15.16578
G1 X73.975 Y131.604 E15.18846
G1 X73.088 Y131.301 E15.21963
G1 X72.439 Y131.044 E15.24285
G1 X71.585 Y130.659 E15.27401
G1 X70.957 Y130.339 E15.29745
G1 X70.125 Y129.864 E15.32932
G1 X69.478 Y129.449 E15.35488
G1 X68.877 Y128.968 E15.38048
G1 X68.33 Y128.428 E15.40605
G1 X67.841 Y127.834 E15.43164
G1 X67.417 Y127.192 E15.45723
G1 X67.062 Y126.51 E15.4828
G1 X66.779 Y125.795 E15.50838
G1 X66.573 Y125.054 E15.53396
G1 X66.423 Y124.089 E15.56644
G1 X66.335 Y123.092 E15.59973
G1 X66.307 Y122.323 E15.62532
G1 X66.359 Y121.556 E15.65089
G1 X66.491 Y120.798 E15.67648
G1 X66.7 Y120.058 E15.70206
G1 X66.986 Y119.343 E15.72767
G1 X67.343 Y118.663 E15.75322
G1 X67.77 Y118.023 E15.7788
G1 X68.205 Y117.498 E15.80148
G1 X67.823 Y117.048 E15.82111
G1 X67.389 Y116.413 E15.8467
G1 X67.023 Y115.736 E15.87229
G1 X66.729 Y115.025 E15.89788
G1 X66.511 Y114.288 E15.92345
G1 X66.37 Y113.531 E15.94906
G1 X66.309 Y112.765 E15.97461
G1 X66.335 Y111.908 E16.00313
G1 X66.423 Y110.912 E16.03639
G1 X66.53 Y110.15 E16.06198
G1 X66.716 Y109.404 E16.08755
G1 X66.978 Y108.681 E16.11313
G1 X67.314 Y107.989 E16.13871
G1 X67.72 Y107.336 E16.16429
G1 X68.192 Y106.728 E16.18989
G1 X68.724 Y106.173 E16.21546
G1 X69.311 Y105.675 E16.24106
G1 X70.113 Y105.143 E16.27307
G0 F6000 X70.312 Y105.49
G1 F1200 X71.123 Y105.025 E16.30417
G1 X71.716 Y104.722 E16.32632
G1 X72.57 Y104.335 E16.3575
G1 X73.184 Y104.091 E16.37947
G1 X74.092 Y103.779 E16.41141
G1 X74.733 Y103.592 E16.43362
G1 X75.662 Y103.369 E16.46539
G1 X76.319 Y103.245 E16.48763
G1 X77.248 Y103.114 E16.51884
G1 X77.889 Y103.053 E16.54025
G1 X78.825 Y103.008 E16.57142
G1 X79.161 Y103 E16.5826
G1 X153.802 Y103 E19.06517
G1 X154.235 Y103.013 E19.07957
G1 X155.138 Y103.069 E19.10967
G1 X155.978 Y103.173 E19.13782
G1 X156.87 Y103.338 E19.16799
G1 X157.676 Y103.537 E19.1956
G1 X158.541 Y103.806 E19.22573
G1 X159.342 Y104.11 E19.25423
G1 X160.166 Y104.482 E19.2843
G1 X160.925 Y104.882 E19.31283
G1 X161.699 Y105.353 E19.34297
G1 X162.38 Y105.825 E19.37053
G1 X163.094 Y106.385 E19.40071
G1 X163.735 Y106.955 E19.42924
G1 X164.372 Y107.595 E19.45927
G1 X164.92 Y108.214 E19.48677
G1 X165.475 Y108.922 E19.51669
G1 X165.96 Y109.626 E19.54512
G1 X166.431 Y110.407 E19.57546
G1 X166.816 Y111.141 E19.60302
G1 X167.185 Y111.958 E19.63284
G1 X167.494 Y112.773 E19.66183
G1 X167.764 Y113.647 E19.69225
G1 X167.96 Y114.445 E19.71959
G1 X168.123 Y115.33 E19.74952
G1 X168.226 Y116.176 E19.77786
G1 X168.281 Y117.086 E19.80818
G1 X168.281 Y117.941 E19.83662
G1 X168.225 Y118.844 E19.86671
G1 X168.121 Y119.683 E19.89483
G1 X167.956 Y120.576 E19.92504
G1 X167.756 Y121.387 E19.95282
G1 X167.487 Y122.25 E19.98288
G1 X167.182 Y123.051 E20.01139
G1 X166.809 Y123.876 E20.0415
G1 X166.414 Y124.625 E20.06967
G1 X165.944 Y125.399 E20.09979
G1 X165.467 Y126.089 E20.12769
G1 X164.908 Y126.801 E20.15779
G1 X164.348 Y127.432 E20.18585
G1 X163.707 Y128.072 E20.21598
G1 X163.075 Y128.631 E20.24404
G1 X162.367 Y129.185 E20.27394
G1 X161.674 Y129.663 E20.30194
G1 X160.893 Y130.135 E20.3323
G1 X160.15 Y130.525 E20.36021
G1 X159.332 Y130.894 E20.39005
G1 X158.513 Y131.203 E20.41917
G1 X157.639 Y131.472 E20.44958
G1 X156.849 Y131.666 E20.47664
G1 X155.965 Y131.829 E20.50654
G1 X155.122 Y131.932 E20.53478
G1 X154.22 Y131.987 E20.56484
G1 X153.794 Y132 E20.57901
G1 X79.144 Y132 E23.06188
G1 X78.8 Y131.992 E23.07333
G1 X77.865 Y131.946 E23.10446
G1 X77.219 Y131.884 E23.12605
G1 X76.288 Y131.751 E23.15733
G1 X75.635 Y131.625 E23.17945
G1 X74.724 Y131.405 E23.21062
G1 X74.104 Y131.225 E23.23209
G1 X73.217 Y130.922 E23.26327
G1 X72.603 Y130.679 E23.28523
G1 X71.749 Y130.294 E23.31639
G1 X71.155 Y129.992 E23.33855
G1 X70.323 Y129.517 E23.37041
G1 X69.694 Y129.112 E23.3953
G1 X69.112 Y128.642 E23.42018
G1 X68.584 Y128.113 E23.44504
G1 X68.115 Y127.53 E23.46992
G1 X67.71 Y126.901 E23.49481
G1 X67.376 Y126.232 E23.51968
G1 X67.114 Y125.531 E23.54457
G1 X66.929 Y124.806 E23.56945
G1 X66.821 Y124.053 E23.59475
G1 X66.733 Y123.056 E23.62804
G1 X66.707 Y122.309 E23.6529
G1 X66.761 Y121.563 E23.67778
G1 X66.895 Y120.827 E23.70266
G1 X67.106 Y120.109 E23.72755
G1 X67.392 Y119.418 E23.75243
G1 X67.751 Y118.762 E23.7773
G1 X68.178 Y118.147 E23.8022
G1 X68.667 Y117.582 E23.82705
G1 X68.759 Y117.497 E23.83122
G1 X68.514 Y117.254 E23.8427
G1 X68.043 Y116.673 E23.86757
G1 X67.636 Y116.045 E23.89246
G1 X67.299 Y115.378 E23.91732
G1 X67.034 Y114.678 E23.94221
G1 X66.846 Y113.954 E23.96709
G1 X66.737 Y113.214 E23.99197
G1 X66.707 Y112.466 E24.01687
G1 X66.733 Y111.943 E24.03429
G1 X66.821 Y110.947 E24.06754
G1 X66.927 Y110.206 E24.09244
G1 X67.111 Y109.481 E24.11732
G1 X67.371 Y108.78 E24.14218
G1 X67.705 Y108.11 E24.16708
G1 X68.108 Y107.48 E24.19196
G1 X68.576 Y106.897 E24.21682
G1 X69.104 Y106.367 E24.24171
G1 X69.685 Y105.896 E24.26658
G1 X70.312 Y105.49 E24.29143
G0 F6000 X70.511 Y105.837
G1 F1200 X71.322 Y105.372 E24.32252
G1 X71.881 Y105.086 E24.3434
G1 X72.735 Y104.699 E24.37459
G1 X73.314 Y104.469 E24.39531
G1 X74.222 Y104.157 E24.42724
G1 X74.826 Y103.981 E24.44817
G1 X75.755 Y103.758 E24.47994
G1 X76.374 Y103.641 E24.5009
G1 X77.303 Y103.51 E24.5321
G1 X77.908 Y103.453 E24.55231
G1 X78.844 Y103.408 E24.58348
G1 X79.161 Y103.4 E24.59403
G1 X153.802 Y103.4 E27.0766
G1 X154.211 Y103.413 E27.09021
G1 X155.114 Y103.469 E27.1203
G1 X155.905 Y103.566 E27.1468
G1 X156.797 Y103.731 E27.17698
G1 X157.557 Y103.919 E27.20302
G1 X158.422 Y104.188 E27.23314
G1 X159.178 Y104.475 E27.26004
G1 X160.002 Y104.847 E27.29011
G1 X160.717 Y105.224 E27.31699
G1 X161.491 Y105.695 E27.34713
G1 X162.133 Y106.14 E27.37311
G1 X162.847 Y106.7 E27.40329
G1 X163.452 Y107.237 E27.4302
G1 X164.089 Y107.877 E27.46023
G1 X164.605 Y108.461 E27.48615
G1 X165.16 Y109.169 E27.51607
G1 X165.618 Y109.833 E27.5429
G1 X166.089 Y110.614 E27.57323
G1 X166.452 Y111.305 E27.59919
G1 X166.821 Y112.122 E27.62901
G1 X167.112 Y112.891 E27.65636
G1 X167.382 Y113.765 E27.68678
G1 X167.567 Y114.518 E27.71257
G1 X167.73 Y115.403 E27.7425
G1 X167.827 Y116.2 E27.76921
G1 X167.882 Y117.11 E27.79953
G1 X167.881 Y117.917 E27.82637
G1 X167.825 Y118.82 E27.85646
G1 X167.728 Y119.61 E27.88293
G1 X167.563 Y120.503 E27.91314
G1 X167.374 Y121.268 E27.93935
G1 X167.105 Y122.131 E27.96941
G1 X166.818 Y122.886 E27.99628
G1 X166.445 Y123.711 E28.02639
G1 X166.072 Y124.418 E28.05298
G1 X165.602 Y125.192 E28.0831
G1 X165.152 Y125.842 E28.10939
G1 X164.593 Y126.554 E28.1395
G1 X164.065 Y127.149 E28.16596
G1 X163.424 Y127.789 E28.19608
G1 X162.828 Y128.316 E28.22254
G1 X162.12 Y128.87 E28.25245
G1 X161.467 Y129.321 E28.27884
G1 X160.686 Y129.793 E28.30919
G1 X159.986 Y130.16 E28.33548
G1 X159.168 Y130.529 E28.36533
G1 X158.395 Y130.821 E28.39281
G1 X157.521 Y131.09 E28.42323
G1 X156.777 Y131.273 E28.44871
G1 X155.893 Y131.436 E28.47861
G1 X155.098 Y131.533 E28.50524
G1 X154.196 Y131.588 E28.5353
G1 X153.794 Y131.6 E28.54868
G1 X79.144 Y131.6 E31.03155
G1 X78.82 Y131.592 E31.04233
G1 X77.885 Y131.546 E31.07346
G1 X77.276 Y131.488 E31.09381
G1 X76.345 Y131.355 E31.12509
G1 X75.729 Y131.237 E31.14595
G1 X74.818 Y131.017 E31.17712
G1 X74.233 Y130.847 E31.19738
G1 X73.346 Y130.544 E31.22856
G1 X72.767 Y130.315 E31.24927
G1 X71.913 Y129.93 E31.28042
G1 X71.354 Y129.645 E31.30129
G1 X70.522 Y129.17 E31.33316
G1 X69.912 Y128.775 E31.35733
G1 X69.349 Y128.316 E31.38149
G1 X68.84 Y127.798 E31.40564
G1 X68.39 Y127.228 E31.4298
G1 X68.007 Y126.611 E31.45395
G1 X67.693 Y125.956 E31.47811
G1 X67.453 Y125.27 E31.50228
G1 X67.29 Y124.562 E31.52645
G1 X67.22 Y124.018 E31.54469
G1 X67.132 Y123.021 E31.57798
G1 X67.108 Y122.295 E31.60214
G1 X67.164 Y121.571 E31.62629
G1 X67.299 Y120.857 E31.65046
G1 X67.512 Y120.163 E31.6746
G1 X67.799 Y119.496 E31.69876
G1 X68.159 Y118.865 E31.72292
G1 X68.585 Y118.277 E31.74707
G1 X69.074 Y117.739 E31.77125
G1 X69.343 Y117.502 E31.78317
G1 X69.218 Y117.398 E31.78858
G1 X68.713 Y116.875 E31.81276
G1 X68.269 Y116.301 E31.8369
G1 X67.891 Y115.68 E31.86108
G1 X67.583 Y115.022 E31.88524
G1 X67.349 Y114.335 E31.90938
G1 X67.193 Y113.625 E31.93356
G1 X67.115 Y112.903 E31.95771
G1 X67.132 Y111.978 E31.98848
G1 X67.22 Y110.982 E32.02174
G1 X67.323 Y110.263 E32.0459
G1 X67.505 Y109.56 E32.07005
G1 X67.763 Y108.881 E32.09421
G1 X68.095 Y108.235 E32.11837
G1 X68.495 Y107.629 E32.14252
G1 X68.959 Y107.07 E32.16668
G1 X69.482 Y106.566 E32.19084
G1 X70.058 Y106.122 E32.21503
G1 X70.511 Y105.837 E32.23283
G0 F6000 X70.71 Y106.184
G1 F1200 X71.521 Y105.719 E32.26392
G1 X72.046 Y105.451 E32.28353
G1 X72.9 Y105.064 E32.31471
G1 X73.444 Y104.847 E32.33419
G1 X74.352 Y104.535 E32.36612
G1 X74.92 Y104.37 E32.3858
G1 X75.849 Y104.147 E32.41757
G1 X76.43 Y104.037 E32.43724
G1 X77.359 Y103.906 E32.46845
G1 X77.927 Y103.852 E32.48742
G1 X78.863 Y103.807 E32.51859
G1 X79.161 Y103.8 E32.5285
G1 X153.802 Y103.8 E35.01107
G1 X154.186 Y103.812 E35.02385
G1 X155.089 Y103.868 E35.05394
G1 X155.833 Y103.959 E35.07887
G1 X156.725 Y104.124 E35.10904
G1 X157.438 Y104.301 E35.13348
G1 X158.303 Y104.57 E35.16361
G1 X159.013 Y104.839 E35.18886
G1 X159.837 Y105.211 E35.21893
G1 X160.509 Y105.566 E35.24421
G1 X161.283 Y106.037 E35.27434
G1 X161.886 Y106.455 E35.29875
G1 X162.6 Y107.015 E35.32893
G1 X163.168 Y107.519 E35.35418
G1 X163.805 Y108.159 E35.38422
G1 X164.29 Y108.708 E35.40858
G1 X164.845 Y109.416 E35.4385
G1 X165.275 Y110.039 E35.46368
G1 X165.746 Y110.82 E35.49401
G1 X166.087 Y111.47 E35.51843
G1 X166.456 Y112.287 E35.54824
G1 X166.73 Y113.009 E35.57393
G1 X167 Y113.883 E35.60435
G1 X167.173 Y114.59 E35.62856
