;FLAVOR:Marlin
;TIME:19304
;Filament used: 13.564m
;Layer height: 0.2
;MINX:48
;MINY:70.5
;MINZ:0.2
;MAXX:187
;MAXY:164.5
;MAXZ:15
;Generated with Cura_SteamEngine 4.10.0
M140 S60
M105
M190 S60
M104 S205
M105
M109 S205
M82 ;absolute extrusion mode
; Ender 3 Custom Start G-code
G92 E0 ; Reset Extruder
G28 ; Home all axes
G1 Z2.0 F3000 ; Move Z Axis up little to prevent scratching of Heat Bed
G1 X0.1 Y20 Z0.3 F5000.0 ; Move to start position
G1 X0.1 Y200.0 Z0.3 F1500.0 E15 ; Draw the first line
G1 X0.4 Y200.0 Z0.3 F5000.0 ; Move to side a little
G1 X0.4 Y20 Z0.3 F1500.0 E30 ; Draw the second line
G92 E0 ; Reset Extruder
G1 Z2.0 F3000 ; Move Z Axis up little to prevent scratching of Heat Bed
G1 X5 Y20 Z0.3 F5000.0 ; Move over to prevent blob squish
G92 E0
G92 E0
G1 F2700 E-5
;LAYER_COUNT:75
;LAYER:0
M107
G0 F6000 X55.804 Y74.177 Z0.2
;TYPE:SKIRT
G1 F2700 E0
G1 F1200 X56.232 Y73.867 E0.01758
G1 X57.289 Y73.191 E0.05931
G1 X57.797 Y72.905 E0.0787
G1 X58.066 Y72.758 E0.08889
G1 X58.552 Y72.502 E0.10716
G1 X59.684 Y71.985 E0.14855
G1 X60.251 Y71.764 E0.1688
G1 X60.57 Y71.645 E0.18012
G1 X61.072 Y71.467 E0.19783
G1 X62.241 Y71.124 E0.23835
G1 X62.805 Y70.992 E0.25762
G1 X63.138 Y70.92 E0.26895
G1 X63.505 Y70.846 E0.2814
G1 X64.189 Y70.73 E0.30448
G1 X64.796 Y70.647 E0.32486
G1 X65.655 Y70.564 E0.35356
G1 X66.264 Y70.529 E0.37385
G1 X66.743 Y70.512 E0.38979
G1 X67.691 Y70.5 E0.42132
G1 X167.457 Y70.5 E3.73955
G1 X168.059 Y70.506 E3.75958
G1 X168.357 Y70.513 E3.76949
G1 X169.004 Y70.539 E3.79103
G1 X169.109 Y70.545 E3.79453
G1 X169.548 Y70.579 E3.80917
G1 X170.215 Y70.644 E3.83146
G1 X171.2 Y70.785 E3.86456
G1 X171.537 Y70.849 E3.87596
G1 X171.988 Y70.945 E3.8913
G1 X172.754 Y71.124 E3.91746
G1 X173.933 Y71.47 E3.95833
G1 X174.465 Y71.659 E3.97711
G1 X174.786 Y71.778 E3.9885
G1 X175.326 Y71.989 E4.00778
G1 X176.441 Y72.498 E4.04855
G1 X176.928 Y72.754 E4.06684
G1 X177.215 Y72.91 E4.07771
G1 X177.722 Y73.196 E4.09707
G1 X178.786 Y73.88 E4.13914
G1 X179.277 Y74.237 E4.15933
G1 X179.525 Y74.423 E4.16964
G1 X179.94 Y74.743 E4.18707
G1 X180.875 Y75.551 E4.22817
G1 X181.316 Y75.978 E4.24859
G1 X181.555 Y76.218 E4.25986
G1 X181.925 Y76.599 E4.27752
G1 X182.74 Y77.539 E4.3189
G1 X183.096 Y78 E4.33827
G1 X183.29 Y78.258 E4.34901
G1 X183.614 Y78.704 E4.36734
G1 X184.296 Y79.766 E4.40932
G1 X184.596 Y80.298 E4.42964
G1 X184.735 Y80.553 E4.4393
G1 X184.986 Y81.027 E4.45714
G1 X185.51 Y82.171 E4.49899
G1 X185.723 Y82.716 E4.51845
G1 X185.842 Y83.035 E4.52977
G1 X186.029 Y83.561 E4.54834
G1 X186.376 Y84.74 E4.58922
G1 X186.511 Y85.317 E4.60893
G1 X186.579 Y85.63 E4.61958
G1 X186.685 Y86.151 E4.63726
G1 X186.866 Y87.401 E4.67927
G1 X186.919 Y88.017 E4.69984
G1 X186.941 Y88.33 E4.71027
G1 X186.972 Y88.87 E4.72826
G1 X186.986 Y89.205 E4.73941
G1 X186.996 Y89.578 E4.75182
G1 X187 Y89.873 E4.76164
G1 X186.999 Y144.931 E6.59287
G1 X186.989 Y145.651 E6.61682
G1 X186.98 Y145.971 E6.62747
G1 X186.966 Y146.296 E6.63829
G1 X186.943 Y146.685 E6.65125
G1 X186.927 Y146.896 E6.65829
G1 X186.87 Y147.563 E6.68055
G1 X186.697 Y148.78 E6.72144
G1 X186.58 Y149.366 E6.74131
G1 X186.501 Y149.729 E6.75367
G1 X186.375 Y150.265 E6.77198
G1 X186.025 Y151.45 E6.81308
G1 X185.832 Y151.99 E6.83215
G1 X185.717 Y152.297 E6.84306
G1 X185.508 Y152.831 E6.86213
G1 X185.006 Y153.932 E6.90238
G1 X184.75 Y154.42 E6.9207
G1 X184.592 Y154.71 E6.93169
G1 X184.308 Y155.214 E6.95093
G1 X183.623 Y156.281 E6.9931
G1 X183.264 Y156.775 E7.01341
G1 X183.082 Y157.019 E7.02354
G1 X182.764 Y157.432 E7.04087
G1 X181.944 Y158.38 E7.08256
G1 X181.524 Y158.813 E7.10263
G1 X181.294 Y159.043 E7.11345
G1 X180.904 Y159.422 E7.13153
G1 X180.897 Y159.415 E7.13186
G1 X180.532 Y159.768 E7.14875
G1 X179.946 Y160.253 E7.17405
G1 X179.489 Y160.605 E7.19324
G1 X179.233 Y160.796 E7.20386
G1 X178.786 Y161.12 E7.22222
G1 X177.741 Y161.791 E7.26353
G1 X177.21 Y162.091 E7.28381
G1 X176.938 Y162.24 E7.29413
G1 X176.463 Y162.491 E7.312
G1 X175.335 Y163.008 E7.35327
G1 X174.791 Y163.221 E7.3727
G1 X174.453 Y163.347 E7.3847
G1 X173.928 Y163.533 E7.40322
G1 X172.761 Y163.875 E7.44367
G1 X172.184 Y164.01 E7.46338
G1 X171.879 Y164.077 E7.47376
G1 X171.355 Y164.184 E7.49155
G1 X170.1 Y164.365 E7.53372
G1 X169.486 Y164.418 E7.55422
G1 X169.174 Y164.441 E7.56463
G1 X168.62 Y164.473 E7.58308
G1 X168.24 Y164.488 E7.59573
G1 X167.85 Y164.497 E7.60871
G1 X167.596 Y164.5 E7.61716
G1 X67.551 Y164.499 E10.94467
G1 X66.846 Y164.489 E10.96812
G1 X66.529 Y164.48 E10.97866
G1 X66.204 Y164.466 E10.98948
G1 X65.815 Y164.443 E11.00245
G1 X65.604 Y164.427 E11.00948
G1 X64.937 Y164.37 E11.03175
G1 X63.72 Y164.197 E11.07263
G1 X63.134 Y164.08 E11.09251
G1 X62.771 Y164.001 E11.10486
G1 X62.235 Y163.875 E11.12318
G1 X61.05 Y163.525 E11.16427
G1 X60.51 Y163.332 E11.18335
G1 X60.206 Y163.219 E11.19413
G1 X59.669 Y163.009 E11.21331
G1 X58.556 Y162.5 E11.25402
G1 X58.071 Y162.245 E11.27224
G1 X57.785 Y162.09 E11.28306
G1 X57.278 Y161.804 E11.30242
G1 X56.214 Y161.12 E11.34449
G1 X55.723 Y160.763 E11.36469
G1 X55.472 Y160.575 E11.37512
G1 X55.056 Y160.254 E11.39259
G1 X54.125 Y159.448 E11.43355
G1 X53.685 Y159.022 E11.45392
G1 X53.434 Y158.772 E11.4657
G1 X53.065 Y158.391 E11.48334
G1 X53.072 Y158.384 E11.48367
G1 X52.732 Y158.032 E11.49995
G1 X52.247 Y157.446 E11.52525
G1 X51.895 Y156.989 E11.54444
G1 X51.706 Y156.736 E11.55494
G1 X51.381 Y156.288 E11.57335
G1 X50.704 Y155.234 E11.61501
G1 X50.405 Y154.704 E11.63525
G1 X50.26 Y154.438 E11.64533
G1 X50.009 Y153.963 E11.6632
G1 X49.492 Y152.835 E11.70447
G1 X49.279 Y152.291 E11.7239
G1 X49.162 Y151.976 E11.73507
G1 X48.974 Y151.449 E11.75368
G1 X48.62 Y150.245 E11.79542
G1 X48.486 Y149.669 E11.81509
G1 X48.421 Y149.37 E11.82527
G1 X48.315 Y148.849 E11.84295
G1 X48.134 Y147.599 E11.88496
G1 X48.081 Y146.983 E11.90553
G1 X48.059 Y146.674 E11.91583
G1 X48.027 Y146.12 E11.93429
G1 X48.013 Y145.778 E11.94567
G1 X48.004 Y145.439 E11.95695
G1 X48 Y145.147 E11.96666
G1 X48.001 Y90.036 E13.79966
G1 X48.011 Y89.336 E13.82295
G1 X48.019 Y89.041 E13.83276
G1 X48.032 Y88.725 E13.84328
G1 X48.052 Y88.378 E13.85484
G1 X48.074 Y88.091 E13.86442
G1 X48.129 Y87.446 E13.88595
G1 X48.309 Y86.19 E13.92815
G1 X48.434 Y85.575 E13.94902
G1 X48.513 Y85.217 E13.96122
G1 X48.644 Y84.667 E13.98002
G1 X48.984 Y83.52 E14.01981
G1 X49.157 Y83.035 E14.03694
G1 X49.265 Y82.746 E14.0472
G1 X49.471 Y82.216 E14.06611
G1 X49.994 Y81.069 E14.10804
G1 X50.292 Y80.504 E14.12928
G1 X50.452 Y80.212 E14.14036
G1 X50.715 Y79.748 E14.1581
G1 X51.388 Y78.703 E14.19944
G1 X51.729 Y78.234 E14.21873
G1 X51.934 Y77.962 E14.23005
G1 X52.276 Y77.521 E14.24862
G1 X53.08 Y76.596 E14.28938
G1 X53.494 Y76.17 E14.30914
G1 X53.72 Y75.944 E14.31977
G1 X54.098 Y75.577 E14.33729
G1 X55.046 Y74.756 E14.379
G1 X55.543 Y74.373 E14.39987
G1 X55.804 Y74.177 E14.41073
G0 F6000 X56.039 Y74.501
G1 F1200 X56.467 Y74.191 E14.4283
G1 X57.485 Y73.539 E14.46851
G1 X57.993 Y73.253 E14.4879
G1 X58.253 Y73.112 E14.49774
G1 X58.739 Y72.856 E14.51601
G1 X59.83 Y72.358 E14.5559
G1 X60.397 Y72.137 E14.57614
G1 X60.704 Y72.022 E14.58704
G1 X61.206 Y71.844 E14.60476
G1 X62.332 Y71.514 E14.64378
G1 X62.896 Y71.382 E14.66305
G1 X63.217 Y71.312 E14.67398
G1 X63.584 Y71.238 E14.68643
G1 X64.243 Y71.127 E14.70865
G1 X64.85 Y71.044 E14.72903
G1 X65.678 Y70.963 E14.7567
G1 X66.287 Y70.928 E14.77699
G1 X66.749 Y70.912 E14.79237
G1 X67.691 Y70.9 E14.8237
G1 X167.457 Y70.9 E18.14193
G1 X168.055 Y70.906 E18.16182
G1 X168.342 Y70.912 E18.17137
G1 X168.771 Y70.928 E18.18565
G1 X169.086 Y70.944 E18.19614
G1 X169.509 Y70.977 E18.21025
G1 X170.176 Y71.042 E18.23254
G1 X171.126 Y71.178 E18.26446
G1 X171.463 Y71.242 E18.27587
G1 X171.897 Y71.334 E18.29062
G1 X172.663 Y71.513 E18.31679
G1 X173.8 Y71.847 E18.3562
G1 X174.332 Y72.036 E18.37498
G1 X174.641 Y72.151 E18.38595
G1 X175.181 Y72.362 E18.40523
G1 X176.255 Y72.852 E18.44449
G1 X176.742 Y73.108 E18.46279
G1 X177.018 Y73.259 E18.47326
G1 X177.525 Y73.545 E18.49262
G1 X178.551 Y74.204 E18.53317
G1 X179.042 Y74.561 E18.55336
G1 X179.281 Y74.74 E18.5633
G1 X179.696 Y75.06 E18.58073
G1 X180.596 Y75.839 E18.62032
G1 X181.037 Y76.266 E18.64073
G1 X181.268 Y76.496 E18.65157
G1 X181.638 Y76.877 E18.66924
G1 X182.424 Y77.783 E18.70913
G1 X182.78 Y78.244 E18.7285
G1 X182.966 Y78.493 E18.73884
G1 X183.29 Y78.939 E18.75718
G1 X183.947 Y79.962 E18.79761
G1 X184.247 Y80.494 E18.81793
G1 X184.382 Y80.74 E18.82726
G1 X184.633 Y81.214 E18.8451
G1 X185.138 Y82.316 E18.88542
G1 X185.351 Y82.861 E18.90488
G1 X185.466 Y83.169 E18.91582
G1 X185.653 Y83.695 E18.93438
G1 X185.986 Y84.831 E18.97376
G1 X186.121 Y85.408 E18.99347
G1 X186.187 Y85.71 E19.00375
G1 X186.293 Y86.231 E19.02143
G1 X186.467 Y87.435 E19.06189
G1 X186.52 Y88.051 E19.08246
G1 X186.542 Y88.352 E19.09249
G1 X186.573 Y88.892 E19.11048
G1 X186.586 Y89.216 E19.12127
G1 X186.596 Y89.589 E19.13368
G1 X186.6 Y89.873 E19.14313
G1 X186.599 Y144.925 E20.97416
G1 X186.589 Y145.645 E20.99811
G1 X186.58 Y145.954 E21.0084
G1 X186.566 Y146.279 E21.01921
G1 X186.544 Y146.659 E21.03187
G1 X186.529 Y146.862 E21.03865
G1 X186.472 Y147.529 E21.06091
G1 X186.305 Y148.701 E21.10029
G1 X186.188 Y149.287 E21.12016
G1 X186.112 Y149.638 E21.1321
G1 X185.986 Y150.174 E21.15042
G1 X185.649 Y151.316 E21.19002
G1 X185.456 Y151.856 E21.20909
G1 X185.345 Y152.151 E21.21958
G1 X185.136 Y152.685 E21.23865
G1 X184.652 Y153.746 E21.27744
G1 X184.396 Y154.234 E21.29577
G1 X184.244 Y154.514 E21.30636
G1 X183.96 Y155.018 E21.3256
G1 X183.3 Y156.046 E21.36624
G1 X182.941 Y156.54 E21.38655
G1 X182.765 Y156.775 E21.39631
G1 X182.447 Y157.188 E21.41365
G1 X181.657 Y158.101 E21.4538
G1 X181.237 Y158.534 E21.47387
G1 X181.015 Y158.756 E21.48431
G1 X180.625 Y159.135 E21.5024
G1 X180.619 Y159.129 E21.50268
G1 X180.242 Y159.491 E21.52006
G1 X179.702 Y159.936 E21.54334
G1 X179.245 Y160.288 E21.56252
G1 X178.998 Y160.473 E21.57279
G1 X178.551 Y160.797 E21.59115
G1 X177.544 Y161.443 E21.63094
G1 X177.013 Y161.743 E21.65123
G1 X176.751 Y161.886 E21.66115
G1 X176.276 Y162.137 E21.67902
G1 X175.189 Y162.635 E21.71879
G1 X174.645 Y162.848 E21.73822
G1 X174.32 Y162.969 E21.74976
G1 X173.795 Y163.155 E21.76828
G1 X172.67 Y163.485 E21.80727
G1 X172.093 Y163.62 E21.82698
G1 X171.799 Y163.685 E21.837
G1 X171.275 Y163.792 E21.85479
G1 X170.066 Y163.967 E21.89542
G1 X169.452 Y164.02 E21.91591
G1 X169.151 Y164.041 E21.92595
G1 X168.597 Y164.073 E21.94441
G1 X168.231 Y164.088 E21.95659
G1 X167.841 Y164.097 E21.96957
G1 X167.596 Y164.1 E21.97772
G1 X67.557 Y164.099 E25.30503
G1 X66.852 Y164.089 E25.32848
G1 X66.546 Y164.08 E25.33866
G1 X66.221 Y164.066 E25.34948
G1 X65.841 Y164.044 E25.36214
G1 X65.638 Y164.029 E25.36891
G1 X64.971 Y163.972 E25.39117
G1 X63.799 Y163.805 E25.43055
G1 X63.213 Y163.688 E25.45042
G1 X62.862 Y163.612 E25.46237
G1 X62.326 Y163.486 E25.48068
G1 X61.184 Y163.149 E25.52028
G1 X60.644 Y162.956 E25.53936
G1 X60.351 Y162.846 E25.54977
G1 X59.814 Y162.636 E25.56894
G1 X58.742 Y162.146 E25.60815
G1 X58.257 Y161.891 E25.62637
G1 X57.982 Y161.741 E25.63679
G1 X57.475 Y161.455 E25.65615
G1 X56.449 Y160.796 E25.69671
G1 X55.958 Y160.439 E25.7169
G1 X55.716 Y160.258 E25.72695
G1 X55.3 Y159.937 E25.74443
G1 X54.403 Y159.161 E25.78388
G1 X53.963 Y158.735 E25.80425
G1 X53.722 Y158.493 E25.81561
G1 X53.353 Y158.112 E25.83325
G1 X53.359 Y158.106 E25.83353
G1 X53.009 Y157.742 E25.85033
G1 X52.564 Y157.202 E25.8736
G1 X52.212 Y156.745 E25.89278
G1 X52.03 Y156.501 E25.90291
G1 X51.705 Y156.053 E25.92132
G1 X51.053 Y155.037 E25.96147
G1 X50.754 Y154.507 E25.98171
G1 X50.614 Y154.251 E25.99141
G1 X50.363 Y153.776 E26.00928
G1 X49.865 Y152.689 E26.04905
G1 X49.652 Y152.145 E26.06848
G1 X49.538 Y151.842 E26.07925
G1 X49.35 Y151.315 E26.09786
G1 X49.01 Y150.155 E26.13806
G1 X48.876 Y149.579 E26.15773
G1 X48.813 Y149.29 E26.16757
G1 X48.707 Y148.769 E26.18525
G1 X48.533 Y147.565 E26.22572
G1 X48.48 Y146.949 E26.24628
G1 X48.459 Y146.651 E26.25622
G1 X48.427 Y146.097 E26.27467
G1 X48.413 Y145.767 E26.28566
G1 X48.404 Y145.428 E26.29694
G1 X48.4 Y145.147 E26.30628
G1 X48.401 Y90.042 E28.13908
G1 X48.411 Y89.342 E28.16237
G1 X48.419 Y89.057 E28.17185
G1 X48.432 Y88.741 E28.18237
G1 X48.451 Y88.407 E28.1935
G1 X48.472 Y88.125 E28.2029
G1 X48.527 Y87.48 E28.22443
G1 X48.701 Y86.27 E28.26509
G1 X48.826 Y85.655 E28.28596
G1 X48.902 Y85.31 E28.29771
G1 X49.033 Y84.76 E28.31652
G1 X49.361 Y83.655 E28.35486
G1 X49.534 Y83.17 E28.37198
G1 X49.638 Y82.891 E28.38189
G1 X49.844 Y82.361 E28.4008
G1 X50.348 Y81.256 E28.44119
G1 X50.646 Y80.691 E28.46244
G1 X50.8 Y80.409 E28.47313
G1 X51.063 Y79.945 E28.49087
G1 X51.712 Y78.938 E28.53071
G1 X52.053 Y78.469 E28.55
G1 X52.25 Y78.207 E28.5609
G1 X52.592 Y77.766 E28.57946
G1 X53.366 Y76.874 E28.61874
G1 X53.78 Y76.448 E28.6385
G1 X53.998 Y76.231 E28.64873
G1 X54.376 Y75.864 E28.66625
G1 X55.29 Y75.073 E28.70646
G1 X55.787 Y74.69 E28.72733
G1 X56.039 Y74.501 E28.7378
G0 F6000 X56.274 Y74.825
G1 F1200 X56.702 Y74.515 E28.75538
G1 X57.681 Y73.888 E28.79405
G1 X58.189 Y73.602 E28.81344
G1 X58.439 Y73.465 E28.82292
G1 X58.925 Y73.209 E28.84119
G1 X59.975 Y72.73 E28.87957
G1 X60.542 Y72.509 E28.89982
G1 X60.837 Y72.399 E28.91029
G1 X61.339 Y72.221 E28.928
G1 X62.424 Y71.903 E28.96561
G1 X62.988 Y71.771 E28.98487
G1 X63.296 Y71.704 E28.99536
G1 X63.663 Y71.63 E29.00781
G1 X64.297 Y71.523 E29.02919
G1 X64.904 Y71.44 E29.04957
G1 X65.701 Y71.363 E29.0762
G1 X66.31 Y71.328 E29.09649
G1 X66.754 Y71.312 E29.11127
G1 X67.691 Y71.3 E29.14244
G1 X167.457 Y71.3 E32.46067
G1 X168.051 Y71.306 E32.48042
G1 X168.327 Y71.312 E32.48961
G1 X168.756 Y71.328 E32.50388
G1 X169.063 Y71.344 E32.51411
G1 X169.47 Y71.375 E32.52769
G1 X170.137 Y71.44 E32.54997
G1 X171.051 Y71.571 E32.58069
G1 X171.388 Y71.635 E32.59209
G1 X171.806 Y71.724 E32.60631
G1 X172.572 Y71.903 E32.63247
G1 X173.666 Y72.224 E32.67039
G1 X174.198 Y72.413 E32.68917
G1 X174.495 Y72.524 E32.69972
G1 X175.035 Y72.735 E32.719
G1 X176.069 Y73.206 E32.75679
G1 X176.556 Y73.462 E32.77509
G1 X176.821 Y73.607 E32.78514
G1 X177.328 Y73.893 E32.8045
G1 X178.315 Y74.527 E32.84351
G1 X178.806 Y74.884 E32.86371
G1 X179.036 Y75.056 E32.87326
G1 X179.451 Y75.376 E32.89069
G1 X180.318 Y76.126 E32.92882
G1 X180.759 Y76.553 E32.94923
G1 X180.981 Y76.775 E32.95968
G1 X181.351 Y77.156 E32.97734
G1 X182.107 Y78.028 E33.01572
G1 X182.463 Y78.489 E33.0351
G1 X182.642 Y78.728 E33.04503
G1 X182.966 Y79.174 E33.06336
G1 X183.599 Y80.159 E33.10231
G1 X183.899 Y80.691 E33.12262
G1 X184.028 Y80.928 E33.1316
G1 X184.279 Y81.402 E33.14943
G1 X184.765 Y82.462 E33.18822
G1 X184.978 Y83.007 E33.20768
G1 X185.089 Y83.303 E33.2182
G1 X185.276 Y83.829 E33.23676
G1 X185.597 Y84.922 E33.27465
G1 X185.732 Y85.499 E33.29436
G1 X185.795 Y85.789 E33.30423
G1 X185.901 Y86.31 E33.32192
G1 X186.068 Y87.47 E33.36089
G1 X186.121 Y88.086 E33.38146
G1 X186.142 Y88.375 E33.3911
G1 X186.173 Y88.915 E33.40909
G1 X186.186 Y89.227 E33.41947
G1 X186.196 Y89.6 E33.43188
G1 X186.2 Y89.873 E33.44096
G1 X186.199 Y144.92 E35.27183
G1 X186.189 Y145.64 E35.29578
G1 X186.181 Y145.937 E35.30567
G1 X186.167 Y146.262 E35.31649
G1 X186.145 Y146.633 E35.32885
G1 X186.073 Y147.494 E35.35758
G1 X185.913 Y148.623 E35.39551
G1 X185.796 Y149.209 E35.41538
G1 X185.722 Y149.546 E35.42686
G1 X185.596 Y150.082 E35.44517
G1 X185.272 Y151.181 E35.48328
G1 X185.079 Y151.721 E35.50236
G1 X184.972 Y152.006 E35.51248
G1 X184.763 Y152.54 E35.53155
G1 X184.298 Y153.56 E35.56884
G1 X184.042 Y154.048 E35.58717
G1 X183.895 Y154.317 E35.59736
G1 X183.611 Y154.821 E35.6166
G1 X182.976 Y155.81 E35.65569
G1 X182.617 Y156.304 E35.67601
G1 X182.448 Y156.531 E35.68542
G1 X182.13 Y156.944 E35.70275
G1 X181.37 Y157.823 E35.7414
G1 X180.95 Y158.256 E35.76147
G1 X180.737 Y158.469 E35.77148
G1 X180.347 Y158.848 E35.78957
G1 X180.34 Y158.841 E35.7899
G1 X179.951 Y159.214 E35.80783
G1 X179.458 Y159.619 E35.82905
G1 X179.001 Y159.971 E35.84823
G1 X178.763 Y160.149 E35.85812
G1 X178.316 Y160.473 E35.87648
G1 X177.347 Y161.095 E35.91478
G1 X176.816 Y161.395 E35.93506
G1 X176.564 Y161.532 E35.9446
G1 X176.089 Y161.783 E35.96247
G1 X175.043 Y162.263 E36.00075
